!!!!SEGMENT: pl-cz--ii-298_nowakiewicz-kazimierz--hej-bracia-czy-spicie.krn
!!!cenid: 18xx:981
!!!COM: Nowakiewicz, Kazimierz
!!!COM-rismid: pe30020309
!!!CDT: <1800->1824
!!!CNT: Polish
!!!OTL: Hej bracia czy śpicie
!!!PDT:
!!!AGN:
!!!SMS-siglum: PL-CZ
!!!SMS-shelfmark: II-298
!!!SMS-shelfwork: W
!!!NIFC-rismid: 300000922
!!!URL-scan: http://repozytorium.nifc.pl/skany/pl-cz-nut--ii-298
!!!SMS-variant: Sopran pl-cz--ii-298 35:5-6
!!!SMS-altvar: Sopran pl-cz--ii-298 35:7-8, 9-10, 11-12
!!!AIN: 1 bass 2 cbass 2 clars 1 clrno 1 cor 1 organ 1 soprn 1 timpa 1 tromt 2 violn
!!!key: G
**kern	**dynam	**kern	**kern	**dynam	**kern	**dynam	**kern	**dynam	**kern	**text	**kern	**text	**kern	**dynam	**kern	**dynam	**kern	**dynam	**kern	**dynam	**kern	**dynam	**kern	**dynam
*part13	*part13	*part12	*part11	*part11	*part10	*part10	*part9	*part9	*part8	*part8	*part7	*part7	*part6	*part6	*part5	*part5	*part4	*part4	*part3	*part3	*part2	*part2	*part1	*part1
*staff13	*	*staff12	*staff11	*	*staff10	*	*staff9	*	*staff8	*staff8	*staff7	*staff7	*staff6	*	*staff5	*	*staff4	*	*staff3	*	*staff2	*	*staff1	*
*I"Organo	*	*I"Kontra-Bass.	*I"Basso.	*	*I"Violino IIdo	*	*I"Violino Imo	*	*I"Baſso Solo	*	*I"[S]	*	*I"Tympano. in G. D.	*	*I"Puzon C.	*	*I"Clarino Princypal do G.	*	*I"Corno Imo et IIdo in G.	*	*I"Clarinetto IIdo in C.	*	*I"Clarinetto 1mo in C.	*
*I'org	*	*I'cb	*I'b	*	*I'vl II	*	*I'vl I	*	*I'B Solo	*	*I'S	*	*I'timp	*	*I't-trb	*	*I'clno princ	*	*I'cor I	*	*I'cl II	*	*I'cl I	*
*ICklav	*	*ICstr	*ICstr	*	*ICstr	*	*ICstr	*	*ICvox	*	*ICvox	*	*ICidio	*	*ICbras	*	*ICbras	*	*ICbras	*	*ICww	*	*ICww	*
*Iorgan	*	*Icbass	*Icbass	*	*Ivioln	*	*Ivioln	*	*Ibass	*	*Isoprn	*	*Itimpa	*	*Itromt	*	*Iclrno	*	*Icor	*	*Iclars	*	*Iclars	*
*clefF4	*	*clefF4	*clefF4	*	*clefG2	*	*clefG2	*	*clefF4	*	*clefG2	*	*clefF4	*	*clefF4	*	*clefG2	*	*clefG2	*	*clefG2	*	*clefG2	*
*	*	*ITrd0c0	*	*	*	*	*	*	*	*	*	*	*	*	*	*	*ITrd-4c-7	*	*ITrd3c5	*	*	*	*	*
*k[f#]	*	*k[f#]	*k[f#]	*	*k[f#]	*	*k[f#]	*	*k[f#]	*	*k[f#]	*	*k[f#]	*	*k[f#]	*	*k[f#]	*	*k[f#]	*	*k[f#]	*	*k[f#]	*
*G:	*	*G:	*G:	*	*G:	*	*G:	*	*G:	*	*G:	*	*G:	*	*G:	*	*G:	*	*G:	*	*G:	*	*G:	*
*M2/4	*	*M2/4	*M2/4	*	*M2/4	*	*M2/4	*	*M2/4	*	*M2/4	*	*M2/4	*	*M2/4	*	*M2/4	*	*M2/4	*	*M2/4	*	*M2/4	*
=1	=1	=1	=1	=1	=1	=1	=1	=1	=1	=1	=1	=1	=1	=1	=1	=1	=1	=1	=1	=1	=1	=1	=1	=1
*	*	*	*	*	*	*	*	*	*	*	*	*	*	*	*	*	*	*	*^	*	*	*	*	*
!	!	!	!	!	!	!	!	!	!	!	!LO:TX:a:t=Hej bracia czy śpicie	!	!	!	!	!	!	!	!	!	!	!	!	!	!
!	!	!LO:TX:t=P:all\right:problem	!LO:TX:a:t=Kolęda Hej bracia.	!	!	!	!	!	!LO:TX:a:t=12	!	!LO:TX:a:t=Aria in G	!	!	!	!LO:TX:t=P:all\right:problem	!	!	!	!	!	!	!	!	!	!
!	!	!LO:TX:t=P:problem=głos inną ręką	!LO:TX:t=P:all\right:problem	!	!	!	!	!	!LO:TX:a:t=Pastorale	!	!LO:TX:a:t=12.	!	!LO:TX:a:t=4.	!	!LO:TX:a:t=Hej bracia Koleda	!	!LO:TX:a:t=Pastorale	!	!LO:TX:a:t=Aria	!	!	!LO:TX:a:t=Aria Pastoral	!	!LO:TX:a:t=Aria Pastoral	!
!LO:TX:a:t=Pastorale	!	!LO:TX:a:t=Hej bracia Kolęda	!LO:TX:t=P:problem=głos inną ręką	!	!LO:TX:a:t=Pastorale	!	!LO:TX:a:t=Pastoral	!	!LO:TX:b:t=Aria	!	!LO:TX:a:t=Pastorale.	!	!LO:TX:a:t=Aria Past	!	!LO:TX:t=P:problem=głos inną ręką	!	!LO:TX:b:t=Aria	!	!LO:TX:a:t=Pastorale	!	!	!LO:TX:t=P:f = f:problem	!	!LO:TX:t=P:f = f..:problem	!
!	!	!	!	!	!	!	!	!LO:DY:b	!	!	!	!	!	!	!	!	!	!	!	!	!	!	!	!	!
!	!	!	!	!	!	!LO:DY:b	!	!	!	!	!	!	!	!	!	!	!	!	!	!	!	!	!LO:DY:t=f&colon;	!	!
!	!	!	!	!	!	!	!	!	!	!	!	!	!	!	!	!	!	!	!	!	!LO:DY:t=f.	!	!	!	!
!	!	!	!	!LO:DY:b	!	!	!	!	!	!	!	!	!	!	!	!	!	!	!	!	!	!	!	!	!
!	!LO:DY:b	!	!	!	!	!	!	!	!	!	!	!	!	!	!	!	!	!	!	!	!	!	!	!	!
8D\	f	8D\	8D\	f	8d/ 8dd	f	8d/ 8dd	f	2r	.	2r	.	2r	.	8D\	.	8dd/	.	8d/	8d\	f	8d/	f	8dd\	f
4D\	.	4D\	4D\	.	4d^/ 4dd	.	4d^/ 4dd	.	.	.	.	.	.	.	4D\	.	4dd/	.	4d/	4d\	.	4d/	.	4dd\	.
8D\	.	8D\	8D\	.	8d/ 8dd	.	8d/ 8dd	.	.	.	.	.	.	.	8D\	.	8dd/	.	8d/	8d\	.	8d/	.	8dd\	.
=2	=2	=2	=2	=2	=2	=2	=2	=2	=2	=2	=2	=2	=2	=2	=2	=2	=2	=2	=2	=2	=2	=2	=2	=2	=2
8C#X\L	.	8C#X\L	8C#X\L	.	8c#X/L	.	8cc#X\L	.	2r	.	2r	.	2r	.	8C#X\L	.	8cc#X/L	.	8c/L	8c#X\L	.	8c#X/L	.	8cc#X\L	.
8D\	.	8D\J	8D\	.	8d/	.	8dd\	.	.	.	.	.	.	.	8D\J	.	8dd/	.	8d/	8d\	.	8d/	.	8dd\	.
8E\	.	8E\L	8E\	.	8e/	.	8ee\	.	.	.	.	.	.	.	8E\L	.	8ee/	.	8e/	8e\	.	8e/	.	8ee\	.
8D\J	.	8D\J	8C#\J	.	8d/J	.	8dd\J	.	.	.	.	.	.	.	8D\J	.	8dd/J	.	8d/J	8d\J	.	8d/J	.	8dd\J	.
=3	=3	=3	=3	=3	=3	=3	=3	=3	=3	=3	=3	=3	=3	=3	=3	=3	=3	=3	=3	=3	=3	=3	=3	=3	=3
!	!	!	!	!	!	!	!LO:SIC:s=cc#	!	!	!	!	!	!	!	!	!	!	!	!	!	!	!	!	!	!
8C#X\L	.	8C#X\L	8C#X\L	.	8c/L	.	8cc\L	.	2r	.	2r	.	2r	.	8C#X\L	.	8cc#X/L	.	8c#X/L	8c#\L	.	8c#X/L	.	8cc#X\L	.
8D\	.	8D\J	8D\J	.	8d/	.	8dd\	.	.	.	.	.	.	.	8D\J	.	8dd/	.	8d/	8d\	.	8d/	.	8dd\	.
8AA\	.	8AA\L	8AA/L	.	8A/	.	8a\	.	.	.	.	.	.	.	8AA\L	.	8a/	.	8A/	8A\	.	8A/	.	8a\	.
8D\J	.	8D\J	8D/J	.	8d/J	.	8dd\J	.	.	.	.	.	.	.	8D\J	.	8cc/J	.	8c/J	8c\J	.	8d/J	.	8dd\J	.
=4	=4	=4	=4	=4	=4	=4	=4	=4	=4	=4	=4	=4	=4	=4	=4	=4	=4	=4	=4	=4	=4	=4	=4	=4	=4
8BB/	.	8BB/	8BB/	.	8B/	.	8b/	.	2r	.	2r	.	2r	.	8BB/	.	8b/	.	8B/	8B\	.	8B/	.	8b/	.
4GG/	.	4GG/	4GG/	.	4G/	.	4gM</	.	.	.	.	.	.	.	4G\	.	4g/	.	4G/	4G\	.	4G/	.	4g/	.
8GG/	.	8GG/	8GG/	.	8G/	.	8g/	.	.	.	.	.	.	.	8G\	.	8g/	.	8G/	8G\	.	8B/	.	8g/	.
=5	=5	=5	=5	=5	=5	=5	=5	=5	=5	=5	=5	=5	=5	=5	=5	=5	=5	=5	=5	=5	=5	=5	=5	=5	=5
*	*	*tremolo	*	*	*	*	*	*	*	*	*	*	*	*	*	*	*	*	*	*	*	*	*	*	*
!	!	!	!	!	!	!	!	!	!	!	!	!	!	!	!	!	!	!LO:DY:t=f..	!	!	!	!	!	!	!
!	!	!	!	!	!	!	!	!	!	!	!	!	!	!LO:DY:t=f..	!	!	!	!	!	!	!LO:DY:t=ffo&colon;	!	!	!	!
2DD/	.	8D\L	2D\	.	2c/ 2d	.	8f#/L	.	2r	.	2r	.	8D\L	f	4F#\	.	8d/L	f	8a/L	8d\L	ff	8cc\L	.	8ff#\L	.
.	.	.	.	.	.	.	8qqg\	.	.	.	.	.	.	.	.	.	.	.	.	.	.	.	.	.	.
.	.	8D\	.	.	.	.	16f#/L	.	.	.	.	.	16D\L	.	.	.	16dd/L	.	8a/	8d\	.	8dd\	.	8ff#\	.
.	.	.	.	.	.	.	16e/JJ	.	.	.	.	.	16D\JJ	.	.	.	16dd/JJ	.	.	.	.	.	.	.	.
.	.	8D\	.	.	.	.	16d/LL	.	.	.	.	.	8D\L	.	8D\L	.	8d/L	.	8a/	8d\	.	8a\	.	8dd\	.
.	.	.	.	.	.	.	16e/	.	.	.	.	.	.	.	.	.	.	.	.	.	.	.	.	.	.
.	.	8D\J	.	.	.	.	16f#/	.	.	.	.	.	8D\J	.	8F#\J	.	8d/J	.	8a/J	8d\J	.	8cc\J	.	8ff#\J	.
.	.	.	.	.	.	.	16d/JJ	.	.	.	.	.	.	.	.	.	.	.	.	.	.	.	.	.	.
!LO:LB:g=original	!	!	!	!	!	!	!LO:LB:g=original	!	!	!	!	!	!	!	!	!	!	!	!	!	!	!	!	!	!
=6	=6	=6	=6	=6	=6	=6	=6	=6	=6	=6	=6	=6	=6	=6	=6	=6	=6	=6	=6	=6	=6	=6	=6	=6	=6
*	*	*	*	*	*	*	*	*	*	*	*	*	*	*	*	*	*	*	*	*	*	*tremolo	*	*	*
2GG/	.	8GGL/	2GG/	.	2B/ 2d	.	8g/L	.	2r	.	2r	.	8GGL/	.	8G\	.	8g/L	.	8g/L	8B\L	.	8b\L	.	8gg\L	.
.	.	.	.	.	.	.	8qqa\	.	.	.	.	.	.	.	.	.	.	.	.	.	.	.	.	.	.
.	.	8GG/	.	.	.	.	16g/L	.	.	.	.	.	16GG/L	.	4B\	.	16g/L	.	8g/	8B\	.	8dd\	.	8gg\	.
.	.	.	.	.	.	.	16f#/JJ	.	.	.	.	.	16GG/JJ	.	.	.	16g/JJ	.	.	.	.	.	.	.	.
.	.	8GG/	.	.	.	.	16g/LL	.	.	.	.	.	8GG/L	.	.	.	8b/L	.	8g/	8B\	.	8b\	.	8bb\	.
.	.	.	.	.	.	.	16a/	.	.	.	.	.	.	.	.	.	.	.	.	.	.	.	.	.	.
.	.	8GG/J	.	.	.	.	16b/	.	.	.	.	.	8GG/J	.	8G\	.	8g/J	.	8g/J	8B\J	.	8dd\J	.	8gg\J	.
.	.	.	.	.	.	.	16g/JJ	.	.	.	.	.	.	.	.	.	.	.	.	.	.	.	.	.	.
!	!	!LO:LB:g=original	!	!	!LO:LB:g=original	!	!	!	!	!	!	!	!	!	!	!	!	!	!	!	!	!	!	!	!
=7	=7	=7	=7	=7	=7	=7	=7	=7	=7	=7	=7	=7	=7	=7	=7	=7	=7	=7	=7	=7	=7	=7	=7	=7	=7
*2\right	*	*	*	*	*	*	*	*	*	*	*	*	*	*	*	*	*	*	*	*	*	*	*	*	*
2D/	.	8D\L	2D\	.	(2c/ 2d	.	8f#/L	.	2r	.	2r	.	8D\L	.	4F\#	.	8d/L	.	8a/L	8d\L	.	8cc\L	.	8ff#\L	.
.	.	.	.	.	.	.	8qqg\	.	.	.	.	.	.	.	.	.	.	.	.	.	.	.	.	.	.
.	.	8D\	.	.	.	.	16f#/L	.	.	.	.	.	16D\L	.	.	.	16d/L	.	8a/	8d\	.	8dd\	.	8ff#\	.
.	.	.	.	.	.	.	16e/JJ	.	.	.	.	.	16D\JJ	.	.	.	16d/JJ	.	.	.	.	.	.	.	.
.	.	8D\	.	.	.	.	16d/LL	.	.	.	.	.	8D\L	.	8D\L	.	8d/L	.	8a/	8d\	.	8a\	.	8dd\	.
.	.	.	.	.	.	.	16e/	.	.	.	.	.	.	.	.	.	.	.	.	.	.	.	.	.	.
.	.	8D\J	.	.	.	.	16f#/	.	.	.	.	.	8D\J	.	8F#\J	.	8d/J	.	8a/J	8d\J	.	8cc\J	.	8ff#\J	.
.	.	.	.	.	.	.	16d/JJ	.	.	.	.	.	.	.	.	.	.	.	.	.	.	.	.	.	.
!	!	!	!	!	!	!	!	!	!	!	!	!	!	!	!	!	!	!	!	!LO:LB:g=original	!	!	!	!	!
!	!	!	!	!	!	!	!	!	!	!	!	!	!	!	!LO:LB:g=original	!	!	!	!	!	!	!	!	!	!
=8	=8	=8	=8	=8	=8	=8	=8	=8	=8	=8	=8	=8	=8	=8	=8	=8	=8	=8	=8	=8	=8	=8	=8	=8	=8
2GG/	.	8GG/L	2GG/	.	2B/) 2d	.	8g/	.	2r	.	2r	.	8GG/	.	8G\	.	8g/	.	8g/	8B\	.	8b\	.	8gg\	.
.	.	8GG/	.	.	.	.	4g/	.	.	.	.	.	4GGT/	.	4G\	.	4b/	.	4g/	4B\	.	4b\	.	4gg\	.
.	.	8GG/	.	.	.	.	.	.	.	.	.	.	.	.	.	.	.	.	.	.	.	.	.	.	.
.	.	8GG/J	.	.	.	.	8ggM\	.	.	.	.	.	8GG/	.	8G\	.	8g/	.	8g/	8B\	.	8b\	.	8ggT\	.
!	!	!	!	!	!	!	!	!	!	!	!	!	!	!	!	!	!LO:LB:g=original	!	!	!	!	!	!	!	!
!	!	!	!LO:LB:g=original	!	!	!	!	!	!	!	!	!	!	!	!	!	!	!	!	!	!	!	!	!	!
=9	=9	=9	=9	=9	=9	=9	=9	=9	=9	=9	=9	=9	=9	=9	=9	=9	=9	=9	=9	=9	=9	=9	=9	=9	=9
*	*	*	*tremolo	*	*	*	*	*	*	*	*	*	*	*	*	*	*	*	*	*	*	*	*	*	*
*	*	*	*	*	*tremolo	*	*	*	*	*	*	*	*	*	*	*	*	*	*	*	*	*	*	*	*
*	*	*	*	*	*	*	*	*	*	*	*	*	*tremolo	*	*	*	*	*	*2\right	*	*	*	*	*	*
*	*	*	*	*	*	*	*	*	*	*	*	*	*2\right	*	*	*	*	*	*tremolo	*	*	*	*	*	*
2D\	.	8D\L	8D\L	.	8d/ 8ccL	.	8ff#\L	.	2r	.	2r	.	16DT\LL	.	4F#\	.	8d/L	.	8a/L	8d\L	.	8cc\L	.	8ff#\L	.
.	.	.	.	.	.	.	.	.	.	.	.	.	16DT\	.	.	.	.	.	.	.	.	.	.	.	.
.	.	.	.	.	.	.	8qqgg/	.	.	.	.	.	.	.	.	.	.	.	.	.	.	.	.	8qgg/	.
.	.	8D\	8D\	.	8d/ 8cc	.	16ff#\L	.	.	.	.	.	16DT\	.	.	.	16dd/L	.	8a/	8d\	.	8dd\	.	16ff#\L	.
.	.	.	.	.	.	.	16ee\JJ	.	.	.	.	.	16DT\	.	.	.	16dd/JJ	.	.	.	.	.	.	16ee\JJ	.
.	.	8D\	8D\	.	8d/ 8cc	.	16dd\LL	.	.	.	.	.	16DT\	.	8D\L	.	8d/L	.	8a/	8d\	.	8cc\	.	16dd\LL	.
.	.	.	.	.	.	.	16ee\	.	.	.	.	.	16DT\	.	.	.	.	.	.	.	.	.	.	16ee\	.
.	.	8D\J	8D\J	.	8d/ 8ccJ	.	16ff#\	.	.	.	.	.	16DT\	.	8F#\J	.	8d/J	.	8a/J	8d\J	.	8dd\J	.	16ff#\	.
.	.	.	.	.	.	.	16dd\JJ	.	.	.	.	.	16DT\JJ	.	.	.	.	.	.	.	.	.	.	16dd\JJ	.
=10	=10	=10	=10	=10	=10	=10	=10	=10	=10	=10	=10	=10	=10	=10	=10	=10	=10	=10	=10	=10	=10	=10	=10	=10	=10
2GG/	.	8GG/L	8GG/L	.	8d/ 8bL	.	8gg\L	.	2r	.	2r	.	16GG/LL	.	8G\	.	8g/L	.	8g/L	8B\L	.	8b\L	.	8gg\L	.
.	.	.	.	.	.	.	.	.	.	.	.	.	16GG/	.	.	.	.	.	.	.	.	.	.	.	.
.	.	.	.	.	.	.	8qqaa/	.	.	.	.	.	.	.	.	.	.	.	.	.	.	.	.	8qaa/	.
.	.	8GG/	8GG/	.	8d/ 8b	.	16gg\L	.	.	.	.	.	16GG/	.	4B\	.	8g/	.	8g/	8B\	.	8dd\	.	16gg\L	.
.	.	.	.	.	.	.	16ff#\JJ	.	.	.	.	.	16GG/	.	.	.	.	.	.	.	.	.	.	16ff#\JJ	.
.	.	8GG/	8GG/	.	8d/ 8b	.	16gg\LL	.	.	.	.	.	16GG/	.	.	.	8b/	.	8g/	8B\	.	8b\	.	16gg\LL	.
.	.	.	.	.	.	.	16aa\	.	.	.	.	.	16GG/	.	.	.	.	.	.	.	.	.	.	16aa\	.
.	.	8GG/J	8GG/J	.	8d/ 8bJ	.	16bb\	.	.	.	.	.	16GG/	.	8G\	.	8g/J	.	8g/J	8B\J	.	8dd\J	.	16bb\	.
.	.	.	.	.	.	.	16gg\JJ	.	.	.	.	.	16GG/JJ	.	.	.	.	.	.	.	.	.	.	16gg\JJ	.
!	!	!	!	!	!	!	!	!	!	!	!	!	!	!	!	!	!	!	!	!	!	!	!	!LO:LB:g=original	!
=11	=11	=11	=11	=11	=11	=11	=11	=11	=11	=11	=11	=11	=11	=11	=11	=11	=11	=11	=11	=11	=11	=11	=11	=11	=11
2DD/	.	8D\L	8D\L	.	8d/ 8ccL	.	8ff#\L	.	2r	.	2r	.	16D\LL	.	4F#\	.	8d/L	.	8a/L	8d\L	.	8cc\L	.	8ff#\L	.
.	.	.	.	.	.	.	.	.	.	.	.	.	16D\	.	.	.	.	.	.	.	.	.	.	.	.
.	.	.	.	.	.	.	8qqgg/	.	.	.	.	.	.	.	.	.	.	.	.	.	.	.	.	8qgg/	.
.	.	8D\	8D\	.	8d/ 8cc	.	16ff#\L	.	.	.	.	.	16D\	.	.	.	8dd/J	.	8a/	8d\	.	8dd\	.	16ff#\L	.
.	.	.	.	.	.	.	16ee\JJ	.	.	.	.	.	16D\	.	.	.	.	.	.	.	.	.	.	16ee\JJ	.
.	.	8D\	8D\	.	8d/ 8cc	.	16dd\LL	.	.	.	.	.	16D\	.	8D\L	.	8d/L	.	8a/	8d\	.	8cc\	.	16dd\LL	.
.	.	.	.	.	.	.	16ee\	.	.	.	.	.	16D\	.	.	.	.	.	.	.	.	.	.	16ee\	.
.	.	8D\J	8D\J	.	8d/ 8ccJ	.	16ff#\	.	.	.	.	.	16D\	.	8F#\J	.	8d/J	.	8a/J	8d\J	.	8dd\J	.	16ff#\	.
.	.	.	.	.	.	.	16dd\JJ	.	.	.	.	.	16D\JJ	.	.	.	.	.	.	.	.	.	.	16dd\JJ	.
!	!	!	!	!	!	!	!LO:LB:g=original	!	!	!	!	!	!	!	!	!	!	!	!	!	!	!	!	!	!
=12	=12	=12	=12	=12	=12	=12	=12	=12	=12	=12	=12	=12	=12	=12	=12	=12	=12	=12	=12	=12	=12	=12	=12	=12	=12
!	!LO:DY:b	!	!	!	!	!	!	!	!	!	!	!	!	!	!	!	!	!	!	!	!	!	!	!	!
2GG/	pp	8GG/	8GG/L	.	8d/ 8bL	.	8ggT\	.	2r	.	2r	.	8GG/	.	8G\	.	8g/	.	8g/	8B\	.	8b\	.	8ggT\	.
!	!	!	!	!	!	!	!	!	!	!	!	!	!	!	!	!	!LO:N:vis=4.	!	!	!	!	!	!	!	!
.	.	4GG/	8GG/	.	8d/ 8b	.	4g/	.	.	.	.	.	4GGT/	.	4G\	.	4g/	.	4g/	4B\	.	4b\	.	4gg\	.
.	.	.	8GG/	.	8d/ 8b	.	.	.	.	.	.	.	.	.	.	.	.	.	.	.	.	.	.	.	.
.	.	8GG/	8GG/J	.	8d/ 8bJ	.	8gg\	.	.	.	.	.	8r	.	8G\	.	8r	.	8r	8ryy	.	8r	.	8r	.
*	*	*	*	*	*	*	*	*	*	*	*	*	*	*	*	*	*	*	*v	*v	*	*	*	*	*
!	!	!	!	!	!	!	!	!	!	!	!	!	!	!	!	!	!	!	!	!	!LO:LB:g=original	!	!	!
=13	=13	=13	=13	=13	=13	=13	=13	=13	=13	=13	=13	=13	=13	=13	=13	=13	=13	=13	=13	=13	=13	=13	=13	=13
*	*	*	*	*	*	*	*tremolo	*	*	*	*	*	*	*	*	*	*	*	*	*	*	*	*	*
*	*	*	*	*	*	*	*2\right	*	*	*	*	*	*	*	*	*	*	*	*	*	*	*	*	*
!	!	!	!	!	!	!	!	!	!	!	!	!	!	!	!LO:TX:t=P:problem=8 z podwójnym podkreśleniem	!	!	!	!	!	!	!	!	!
!	!	!	!	!	!	!	!	!	!	!	!LO:TX:t=P:all\right:problem	!	!LO:TX:a:t=8.	!	!LO:TX:a:t=8	!	!LO:TX:a:t=8.	!	!LO:TX:a:t=8.	!	!LO:TX:a:t=8.	!	!LO:TX:a:t=8.	!
!	!	!	!	!	!	!	!	!	!	!	!	!	!	!	!	!	!	!	!	!	!	!	!LO:TX:t=P:problem= słowo "śpiew" zapisane ołówkiem	!
!	!	!	!	!	!	!	!	!	!	!	!	!	!	!	!	!	!	!	!	!	!	!	!LO:TX:t=śpiew	!
8GG/	.	8GG/	8GG/	.	8B/L	.	8b\L	.	8d\	Ey	8dd\	Hej	2r	.	2r	.	2r	.	2r	.	2r	.	2r	.
8r	.	8r	8r	.	8d/	.	8dd\	.	4d\	Bra-	4dd\	bra-	.	.	.	.	.	.	.	.	.	.	.	.
!	!	!	!	!	!	!	!	!LO:DY:b	!	!	!	!	!	!	!	!	!	!	!	!	!	!	!	!
8G\	.	8GG/	8GG/	.	8B/	.	8b\	p	.	.	.	.	.	.	.	.	.	.	.	.	.	.	.	.
8r	.	8r	8r	.	8d/J	.	8dd\J	.	8d\	-cia	8dd\	-cia	.	.	.	.	.	.	.	.	.	.	.	.
=14	=14	=14	=14	=14	=14	=14	=14	=14	=14	=14	=14	=14	=14	=14	=14	=14	=14	=14	=14	=14	=14	=14	=14	=14
*	*	*rep	*rep	*	*	*	*	*	*	*	*	*	*	*	*	*	*	*	*	*	*	*	*	*
8GG/	.	8GG/	8GG/	.	8A#X/L	.	8cc#X\L	.	8c#X\L	czy	8cc#X\L	czy	2r	.	2r	.	2r	.	2r	.	2r	.	2r	.
8r	.	8r	8r	.	8B/	.	8dd\	.	8d\J	.	8dd\J	.	.	.	.	.	.	.	.	.	.	.	.	.
8G\	.	8GG/	8GG/	.	8c/	.	8ee\	.	8e\L	spi-	8ee\	śpi-	.	.	.	.	.	.	.	.	.	.	.	.
8r	.	8r	8r	.	8B/J	.	8dd\J	.	8d\J	-cie	8dd\	-cie	.	.	.	.	.	.	.	.	.	.	.	.
*	*	*Xrep	*Xrep	*	*	*	*	*	*	*	*	*	*	*	*	*	*	*	*	*	*	*	*	*
=15	=15	=15	=15	=15	=15	=15	=15	=15	=15	=15	=15	=15	=15	=15	=15	=15	=15	=15	=15	=15	=15	=15	=15	=15
8GG/	.	8GG/	8GG/	.	8A#X/L	.	8cc#X\L	.	8c#X\L	czy	8cc#X\	czy	2r	.	2r	.	2r	.	2r	.	2r	.	2r	.
8r	.	8r	8r	.	8B/	.	8dd\	.	8d\J	wszy-	8dd\	wszy-	.	.	.	.	.	.	.	.	.	.	.	.
8G\	.	8D\	8D\	.	8c/	.	8a\	.	8A'\L	-scy	8a/	-scy	.	.	.	.	.	.	.	.	.	.	.	.
8r	.	8r	8r	.	8A#/J	.	8dd\J	.	8d'\J	ba-	8dd\	ba-	.	.	.	.	.	.	.	.	.	.	.	.
!LO:LB:g=original	!	!LO:LB:g=original	!	!	!	!	!	!	!LO:LB:g=original	!	!	!	!	!	!	!	!	!	!	!	!	!	!	!
=16	=16	=16	=16	=16	=16	=16	=16	=16	=16	=16	=16	=16	=16	=16	=16	=16	=16	=16	=16	=16	=16	=16	=16	=16
8GG/	.	8GG/	8GG/	.	8B/ 8dL	.	8b\	.	8B\	-czy-	8b\	-czy-	2r	.	2r	.	2r	.	2r	.	2r	.	2r	.
8r	.	8r	8r	.	8B/ 8d	.	4gg\	.	4G\	-cie.	4g/	-cie	.	.	.	.	.	.	.	.	.	.	.	.
8G\	.	8GG/	8GG/	.	8B/ 8d	.	.	.	.	.	.	.	.	.	.	.	.	.	.	.	.	.	.	.
8r	.	8r	8r	.	8B/ 8dJ	.	8g/	.	8r	.	8r	.	.	.	.	.	.	.	.	.	.	.	.	.
!	!	!	!	!	!LO:LB:g=original	!	!	!	!	!	!LO:LB:g=original	!	!	!	!	!	!	!	!	!	!	!	!	!
=17	=17	=17	=17	=17	=17	=17	=17	=17	=17	=17	=17	=17	=17	=17	=17	=17	=17	=17	=17	=17	=17	=17	=17	=17
2D\	.	8D\	8D\	.	8A/L	.	8f#/L	.	8F#\L	dzi-	8f#/	dzi-	2r	.	2r	.	2r	.	2r	.	2r	.	2r	.
.	.	8r	8r	.	8c/	.	8a/	.	8F#\J	-wy	8f#/	-wy	.	.	.	.	.	.	.	.	.	.	.	.
.	.	8D\	8D\	.	8A/	.	8f#/	.	8D\	nie-	8d/	nie-	.	.	.	.	.	.	.	.	.	.	.	.
.	.	8r	8r	.	8c/J	.	8a/J	.	8F#\	-sły-	8f#/	-sły-	.	.	.	.	.	.	.	.	.	.	.	.
=18	=18	=18	=18	=18	=18	=18	=18	=18	=18	=18	=18	=18	=18	=18	=18	=18	=18	=18	=18	=18	=18	=18	=18	=18
2G\	.	8GG/	8GG/	.	8B/L	.	8g/L	.	8G\	-cha-	(8g/	-cha-	2r	.	2r	.	2r	.	2r	.	2r	.	2r	.
.	.	8r	8r	.	8d/	.	8b/	.	4B\	.	4b/)	.	.	.	.	.	.	.	.	.	.	.	.	.
.	.	8GG/	8GG/	.	8B/	.	8g/	.	.	.	.	.	.	.	.	.	.	.	.	.	.	.	.	.
.	.	8r	8r	.	8d/J	.	8b/J	.	8G\	-ne	8g/	-ne	.	.	.	.	.	.	.	.	.	.	.	.
=19	=19	=19	=19	=19	=19	=19	=19	=19	=19	=19	=19	=19	=19	=19	=19	=19	=19	=19	=19	=19	=19	=19	=19	=19
2D\	.	8D\	8D\	.	8A/L	.	8f#/L	.	8F#\	dzi-	8f#/	dzi-	2r	.	2r	.	2r	.	2r	.	2r	.	2r	.
.	.	8r	8r	.	8c/	.	8a/	.	8F#\	-wy	8f#/	-wy	.	.	.	.	.	.	.	.	.	.	.	.
.	.	8D\	8D\	.	8A/	.	8f#/	.	8D\	nie-	8d/	nie-	.	.	.	.	.	.	.	.	.	.	.	.
.	.	8r	8r	.	8c/J	.	8a/J	.	8F#\	-sły-	8f#/	-sły-	.	.	.	.	.	.	.	.	.	.	.	.
!	!	!	!LO:LB:g=original	!	!	!	!	!	!	!	!	!	!	!	!	!	!	!	!	!	!	!	!	!
=20	=20	=20	=20	=20	=20	=20	=20	=20	=20	=20	=20	=20	=20	=20	=20	=20	=20	=20	=20	=20	=20	=20	=20	=20
!	!	!	!	!	!	!	!LO:TX:t=P:problem=mixed beam	!	!	!	!	!	!	!	!	!	!	!	!	!	!	!	!	!
2GG/	.	8GG/	8GG/	.	8B/L	.	8g/L	.	8G\	-ha-	(8g/	-cha-	2r	.	2r	.	2r	.	2r	.	2r	.	2r	.
.	.	8r	8r	.	8d/	.	8b/	.	4B\	.	4b/)	.	.	.	.	.	.	.	.	.	.	.	.	.
.	.	8GG/	8GG/	.	8B/	.	8g/	.	.	.	.	.	.	.	.	.	.	.	.	.	.	.	.	.
.	.	8r	8r	.	8d/J	.	8gg\J	.	8G\	-ne	8g/	-ne	.	.	.	.	.	.	.	.	.	.	.	.
!	!	!	!	!	!	!	!LO:LB:g=original	!	!LO:LB:g=original	!	!LO:LB:g=original	!	!	!	!	!	!	!	!	!	!	!	!	!
=21	=21	=21	=21	=21	=21	=21	=21	=21	=21	=21	=21	=21	=21	=21	=21	=21	=21	=21	=21	=21	=21	=21	=21	=21
*	*	*	*	*	*	*	*	*	*	*	*	*	*	*	*	*	*	*	*^	*	*	*	*	*
*tremolo	*	*	*	*	*	*	*	*	*	*	*	*	*Xtremolo	*	*	*	*	*	*Xtremolo	*	*	*	*	*	*
!	!	!	!	!	!	!LO:DY:a	!	!	!LO:TX:a:t=4	!	!LO:TX:a:t=4.	!	!	!	!	!	!	!	!	!	!	!LO:TX:t=P:f = f..:problem	!	!	!
!	!	!	!	!	!	!	!	!LO:DY:b	!	!	!	!	!	!LO:DY:t=f..	!	!	!	!LO:DY:t=f..	!	!	!	!	!LO:DY:t=f.	!	!LO:DY:t=f&colon;
8D\L	.	8D\L	8D\L	.	16d/LL	p	8ff#\L	f	2r	.	2r	.	8D\L	f	4F#\	.	8d/L	f	8a/L	8d\L	f	8cc\L	f	8ff#\L	f
.	.	.	.	.	16cc/	.	.	.	.	.	.	.	.	.	.	.	.	.	.	.	.	.	.	.	.
.	.	.	.	.	.	.	8qqgg/	.	.	.	.	.	.	.	.	.	.	.	.	.	.	.	.	8qgg/	.
8D\	.	8D\	8D\	.	16a/	.	16ff#\L	.	.	.	.	.	16D\L	.	.	.	16d/L	.	8a/	8d\	.	8dd\	.	16ff#\L	.
.	.	.	.	.	16cc/JJ	.	16ee\JJ	.	.	.	.	.	16D\JJ	.	.	.	16d/JJ	.	.	.	.	.	.	16ee\JJ	.
*	*	*	*	*	*	*	*	*	*	*	*	*	*	*	*	*	*	*	*v	*v	*	*	*	*	*
*	*	*	*	*	*rep	*	*	*	*	*	*	*	*	*	*	*	*	*	*	*	*	*	*	*
*	*	*	*	*	*	*	*	*	*	*	*	*	*	*	*	*	*	*	*^	*	*	*	*	*
8D\	.	8D\	8D\	.	16d/LL	.	16dd\LL	.	.	.	.	.	8D\L	.	8D\L	.	8d/L	.	8a/	8d\	.	8a\	.	16dd\LL	.
.	.	.	.	.	16cc/	.	16ee\	.	.	.	.	.	.	.	.	.	.	.	.	.	.	.	.	16ee\	.
8D\J	.	8D\J	8D\J	.	16a/	.	16ff#\	.	.	.	.	.	8D\J	.	8F#\J	.	8d/J	.	8a/J	8d\J	.	8cc\J	.	16ff#\	.
.	.	.	.	.	16cc/JJ	.	16dd\JJ	.	.	.	.	.	.	.	.	.	.	.	.	.	.	.	.	16dd\JJ	.
*	*	*	*	*	*Xrep	*	*	*	*	*	*	*	*	*	*	*	*	*	*	*tremolo	*	*	*	*	*
!	!	!	!	!	!	!	!	!	!	!	!	!	!	!	!LO:LB:g=original	!	!	!	!	!	!	!	!	!	!
=22	=22	=22	=22	=22	=22	=22	=22	=22	=22	=22	=22	=22	=22	=22	=22	=22	=22	=22	=22	=22	=22	=22	=22	=22	=22
8G\L	.	8GG/L	8GG/L	.	16d/LL	.	8gg\L	.	2r	.	2r	.	8GG/L	.	8G\	.	8g/L	.	8b/L	8g\L	.	8b\L	.	8gg\L	.
.	.	.	.	.	16b/	.	.	.	.	.	.	.	.	.	.	.	.	.	.	.	.	.	.	.	.
.	.	.	.	.	.	.	8qqaa/	.	.	.	.	.	.	.	.	.	.	.	.	.	.	.	.	8qaa/	.
8G\	.	8GG/	8GG/	.	16g/	.	16gg\L	.	.	.	.	.	16GG/L	.	4B\	.	8g/	.	8b/	8g\	.	8dd\	.	16gg\L	.
.	.	.	.	.	16b/JJ	.	16ff#\JJ	.	.	.	.	.	16GG/JJ	.	.	.	.	.	.	.	.	.	.	16ff#\JJ	.
*	*	*	*	*	*rep	*	*	*	*	*	*	*	*	*	*	*	*	*	*	*	*	*	*	*	*
8G\	.	8GG/	8GG/	.	16d/LL	.	16gg\LL	.	.	.	.	.	8GG/L	.	.	.	8b/	.	8b/	8g\	.	8b\	.	16gg\LL	.
.	.	.	.	.	16b/	.	16aa\	.	.	.	.	.	.	.	.	.	.	.	.	.	.	.	.	16aa\	.
8G\J	.	8GG/J	8GG/J	.	16g/	.	16bb\	.	.	.	.	.	8GG/J	.	8G\	.	8g/J	.	8b/J	8g\J	.	8dd\J	.	16bb\	.
.	.	.	.	.	16b/JJ	.	16gg\JJ	.	.	.	.	.	.	.	.	.	.	.	.	.	.	.	.	16gg\JJ	.
*	*	*	*	*	*Xrep	*	*	*	*	*	*	*	*tremolo	*	*	*	*	*	*	*	*	*	*	*	*
!	!	!	!	!	!	!	!	!	!	!	!	!	!LO:LB:g=original	!	!	!	!	!	!	!	!	!	!	!	!
=23	=23	=23	=23	=23	=23	=23	=23	=23	=23	=23	=23	=23	=23	=23	=23	=23	=23	=23	=23	=23	=23	=23	=23	=23	=23
8D\L	.	8D\L	8D\L	.	16d/LL	.	8ff#L\	.	2r	.	2r	.	16DT\LL	.	4F#\	.	8d/L	.	8a/L	8d\L	.	8cc\L	.	8ff#\L	.
.	.	.	.	.	16cc/	.	.	.	.	.	.	.	16DT\	.	.	.	.	.	.	.	.	.	.	.	.
.	.	.	.	.	.	.	8qqgg/	.	.	.	.	.	.	.	.	.	.	.	.	.	.	.	.	8qgg/	.
8D\	.	8D\	8D\	.	16a/	.	16ff#\L	.	.	.	.	.	16DT\	.	.	.	8dd/J	.	8a/	8d\	.	8dd\	.	16ff#\L	.
.	.	.	.	.	16cc/JJ	.	16ee\JJ	.	.	.	.	.	16DT\	.	.	.	.	.	.	.	.	.	.	16ee\JJ	.
*	*	*	*	*	*rep	*	*	*	*	*	*	*	*	*	*	*	*	*	*	*	*	*	*	*	*
8D\	.	8D\	8D\	.	16d/LL	.	16dd\LL	.	.	.	.	.	16DT\	.	8D\L	.	8d/L	.	8a/	8d\	.	8a\	.	16dd\LL	.
.	.	.	.	.	16cc/	.	16ee\	.	.	.	.	.	16DT\	.	.	.	.	.	.	.	.	.	.	16ee\	.
8D\J	.	8D\J	8D\J	.	16a/	.	16ff#\	.	.	.	.	.	16DT\	.	8F#\J	.	8d/J	.	8a/J	8d\J	.	8cc\J	.	16ff#\	.
.	.	.	.	.	16cc/JJ	.	16dd\JJ	.	.	.	.	.	16DT\JJ	.	.	.	.	.	.	.	.	.	.	16dd\JJ	.
*	*	*	*	*	*Xrep	*	*	*	*	*	*	*	*	*	*	*	*	*	*	*	*	*	*	*	*
!	!	!LO:LB:g=original	!	!	!	!	!	!	!	!	!	!	!	!	!	!	!	!	!	!	!	!	!	!	!
=24	=24	=24	=24	=24	=24	=24	=24	=24	=24	=24	=24	=24	=24	=24	=24	=24	=24	=24	=24	=24	=24	=24	=24	=24	=24
8D\L	.	8GG/L	8GG/L	.	16d/LL	.	8gg\	.	2r	.	2r	.	8GG/	.	8G\	.	8g/	.	8g/	8B\	.	8b\	.	8gg\	.
.	.	.	.	.	16b/	.	.	.	.	.	.	.	.	.	.	.	.	.	.	.	.	.	.	.	.
8D\	.	8GG/	8GG/	.	16g/	.	4gg\	.	.	.	.	.	4GGT/	.	4G\	.	4g/	.	4g/	4B\	.	4b\	.	4gg\	.
.	.	.	.	.	16b/JJ	.	.	.	.	.	.	.	.	.	.	.	.	.	.	.	.	.	.	.	.
*	*	*	*	*	*Xtremolo	*	*	*	*	*	*	*	*	*	*	*	*	*	*	*	*	*	*	*	*
8D\	.	8GG/	8GG/	.	8B/L 8g	.	.	.	.	.	.	.	.	.	.	.	.	.	.	.	.	.	.	.	.
8D\J	.	8GG/J	8GG/J	.	8B/J 8g	.	8g/	.	.	.	.	.	8GG/	.	8G\	.	8g/	.	8g/	8G\	.	8b\	.	8g/	.
*	*	*	*	*	*	*	*	*	*	*	*	*	*	*	*	*	*	*	*v	*v	*	*	*	*	*
!	!	!	!	!	!LO:LB:g=original	!	!	!	!	!	!	!	!	!	!	!	!	!	!	!	!	!	!	!
=25	=25	=25	=25	=25	=25	=25	=25	=25	=25	=25	=25	=25	=25	=25	=25	=25	=25	=25	=25	=25	=25	=25	=25	=25
*	*	*	*	*	*	*	*Xtremolo	*	*	*	*	*	*	*	*	*	*	*	*	*	*	*	*	*
!	!	!	!	!	!	!	!	!	!	!	!	!	!	!	!LO:TX:t=P:problem=8 z podwójnym podkreśleniem	!	!	!	!	!	!	!	!	!
!	!	!	!	!	!	!	!	!	!	!	!	!	!LO:TX:a:t=8.	!	!LO:TX:a:t=8	!	!LO:TX:a:t=8.	!	!LO:TX:a:t=8.	!	!LO:TX:a:t=8.	!	!LO:TX:a:t=8.	!
!	!	!	!	!	!	!	!	!LO:DY:b	!	!	!	!	!	!	!	!	!	!	!	!	!	!	!	!
8GG/L	.	8GG/	8GG/	.	8r	.	8r	p	8d\	Oy	8dd\	Oj	2r	.	2r	.	2r	.	2r	.	2r	.	2r	.
8GG/	.	8r	8r	.	8B/L 8d	.	8g/L 8b	.	4d\	trwo-	4dd\	trwo-	.	.	.	.	.	.	.	.	.	.	.	.
8GG/	.	8GG/	8GG/	.	8B/ 8d	.	8g/ 8b	.	.	.	.	.	.	.	.	.	.	.	.	.	.	.	.	.
8GG/J	.	8r	8r	.	8B/J 8d	.	8g/J 8b	.	8d\	-ga	8dd\	-ga	.	.	.	.	.	.	.	.	.	.	.	.
=26	=26	=26	=26	=26	=26	=26	=26	=26	=26	=26	=26	=26	=26	=26	=26	=26	=26	=26	=26	=26	=26	=26	=26	=26
*	*	*rep	*rep	*	*rep	*	*rep	*	*	*	*	*	*	*	*	*	*	*	*	*	*	*	*	*
[2G\	.	8GG/	8GG/	.	8r	.	8r	.	(8c#X\L	dla	(8cc#X\L	dla	2r	.	2r	.	2r	.	2r	.	2r	.	2r	.
.	.	8r	8r	.	8B/L 8d	.	8g/L 8b	.	8d\J)	.	8dd\J)	.	.	.	.	.	.	.	.	.	.	.	.	.
.	.	8GG/	8GG/	.	8B/ 8d	.	8g/ 8b	.	8e'\L	Bo-	8ee\	Bo-	.	.	.	.	.	.	.	.	.	.	.	.
.	.	8r	8r	.	8B/J 8d	.	8g/J 8b	.	8d#X'\J	-ga	8dd\	-ga	.	.	.	.	.	.	.	.	.	.	.	.
*	*	*Xrep	*Xrep	*	*Xrep	*	*Xrep	*	*	*	*	*	*	*	*	*	*	*	*	*	*	*	*	*
=27	=27	=27	=27	=27	=27	=27	=27	=27	=27	=27	=27	=27	=27	=27	=27	=27	=27	=27	=27	=27	=27	=27	=27	=27
*	*	*	*	*	*rep	*	*rep	*	*	*	*	*	*	*	*	*	*	*	*	*	*	*	*	*
!	!	!	!	!	!	!	!	!	!	!	!LO:SIC:s=cc#	!	!	!	!	!	!	!	!	!	!	!	!	!
2G\]	.	8GG/	8GG/	.	8r	.	8r	.	(8c#X\L	co	8cc\	co	2r	.	2r	.	2r	.	2r	.	2r	.	2r	.
.	.	8r	8r	.	8B/L 8d	.	8g/L 8b	.	8d\J)	się	8dd\	się	.	.	.	.	.	.	.	.	.	.	.	.
.	.	8D\	8D\	.	8B/ 8d	.	8g/ 8b	.	8B'\L	to	(8a/L	to	.	.	.	.	.	.	.	.	.	.	.	.
.	.	8r	8r	.	8B/J 8d	.	8g/J 8b	.	8d'\J	.	8dd/J)	.	.	.	.	.	.	.	.	.	.	.	.	.
*	*	*	*	*	*Xrep	*	*Xrep	*	*	*	*	*	*	*	*	*	*	*	*	*	*	*	*	*
!LO:LB:g=original	!	!	!	!	!	!	!	!	!	!	!	!	!	!	!	!	!	!	!	!	!	!	!	!
=28	=28	=28	=28	=28	=28	=28	=28	=28	=28	=28	=28	=28	=28	=28	=28	=28	=28	=28	=28	=28	=28	=28	=28	=28
*	*	*	*	*	*rep	*	*rep	*	*	*	*	*	*	*	*	*	*	*	*	*	*	*	*	*
[2G\	.	8GG/	8GG/	.	8r	.	8r	.	8B\	dzie-	8b\	dzie-	2r	.	2r	.	2r	.	2r	.	2r	.	2r	.
.	.	8r	8r	.	8B/L 8d	.	8g/L 8b	.	4G\	-ie	4g/	-je	.	.	.	.	.	.	.	.	.	.	.	.
.	.	8GG/	8GG/	.	8B/ 8d	.	8g/ 8b	.	.	.	.	.	.	.	.	.	.	.	.	.	.	.	.	.
.	.	8r	8r	.	8B/J 8d	.	8g/J 8b	.	8r	.	8r	.	.	.	.	.	.	.	.	.	.	.	.	.
!	!	!	!	!	!	!	!	!	!	!	!LO:LB:g=original	!	!	!	!	!	!	!	!	!	!	!	!	!
*	*	*	*	*	*Xrep	*	*Xrep	*	*	*	*	*	*	*	*	*	*	*	*	*	*	*	*	*
!	!	!	!	!	!	!	!LO:LB:g=original	!	!	!	!	!	!	!	!	!	!	!	!	!	!	!	!	!
=29	=29	=29	=29	=29	=29	=29	=29	=29	=29	=29	=29	=29	=29	=29	=29	=29	=29	=29	=29	=29	=29	=29	=29	=29
2G\]	.	8D\	8D\	.	8r	.	8r	.	8F#'\L	Jas-	8f#/	Ja-	2r	.	2r	.	2r	.	2r	.	2r	.	2r	.
*	*	*	*	*	*tremolo	*	*	*	*	*	*	*	*	*	*	*	*	*	*	*	*	*	*	*
.	.	8r	8r	.	8f#/ 8aL	.	8d/L 8cc	.	8F#'\J	-ność	8f#/	-sność	.	.	.	.	.	.	.	.	.	.	.	.
.	.	8D\	8D\	.	8f#/ 8a	.	8d/ 8cc	.	8D\	w no-	8d/	w no-	.	.	.	.	.	.	.	.	.	.	.	.
.	.	8r	8r	.	8f#/ 8aJ	.	8d/J 8cc	.	8F#\	-cy	8f#/	-cy	.	.	.	.	.	.	.	.	.	.	.	.
!	!	!	!	!	!	!	!	!	!LO:LB:g=original	!	!	!	!	!	!	!	!	!	!	!	!	!	!	!
=30	=30	=30	=30	=30	=30	=30	=30	=30	=30	=30	=30	=30	=30	=30	=30	=30	=30	=30	=30	=30	=30	=30	=30	=30
2D\	.	8GG/	8GG/	.	8r	.	8r	.	8G\	choc	8g/	choć	2r	.	2r	.	2r	.	2r	.	2r	.	2r	.
.	.	8r	8r	.	8B/ 8gL	.	8d/L 8b	.	8A\	nie	8a/	nie	.	.	.	.	.	.	.	.	.	.	.	.
.	.	8GG/	8GG/	.	8B/ 8g	.	8d/ 8b	.	8B\	dnie-	8b\	nie-	.	.	.	.	.	.	.	.	.	.	.	.
.	.	8r	8r	.	8B/ 8gJ	.	8d/J 8b	.	8G\	-ie	8g/	-je	.	.	.	.	.	.	.	.	.	.	.	.
!	!	!	!LO:LB:g=original	!	!	!	!	!	!	!	!	!	!	!	!	!	!	!	!	!	!	!	!	!
=31	=31	=31	=31	=31	=31	=31	=31	=31	=31	=31	=31	=31	=31	=31	=31	=31	=31	=31	=31	=31	=31	=31	=31	=31
2G\	.	8D\	8D\	.	8r	.	8r	.	8F#'\L	Jas-	8f#/	Ja-	2r	.	2r	.	2r	.	2r	.	2r	.	2r	.
.	.	8r	8r	.	8f#/ 8aL	.	8d/L 8cc	.	8F#'\J	-ność	8f#/	-sność	.	.	.	.	.	.	.	.	.	.	.	.
.	.	8D\	8D\	.	8f#/ 8a	.	8d/ 8cc	.	8D\	w no-	8d/	w no-	.	.	.	.	.	.	.	.	.	.	.	.
.	.	8r	8r	.	8f#/ 8aJ	.	8d/J 8cc	.	8F#\	-cy	8f#/	-cy	.	.	.	.	.	.	.	.	.	.	.	.
!	!	!LO:LB:g=original	!	!	!	!	!	!	!	!	!	!	!	!	!	!	!	!	!	!	!	!	!	!
=32	=32	=32	=32	=32	=32	=32	=32	=32	=32	=32	=32	=32	=32	=32	=32	=32	=32	=32	=32	=32	=32	=32	=32	=32
2D\	.	8GG/	8GG/	.	8r	.	8r	.	8G\	choc	8g/	choć	2r	.	2r	.	2r	.	2r	.	2r	.	2r	.
.	.	8r	8r	.	8B/ 8gL	.	8d/L 8b	.	8G\	nie	8g/	nie	.	.	.	.	.	.	.	.	.	.	.	.
.	.	8GG/	8GG/	.	8B/ 8g	.	8d/J 8b	.	8G\	dnie-	8g/	dnie-	.	.	.	.	.	.	.	.	.	.	.	.
!	!	!	!	!	!	!	!	!LO:DY:b:t=for	!	!	!	!	!	!	!	!	!	!	!	!	!	!	!	!
.	.	8r	8r	.	8B/ 8gJ	.	8b\ 8gg	f	8G\	-ie	8g/	-je	.	.	.	.	.	.	.	.	.	.	.	.
!	!	!	!	!	!	!	!	!	!	!	!LO:LB:g=original	!	!	!	!	!	!	!	!	!	!	!	!	!
=33	=33	=33	=33	=33	=33	=33	=33	=33	=33	=33	=33	=33	=33	=33	=33	=33	=33	=33	=33	=33	=33	=33	=33	=33
*	*	*	*	*	*	*	*	*	*	*	*	*	*	*	*	*	*	*	*^	*	*	*	*	*
!	!	!	!	!	!	!	!	!	!LO:TX:a:t=8	!	!LO:TX:a:t=8	!	!	!	!	!	!	!	!	!	!	!	!	!	!
!	!	!	!	!	!	!	!	!	!	!	!	!	!	!LO:DY:t=f&colon;	!	!	!	!	!	!	!	!	!	!	!
!	!	!	!	!LO:DY:b	!	!	!	!	!	!	!	!	!	!	!	!	!	!	!	!	!	!	!	!	!
2GG/	.	8D\L	8D\L	f	16d/ 16ccLL	.	16ff#\LL	.	2r	.	2r	.	16DT\LL	f	2D\	p	4d/	.	4a/	4d\	.	16dd\LL	.	16ff#\LL	.
.	.	.	.	.	16d/ 16cc	.	16gg\	.	.	.	.	.	16DT\	.	.	.	.	.	.	.	.	16ee\	.	16gg\	.
.	.	8D\	8D\	.	16d/ 16cc	.	16aa\	.	.	.	.	.	16DT\	.	.	.	.	.	.	.	.	16ff#\	.	16aa\	.
.	.	.	.	.	16d/ 16cc	.	16bb\JJ	.	.	.	.	.	16DT\JJ	.	.	.	.	.	.	.	.	16gg\JJ	.	16bb\JJ	.
.	.	8D\	8D\	.	16d/ 16cc	.	16ccc\LL	.	.	.	.	.	16D\LL	.	.	.	4dd/	.	4a/	4d\	.	8aa\L	.	8ccc\L	.
.	.	.	.	.	16d/ 16cc	.	16bb\	.	.	.	.	.	16D\	.	.	.	.	.	.	.	.	.	.	.	.
.	.	8D\J	8D\J	.	16d/ 16cc	.	16ccc\	.	.	.	.	.	16D\	.	.	.	.	.	.	.	.	8ff#\J	.	8aa\J	.
.	.	.	.	.	16d/ 16ccJJ	.	16aa\JJ	.	.	.	.	.	16D\JJ	.	.	.	.	.	.	.	.	.	.	.	.
=34	=34	=34	=34	=34	=34	=34	=34	=34	=34	=34	=34	=34	=34	=34	=34	=34	=34	=34	=34	=34	=34	=34	=34	=34	=34
8F#\L	.	8GG/L	8GG/L	.	16gg\LL	.	16bb\LL	.	2r	.	2r	.	16GGT/LL	.	2G\	.	4g/	.	4b/	4g\	.	8gg\L	.	8bb\L	.
.	.	.	.	.	16b\	.	16dd\	.	.	.	.	.	16GGT/	.	.	.	.	.	.	.	.	.	.	.	.
8D\	.	8GG/	8GG/	.	16bb\	.	16ddd\	.	.	.	.	.	16GGT/	.	.	.	.	.	.	.	.	8dd\	.	8dd\	.
.	.	.	.	.	16b\JJ	.	16dd\JJ	.	.	.	.	.	16GGT/JJ	.	.	.	.	.	.	.	.	.	.	.	.
*	*	*	*	*	*	*	*	*	*	*	*	*	*	*	*	*	*	*	*v	*v	*	*	*	*	*
*	*	*	*	*	*rep	*	*	*	*	*	*	*	*	*	*	*	*	*	*	*	*	*	*	*
*	*	*	*	*	*	*	*	*	*	*	*	*	*	*	*	*	*	*	*^	*	*	*	*	*
8F#\	.	8GG/	8GG/	.	16gg\LL	.	16bb\LL	.	.	.	.	.	16GG/LL	.	.	.	4g/	.	4b/	4g\	.	8b\	.	8ddd\	.
.	.	.	.	.	16b\	.	16dd\	.	.	.	.	.	16GG/	.	.	.	.	.	.	.	.	.	.	.	.
8D\J	.	8GG/J	8GG/J	.	16bb\	.	16ddd\	.	.	.	.	.	16GG/	.	.	.	.	.	.	.	.	8dd\J	.	8dd\J	.
.	.	.	.	.	16b\JJ	.	16dd\JJ	.	.	.	.	.	16GG/JJ	.	.	.	.	.	.	.	.	.	.	.	.
*	*	*	*	*	*Xrep	*	*	*	*	*	*	*	*	*	*	*	*	*	*	*	*	*	*	*	*
!	!	!	!	!	!	!	!LO:LB:g=original	!	!	!	!	!	!	!	!	!LO:LB:g=original	!	!	!	!	!	!	!	!LO:LB:g=original	!
=35	=35	=35	=35	=35	=35	=35	=35	=35	=35	=35	=35	=35	=35	=35	=35	=35	=35	=35	=35	=35	=35	=35	=35	=35	=35
8G\L	.	8D\L	8D\L	.	16d/ 16ccLL	.	16ff#\LL	.	2r	.	2r	.	16D\LL	.	2D\	.	4d/	.	4a/	4d\	.	16dd\LL	.	16ff#\LL	.
.	.	.	.	.	16d/ 16cc	.	16gg\	.	.	.	.	.	16D\	.	.	.	.	.	.	.	.	16ee\	.	16gg\	.
8D\	.	8D\	8D\	.	16d/ 16cc	.	16aa\	.	.	.	.	.	16D\	.	.	.	.	.	.	.	.	16ff#\	.	16aa\	.
.	.	.	.	.	16d/ 16cc	.	16bb\JJ	.	.	.	.	.	16D\JJ	.	.	.	.	.	.	.	.	16gg\JJ	.	16bb\JJ	.
8G\	.	8D\	8D\	.	16d/ 16cc	.	16ccc\LL	.	.	.	.	.	16D\LL	.	.	.	4dd/	.	4a/	4d\	.	16aa\LL	.	16ccc\LL	.
.	.	.	.	.	16d/ 16cc	.	16bb\	.	.	.	.	.	16D\	.	.	.	.	.	.	.	.	16gg\	.	16bb\	.
8D\J	.	8D\J	8D\J	.	16d/ 16cc	.	16ccc\	.	.	.	.	.	16D\	.	.	.	.	.	.	.	.	16aa\	.	16ccc\	.
.	.	.	.	.	16d/ 16ccJJ	.	16aa\JJ	.	.	.	.	.	16D\JJ	.	.	.	.	.	.	.	.	16ff#\JJ	.	16aa\JJ	.
!	!	!	!	!	!	!	!	!	!	!	!	!	!	!	!	!	!	!	!LO:LB:g=original	!	!	!	!	!	!
=36	=36	=36	=36	=36	=36	=36	=36	=36	=36	=36	=36	=36	=36	=36	=36	=36	=36	=36	=36	=36	=36	=36	=36	=36	=36
8F#\L	.	8GG/L	8GG/L	.	16d/ 16bLL	.	16bb\LL	.	2r	.	2r	.	16GG/LL	.	2G\	.	4g/	.	4g/	4B\	.	8b\L	.	8gg\L	.
.	.	.	.	.	16d/ 16b	.	16dd\	.	.	.	.	.	16GG/	.	.	.	.	.	.	.	.	.	.	.	.
8D\	.	8GG/	8GG/	.	16d/ 16b	.	16ddd\	.	.	.	.	.	16GG/	.	.	.	.	.	.	.	.	8b\	.	8dd\	.
.	.	.	.	.	16d/ 16b	.	16dd\JJ	.	.	.	.	.	16GG/JJ	.	.	.	.	.	.	.	.	.	.	.	.
8F#\	.	8GG/	8GG/	.	16d/ 16b	.	16bb\LL	.	.	.	.	.	16GG/LL	.	.	.	4g/	.	4g/	4B\	.	8dd\	.	8bb\	.
.	.	.	.	.	16d/ 16b	.	16dd\	.	.	.	.	.	16GG/	.	.	.	.	.	.	.	.	.	.	.	.
8D\J	.	8GG/J	8GG/J	.	16d/ 16b	.	16ddd\	.	.	.	.	.	16GG/	.	.	.	.	.	.	.	.	8b\J	.	8dd\J	.
.	.	.	.	.	16d/ 16bJJ	.	16dd\JJ	.	.	.	.	.	16GG/JJ	.	.	.	.	.	.	.	.	.	.	.	.
=37	=37	=37	=37	=37	=37	=37	=37	=37	=37	=37	=37	=37	=37	=37	=37	=37	=37	=37	=37	=37	=37	=37	=37	=37	=37
!LO:TX:t=P:problem=mixed beam	!	!	!	!	!	!	!	!	!	!	!	!	!	!	!	!	!	!	!	!	!	!	!	!	!
8GG/L	.	8D\L	8D\L	.	16d/ 16ccLL	.	16ff#\LL	.	2r	.	2r	.	16D\LL	.	2D\	.	8d/L	.	4a/	4d\	.	16dd\LL	.	16ff#\LL	.
.	.	.	.	.	16d/ 16cc	.	16gg\	.	.	.	.	.	16D\	.	.	.	.	.	.	.	.	16ee\	.	16gg\	.
8G\	.	8D\	8D\	.	16d/ 16cc	.	16aa\	.	.	.	.	.	16D\	.	.	.	8dd/J	.	.	.	.	16ff#\	.	16aa\	.
.	.	.	.	.	16d/ 16cc	.	16bb\JJ	.	.	.	.	.	16D\JJ	.	.	.	.	.	.	.	.	16gg\JJ	.	16bb\JJ	.
8GG/	.	8D\	8D\	.	16d/ 16cc	.	16ccc\LL	.	.	.	.	.	16D\LL	.	.	.	8d/L	.	4a/	4d\	.	8aa\L	.	8ccc\L	.
.	.	.	.	.	16d/ 16cc	.	16bb\	.	.	.	.	.	16D\	.	.	.	.	.	.	.	.	.	.	.	.
8G\J	.	8D\J	8D\J	.	16d/ 16cc	.	16ccc\	.	.	.	.	.	16D\	.	.	.	8d/J	.	.	.	.	8ff#\J	.	8aa\J	.
.	.	.	.	.	16d/ 16ccJJ	.	16aa\JJ	.	.	.	.	.	16D\JJ	.	.	.	.	.	.	.	.	.	.	.	.
!LO:LB:g=original	!	!	!	!	!	!	!	!	!	!	!	!	!	!	!	!	!	!	!	!	!	!	!	!	!
=38	=38	=38	=38	=38	=38	=38	=38	=38	=38	=38	=38	=38	=38	=38	=38	=38	=38	=38	=38	=38	=38	=38	=38	=38	=38
!	!LO:DY:b	!	!	!	!	!	!	!	!	!	!	!	!	!	!	!	!	!	!	!	!	!	!	!	!
8D\L	f	8GG/L	8GG/L	.	16d/ 16bLL	.	16gg\LL	.	2r	.	2r	.	16GG/LL	.	2G\	.	4g/	.	4b/	4g\	.	16dd\LL	.	16gg\LL	.
.	.	.	.	.	16d/ 16b	.	16aa\	.	.	.	.	.	16GG/	.	.	.	.	.	.	.	.	16ff#\	.	16aa\	.
8D\	.	8GG/	8GG/	.	16d/ 16b	.	16bb\	.	.	.	.	.	16GG/	.	.	.	.	.	.	.	.	16gg\	.	16bb\	.
.	.	.	.	.	16d/ 16b	.	16ccc\JJ	.	.	.	.	.	16GG/JJ	.	.	.	.	.	.	.	.	16aa\JJ	.	16ccc\JJ	.
8F#\	.	8GG/	8GG/	.	16d/ 16b	.	16ddd\LL	.	.	.	.	.	16GG/LL	.	.	.	8b/L	.	4b/	4g\	.	8bb\L	.	8ddd\L	.
.	.	.	.	.	16d/ 16b	.	16bb\	.	.	.	.	.	16GG/	.	.	.	.	.	.	.	.	.	.	.	.
8D\J	.	8GG/J	8GG/J	.	16d/ 16b	.	16gg\	.	.	.	.	.	16GG/	.	.	.	8g/J	.	.	.	.	8gg\J	.	8bb\J	.
.	.	.	.	.	16d/ 16bJJ	.	16dd\JJ	.	.	.	.	.	16GG/JJ	.	.	.	.	.	.	.	.	.	.	.	.
!	!	!	!	!	!	!	!	!	!	!	!	!	!	!	!	!	!	!	!	!	!	!LO:LB:g=original	!	!	!
!	!	!	!	!	!	!	!	!	!	!	!	!	!	!	!LO:LB:g=original	!	!	!	!	!	!	!	!	!	!
=39	=39	=39	=39	=39	=39	=39	=39	=39	=39	=39	=39	=39	=39	=39	=39	=39	=39	=39	=39	=39	=39	=39	=39	=39	=39
8G\L	.	8D\L	8D\L	.	16d/LL	.	16ff#\LL	.	2r	.	2r	.	16D\LL	.	2D\	.	4d/	.	4a/	4d\	.	16dd\LL	.	16ff#\LL	.
.	.	.	.	.	16cc/	.	16gg\	.	.	.	.	.	16D\	.	.	.	.	.	.	.	.	16ee\	.	16gg\	.
8G\	.	8D\	8D\	.	16a/	.	16aa\	.	.	.	.	.	16D\	.	.	.	.	.	.	.	.	16ff#\	.	16aa\	.
.	.	.	.	.	16cc/JJ	.	16bb\JJ	.	.	.	.	.	16D\JJ	.	.	.	.	.	.	.	.	16gg\JJ	.	16bb\JJ	.
*	*	*	*	*	*	*	*	*	*	*	*	*	*	*	*	*	*	*	*v	*v	*	*	*	*	*
*	*	*	*	*	*rep	*	*	*	*	*	*	*	*	*	*	*	*	*	*	*	*	*	*	*
*	*	*	*	*	*	*	*	*	*	*	*	*	*	*	*	*	*	*	*^	*	*	*	*	*
8B\	.	8D\	8D\	.	16d/LL	.	16ccc\LL	.	.	.	.	.	16D\LL	.	.	.	4dd\	.	4a/	4d\	.	16aa\LL	.	16ccc\LL	.
.	.	.	.	.	16cc/	.	16bb\	.	.	.	.	.	16D\	.	.	.	.	.	.	.	.	16gg\	.	16bb\	.
8G\J	.	8D\J	8D\J	.	16a/	.	16ccc\	.	.	.	.	.	16D\	.	.	.	.	.	.	.	.	16aa\	.	16ccc\	.
.	.	.	.	.	16cc/JJ	.	16aa\JJ	.	.	.	.	.	16D\JJ	.	.	.	.	.	.	.	.	16ff#\JJ	.	16aa\JJ	.
*	*	*	*Xtremolo	*	*Xrep	*	*	*	*	*	*	*	*	*	*	*	*	*	*	*	*	*	*	*	*
!	!	!	!	!	!	!	!LO:LB:g=original	!	!	!	!	!	!	!	!	!	!	!	!	!	!	!	!	!	!
=40	=40	=40	=40	=40	=40	=40	=40	=40	=40	=40	=40	=40	=40	=40	=40	=40	=40	=40	=40	=40	=40	=40	=40	=40	=40
*	*	*	*	*	*Xtremolo	*	*	*	*	*	*	*	*	*	*	*	*	*	*	*	*	*	*	*	*
8d\L	.	4GG/	8G\L	.	8d/L 8b	.	8gg\	.	2r	.	2r	.	8GG/	.	4G\	.	8g/	.	8g/	8B\	.	8b\	.	8gg\	.
8D\	.	.	16D\L	.	8d/J 8b	.	8r	.	.	.	.	.	8r	.	.	.	8r	.	8r	8ryy	.	8r	.	8r	.
.	.	.	16BB\JJ	.	.	.	.	.	.	.	.	.	.	.	.	.	.	.	.	.	.	.	.	.	.
8F#\	.	8GG/	4GG/	.	4r	.	8g/L	.	.	.	.	.	4r	.	8G\	.	4r	.	4r	4ryy	.	4r	.	4r	.
8D\J	.	8r	.	.	.	.	(16a/L	.	.	.	.	.	.	.	8r	.	.	.	.	.	.	.	.	.	.
.	.	.	.	.	.	.	16b/JJ)	.	.	.	.	.	.	.	.	.	.	.	.	.	.	.	.	.	.
*	*	*	*	*	*	*	*	*	*	*	*	*	*	*	*	*	*	*	*v	*v	*	*	*	*	*
*	*	*	*	*	*tremolo	*	*	*	*	*	*	*	*	*	*	*	*	*	*	*	*	*	*	*
!	!	!LO:LB:g=original	!LO:LB:g=original	!	!	!	!	!	!	!	!	!	!	!	!	!	!	!	!	!	!	!	!	!
=41	=41	=41	=41	=41	=41	=41	=41	=41	=41	=41	=41	=41	=41	=41	=41	=41	=41	=41	=41	=41	=41	=41	=41	=41
!	!	!	!	!	!	!	!	!	!	!	!	!	!	!	!LO:TX:t=P:problem=6 z podwójnym podkreśleniem	!	!	!	!	!	!	!	!	!
!	!	!	!	!	!	!	!	!	!	!	!	!	!LO:TX:a:t=10.	!	!LO:TX:a:t=6	!	!LO:TX:a:t=10.	!	!LO:TX:a:t=6.	!	!LO:TX:a:t=6.	!	!LO:TX:a:t=6.	!
8G\L	.	8C\	8C\	.	8c/ 8eL	.	8cc/L	.	8c\	I	8cc\	I	2r	.	2r	.	2r	.	2r	.	2r	.	2r	.
.	.	.	.	.	.	.	8qqdd\	.	.	.	.	.	.	.	.	.	.	.	.	.	.	.	.	.
16D\L	.	8r	8r	.	8c/ 8e	.	(16cc/L	.	8c\	my	8cc\	my	.	.	.	.	.	.	.	.	.	.	.	.
16BB\JJ	.	.	.	.	.	.	16b/JJ)	.	.	.	.	.	.	.	.	.	.	.	.	.	.	.	.	.
8GG/	.	8C\	8C\	.	8c/ 8e	.	8cc/L	.	8c\	też	8cc\	też	.	.	.	.	.	.	.	.	.	.	.	.
.	.	.	.	.	.	.	8qqdd\	.	.	.	.	.	.	.	.	.	.	.	.	.	.	.	.	.
8r	.	8r	8r	.	8c/ 8eJ	.	(16cc/L	.	8c\	ba-	8cc\	ba-	.	.	.	.	.	.	.	.	.	.	.	.
.	.	.	.	.	.	.	16b/JJ)	.	.	.	.	.	.	.	.	.	.	.	.	.	.	.	.	.
!	!	!	!	!	!	!	!	!	!LO:LB:g=original	!	!	!	!	!	!	!	!	!	!	!	!	!	!	!
=42	=42	=42	=42	=42	=42	=42	=42	=42	=42	=42	=42	=42	=42	=42	=42	=42	=42	=42	=42	=42	=42	=42	=42	=42
*	*	*rep	*rep	*	*rep	*	*	*	*	*	*	*	*	*	*	*	*	*	*	*	*	*	*	*
4C\	.	8C\	8C\	.	8c/ 8eL	.	16cc\LL	.	(8c\	-cze-	(8cc\L	-czy-	2r	.	2r	.	2r	.	2r	.	2r	.	2r	.
.	.	.	.	.	.	.	16dd\	.	.	.	.	.	.	.	.	.	.	.	.	.	.	.	.	.
.	.	8r	8r	.	8c/ 8e	.	16ee\	.	8G\)	.	8g\J)	.	.	.	.	.	.	.	.	.	.	.	.	.
.	.	.	.	.	.	.	16cc\JJ	.	.	.	.	.	.	.	.	.	.	.	.	.	.	.	.	.
4c\	.	8C\	8C\	.	8c/ 8e	.	8g/L	.	4G\	-my	4g/	-my	.	.	.	.	.	.	.	.	.	.	.	.
.	.	8r	8r	.	8c/ 8eJ	.	8g/J	.	.	.	.	.	.	.	.	.	.	.	.	.	.	.	.	.
*	*	*Xrep	*Xrep	*	*Xrep	*	*	*	*	*	*	*	*	*	*	*	*	*	*	*	*	*	*	*
=43	=43	=43	=43	=43	=43	=43	=43	=43	=43	=43	=43	=43	=43	=43	=43	=43	=43	=43	=43	=43	=43	=43	=43	=43
4G\	.	8GG/	8GG/	.	8G/ 8fnL	.	8dd\L	.	8d\	a-	8dd\	a-	2r	.	2r	.	2r	.	2r	.	2r	.	2r	.
.	.	.	.	.	.	.	8qqee/	.	.	.	.	.	.	.	.	.	.	.	.	.	.	.	.	.
.	.	8r	8r	.	8G/ 8fn	.	16dd\L	.	8d\	-le	8dd\	-le	.	.	.	.	.	.	.	.	.	.	.	.
.	.	.	.	.	.	.	16cc#X\JJ	.	.	.	.	.	.	.	.	.	.	.	.	.	.	.	.	.
4GG/	.	8GG/	8GG/	.	8G/ 8fn	.	8dd\L	.	8d\	się	8dd\	się	.	.	.	.	.	.	.	.	.	.	.	.
.	.	.	.	.	.	.	8qqee/	.	.	.	.	.	.	.	.	.	.	.	.	.	.	.	.	.
.	.	8r	8r	.	8G/ 8fnJ	.	16dd\L	.	8d\	bo-	8dd\	bo-	.	.	.	.	.	.	.	.	.	.	.	.
.	.	.	.	.	.	.	16cc#\JJ	.	.	.	.	.	.	.	.	.	.	.	.	.	.	.	.	.
=44	=44	=44	=44	=44	=44	=44	=44	=44	=44	=44	=44	=44	=44	=44	=44	=44	=44	=44	=44	=44	=44	=44	=44	=44
*	*	*Xtremolo	*rep	*	*rep	*	*	*	*	*	*	*	*	*	*	*	*	*	*	*	*	*	*	*
4G\	.	8GG/	8GG/	.	8G/ 8fnL	.	16dd\LL	.	(8d\L	-ie	(8dd/L	-i-	2r	.	2r	.	2r	.	2r	.	2r	.	2r	.
.	.	.	.	.	.	.	16ee\	.	.	.	.	.	.	.	.	.	.	.	.	.	.	.	.	.
.	.	8r	8r	.	8G/ 8fn	.	16ff#\	.	8G\J)	.	8g/J)	.	.	.	.	.	.	.	.	.	.	.	.	.
.	.	.	.	.	.	.	16dd\JJ	.	.	.	.	.	.	.	.	.	.	.	.	.	.	.	.	.
4GG/	.	8GG/L	8GG/	.	8G/ 8fn	.	8g/L	.	4G\	mÿ	4g/	-my	.	.	.	.	.	.	.	.	.	.	.	.
.	.	8GG/J	8r	.	8G/ 8fnJ	.	8g/J	.	.	.	.	.	.	.	.	.	.	.	.	.	.	.	.	.
!	!	!	!	!	!	!	!	!	!	!	!LO:LB:g=original	!	!	!	!	!	!	!	!	!	!	!	!	!
*	*	*	*Xrep	*	*Xrep	*	*	*	*	*	*	*	*	*	*	*	*	*	*	*	*	*	*	*
!	!	!	!	!	!LO:LB:g=original	!	!	!	!	!	!	!	!	!	!	!	!	!	!	!	!	!	!	!
=45	=45	=45	=45	=45	=45	=45	=45	=45	=45	=45	=45	=45	=45	=45	=45	=45	=45	=45	=45	=45	=45	=45	=45	=45
8G\	.	4E\	8r	.	8r	.	8r	.	4e\	pa-	4ee\	pa-	2r	.	2r	.	2r	.	2r	.	2r	.	2r	.
8r	.	.	8E\	.	8e/	.	8ee\	.	.	.	.	.	.	.	.	.	.	.	.	.	.	.	.	.
8C\	.	4C\	8r	.	8r	.	8r	.	4c\	-trząc	4cc\	-trząc	.	.	.	.	.	.	.	.	.	.	.	.
8r	.	.	8C\	.	8c/	.	8cc\	.	.	.	.	.	.	.	.	.	.	.	.	.	.	.	.	.
!LO:LB:g=original	!	!	!	!	!	!	!LO:LB:g=original	!	!	!	!	!	!	!	!	!	!	!	!	!	!	!	!	!
=46	=46	=46	=46	=46	=46	=46	=46	=46	=46	=46	=46	=46	=46	=46	=46	=46	=46	=46	=46	=46	=46	=46	=46	=46
8AA/	.	4AA\	8r	.	8r	.	8r	.	4.A\	na	4.a/	na	2r	.	2r	.	2r	.	2r	.	2r	.	2r	.
8r	.	.	8AA/	.	8A/	.	8cc\	.	.	.	.	.	.	.	.	.	.	.	.	.	.	.	.	.
8D\	.	4D\	8r	.	8r	.	8r	.	.	.	.	.	.	.	.	.	.	.	.	.	.	.	.	.
8r	.	.	8D\	.	8d/	.	8dd\	.	8d\	te	8dd\	te	.	.	.	.	.	.	.	.	.	.	.	.
=47	=47	=47	=47	=47	=47	=47	=47	=47	=47	=47	=47	=47	=47	=47	=47	=47	=47	=47	=47	=47	=47	=47	=47	=47
*	*	*	*	*	*	*	*	*	*	*	*	*	*	*	*	*	*	*	*^	*	*	*	*	*
8G\L	.	4GG/	4GG/	.	8r	.	8r	.	8G\L	dzi-	8g/	dzi-	2r	.	4r	.	2r	.	4r	4ryy	.	4r	.	4r	.
8GG/J	.	.	.	.	8G/L	.	8g/L	.	8G\J	-wy	8g/	-wy	.	.	.	.	.	.	.	.	.	.	.	.	.
!	!	!	!	!	!	!	!	!	!	!	!	!	!	!	!	!	!	!	!	!	!	!	!	!	!LO:DY:t=f.
8G\L	.	8GG/L	4r	.	8g/	.	8gg\	.	4r	.	4r	.	.	.	8r	.	.	.	8r	8ryy	.	8r	.	8r	f
8c\J	.	8C/J	.	.	8cc/J	.	8ccc\J	.	.	.	.	.	.	.	8c\	.	.	.	8c/	8c\	.	8cc\	.	8ccc\	.
!	!	!LO:LB:g=original	!	!	!	!	!	!	!LO:LB:g=original	!	!	!	!	!	!	!	!	!	!	!	!	!	!	!	!
=48	=48	=48	=48	=48	=48	=48	=48	=48	=48	=48	=48	=48	=48	=48	=48	=48	=48	=48	=48	=48	=48	=48	=48	=48	=48
*Xtremolo	*	*tremolo	*	*	*	*	*tremolo	*	*	*	*	*	*	*	*	*	*	*	*	*	*	*	*	*	*
!	!	!	!	!	!	!	!	!	!LO:TX:a:t=2.	!	!LO:TX:a:t=2.	!	!	!	!	!	!	!	!	!	!	!	!	!	!
8e\L	.	16E\LL	4E\	.	16ee\LL	.	16eee\LL	.	2r	.	2r	.	2r	.	4e\	.	2r	.	4e/	4e\	.	4ee\	.	4eee\	.
.	.	16E\	.	.	16ee\	.	16eee\	.	.	.	.	.	.	.	.	.	.	.	.	.	.	.	.	.	.
8e\	.	16E\	.	.	16ee\	.	16eee\	.	.	.	.	.	.	.	.	.	.	.	.	.	.	.	.	.	.
.	.	16E\JJ	.	.	16ee\JJ	.	16eee\JJ	.	.	.	.	.	.	.	.	.	.	.	.	.	.	.	.	.	.
8c\	.	16C\LL	4C\	.	16cc\LL	.	16ccc\LL	.	.	.	.	.	.	.	4c\	.	.	.	4c/	4c\	.	4cc\	.	4ccc\	.
.	.	16C\	.	.	16cc\	.	16ccc\	.	.	.	.	.	.	.	.	.	.	.	.	.	.	.	.	.	.
8c\J	.	16C\	.	.	16cc\	.	16ccc\	.	.	.	.	.	.	.	.	.	.	.	.	.	.	.	.	.	.
.	.	16C\JJ	.	.	16cc\JJ	.	16ccc\JJ	.	.	.	.	.	.	.	.	.	.	.	.	.	.	.	.	.	.
=49	=49	=49	=49	=49	=49	=49	=49	=49	=49	=49	=49	=49	=49	=49	=49	=49	=49	=49	=49	=49	=49	=49	=49	=49	=49
8B\L	.	16AA/LL	4AA/	.	16a\LL	.	16aa\LL	.	2r	.	2r	.	2r	.	4A\	.	2r	.	4A/	4A\	.	4a\	.	4aa\	.
.	.	16AA/	.	.	16a\	.	16aa\	.	.	.	.	.	.	.	.	.	.	.	.	.	.	.	.	.	.
8B\	.	16AA/	.	.	16a\	.	16aa\	.	.	.	.	.	.	.	.	.	.	.	.	.	.	.	.	.	.
.	.	16AA/JJ	.	.	16a\JJ	.	16aa\JJ	.	.	.	.	.	.	.	.	.	.	.	.	.	.	.	.	.	.
8d\	.	16D\LL	4D\	.	16dd\LL	.	16ddd\LL	.	.	.	.	.	.	.	4d\	.	.	.	4d/	4d\	.	4dd\	.	4ddd\	.
.	.	16D\	.	.	16dd\	.	16ddd\	.	.	.	.	.	.	.	.	.	.	.	.	.	.	.	.	.	.
8d\J	.	16D\	.	.	16dd\	.	16ddd\	.	.	.	.	.	.	.	.	.	.	.	.	.	.	.	.	.	.
.	.	16D\JJ	.	.	16dd\JJ	.	16ddd\JJ	.	.	.	.	.	.	.	.	.	.	.	.	.	.	.	.	.	.
!	!	!	!LO:LB:g=original	!	!	!	!	!	!	!	!	!	!	!	!	!	!	!	!	!	!	!	!	!LO:LB:g=original	!
=50	=50	=50	=50	=50	=50	=50	=50	=50	=50	=50	=50	=50	=50	=50	=50	=50	=50	=50	=50	=50	=50	=50	=50	=50	=50
16r	.	4GG/	4GG/	.	16g/LL	.	16gg\LL	.	4r	.	4r	.	2r	.	4G\	.	2r	.	4g/	4G\	.	4g/	.	4gg\	.
16G\LL	.	.	.	.	16g/	.	16gg\	.	.	.	.	.	.	.	.	.	.	.	.	.	.	.	.	.	.
16D\	.	.	.	.	16g/	.	16gg\	.	.	.	.	.	.	.	.	.	.	.	.	.	.	.	.	.	.
16BB\JJ	.	.	.	.	16g/JJ	.	16gg\JJ	.	.	.	.	.	.	.	.	.	.	.	.	.	.	.	.	.	.
8GG/	.	8GG/	8GG/	.	8G/	.	8g/	.	8r	.	8r	.	.	.	8G\	.	.	.	8G/	8G\	.	8g/	.	8g/	.
8r	.	8r	8r	.	8r	.	8r	.	8G\	trwo-	8g/	Trwo-	.	.	8r	.	.	.	8r	8ryy	.	8r	.	8r	.
=51	=51	=51	=51	=51	=51	=51	=51	=51	=51	=51	=51	=51	=51	=51	=51	=51	=51	=51	=51	=51	=51	=51	=51	=51	=51
!	!	!	!	!	!	!	!	!	!	!	!	!	!	!	!	!	!	!	!	!	!LO:DY:t=f&colon;	!	!	!	!
!	!LO:DY:b	!	!	!	!	!	!	!	!	!	!	!	!	!	!	!	!	!	!	!	!	!	!	!	!
8r	f	8r	8r	.	8r	.	8r	.	4c\	-ga	4cc\	-ga	8r	.	8r	.	8r	f	8r	8ryy	f	8r	.	8r	.
*	*	*	*	*	*Xtremolo	*	*Xtremolo	*	*	*	*	*	*Xtremolo	*	*	*	*	*	*Xtremolo	*	*	*	*	*	*
!	!	!LO:TX:t=P:problem= 4 zamiast 8	!	!	!	!	!	!LO:DY:b:t=for	!	!	!	!	!	!	!	!	!	!	!	!	!	!	!	!	!
8C\L	.	32C\LLL	8C\L	.	32G/LLL 32g	.	32f#/LLL 32cc	f	.	.	.	.	16GG/LL	.	8C/L	.	16g/LL	.	16g/LL	16c\LL	.	16e/LL	.	16cc\LL	.
.	.	32C\	.	.	32G/ 32g	.	32f#/ 32cc	.	.	.	.	.	.	.	.	.	.	.	.	.	.	.	.	.	.
.	.	32C\	.	.	32G/ 32g	.	32f#/ 32cc	.	.	.	.	.	16GG/JJ	.	.	.	16g/JJ	.	16g/JJ	16c\JJ	.	16e/JJ	.	16cc\JJ	.
.	.	32C\JJJ	.	.	32G/JJJ 32g	.	32f#/JJJ 32cc	.	.	.	.	.	.	.	.	.	.	.	.	.	.	.	.	.	.
8c\J	.	8C\	8C\J	.	8G/ 8g	.	8f#/ 8cc	.	8r	.	8r	.	8GG/	.	8C/J	.	8g/	.	8g/	8c\	.	8e/	.	8cc\	.
8r	.	8r	8r	.	8r	.	8r	.	8G\	trwo-	8g/	trwo-	8r	.	8r	.	8r	.	8r	8ryy	.	8r	.	8r	.
!	!	!	!	!	!LO:LB:g=original	!	!LO:LB:g=original	!	!	!	!	!	!	!	!	!	!	!	!	!	!	!	!	!	!
!LO:LB:g=original	!	!	!	!	!	!	!	!	!	!	!	!	!	!	!LO:LB:g=original	!	!	!	!	!	!	!	!	!	!
=52	=52	=52	=52	=52	=52	=52	=52	=52	=52	=52	=52	=52	=52	=52	=52	=52	=52	=52	=52	=52	=52	=52	=52	=52	=52
!	!LO:DY:b	!	!	!	!	!	!	!	!	!	!	!	!	!	!	!	!	!	!	!	!	!	!	!	!
8r	f	8r	8r	.	8r	.	8r	.	4d\	-ga	4dd\	-ga	8r	.	8r	.	8r	.	8r	8ryy	.	8r	.	8r	.
!	!	!	!	!	!	!	!	!	!	!	!	!	!	!	!	!	!	!	!	!	!	!	!	!	!
!	!	!	!	!	!	!	!	!LO:DY:b	!	!	!	!	!	!	!	!	!	!	!	!	!	!	!	!	!
8GG/L	.	32GG/LLL	8GG/L	.	32G/LLL 32g	.	32d/LLL 32dd	f	.	.	.	.	16GG/LL	.	8G\L	.	16g/LL	.	16g/LL	16B\LL	.	16b\LL	.	16dd\LL	.
.	.	32GG/	.	.	32G/ 32g	.	32d/ 32dd	.	.	.	.	.	.	.	.	.	.	.	.	.	.	.	.	.	.
.	.	32GG/	.	.	32G/ 32g	.	32d/ 32dd	.	.	.	.	.	16GG/JJ	.	.	.	16g/JJ	.	16g/JJ	16B\JJ	.	16b\JJ	.	16dd\JJ	.
.	.	32GG/JJJ	.	.	32G/JJJ 32g	.	32d/JJJ 32dd	.	.	.	.	.	.	.	.	.	.	.	.	.	.	.	.	.	.
8G\J	.	8GG/	8GG/J	.	8G/ 8g	.	8d/ 8dd	.	8r	.	8r	.	8GG/	.	8G\J	.	8g/	.	8g/	8B\	.	8b\	.	8dd\	.
8r	.	8r	8r	.	8r	.	8r	.	8G\	dla	8g/	Dla	8r	.	8r	.	8r	.	8r	8ryy	.	8r	.	8r	.
!	!	!	!	!	!	!	!	!	!	!	!	!	!LO:LB:g=original	!	!	!	!	!	!	!	!	!	!	!	!
=53	=53	=53	=53	=53	=53	=53	=53	=53	=53	=53	=53	=53	=53	=53	=53	=53	=53	=53	=53	=53	=53	=53	=53	=53	=53
!	!	!	!	!	!	!	!	!	!	!	!	!	!LO:TX:a:t=2.	!	!	!	!LO:TX:a:t=1.	!	!	!	!	!	!	!	!
8E\	.	4E\	8r	.	8r	.	8r	.	4e\	Bo-	4ee\	Bo-	2r	.	4e\	.	2r	.	8r	8ryy	.	8r	.	8r	.
8r	.	.	16E\LL	.	16e/LL	.	16ee\LL	.	.	.	.	.	.	.	.	.	.	.	8e/	8e\	.	8ee\	.	8ee\	.
.	.	.	16E\JJ	.	16e/JJ	.	16ee\JJ	.	.	.	.	.	.	.	.	.	.	.	.	.	.	.	.	.	.
8C\	.	4C\	8r	.	8r	.	8r	.	4c\	-ga	4cc\	-ga	.	.	4c\	.	.	.	8r	8ryy	.	8r	.	8r	.
8r	.	.	16C/LL	.	16c/LL	.	16cc\LL	.	.	.	.	.	.	.	.	.	.	.	8c/	8c\	.	8cc\	.	8cc\	.
.	.	.	16C/JJ	.	16c/JJ	.	16cc\JJ	.	.	.	.	.	.	.	.	.	.	.	.	.	.	.	.	.	.
*	*	*	*	*	*	*	*	*	*	*	*	*	*	*	*	*	*	*	*v	*v	*	*	*	*	*
!	!	!	!	!	!	!	!	!	!	!	!LO:LB:g=original	!	!	!	!	!	!	!	!LO:LB:g=original	!	!	!	!	!
=54	=54	=54	=54	=54	=54	=54	=54	=54	=54	=54	=54	=54	=54	=54	=54	=54	=54	=54	=54	=54	=54	=54	=54	=54
8AA/	.	4AA\	8r	.	8r	.	8r	.	4A\	co	4a/	co	2r	.	4A\	.	4r	.	8r	.	8r	.	8r	.
8r	.	.	16AA/LL	.	16A/LL	.	16a\LL	.	.	.	.	.	.	.	.	.	.	.	8A/	.	8a\	.	8a\	.
.	.	.	16AA/JJ	.	16A/JJ	.	16a\JJ	.	.	.	.	.	.	.	.	.	.	.	.	.	.	.	.	.
8D\	.	4D\	8r	.	8r	.	8r	.	4d\	się	4dd\	się	.	.	4d\	.	8r	.	8r	.	8r	.	8r	.
!	!	!	!	!	!	!	!	!	!	!	!	!	!	!	!	!	!	!	!	!	!LO:N:vis=8	!	!	!
8r	.	.	16D\LL	.	16d/LL	.	16dd\LL	.	.	.	.	.	.	.	.	.	8d/ 8dd	.	8d/	.	16dd\	.	8dd\	.
!	!	!	!	!	!	!	!	!	!	!	!	!	!	!	!	!	!	!	!	!	!LO:N:vis=8	!	!	!
.	.	.	16D\JJ	.	16d/JJ	.	16dd\JJ	.	.	.	.	.	.	.	.	.	.	.	.	.	16r	.	.	.
!	!	!	!	!	!	!	!	!	!LO:LB:g=original	!	!	!	!	!	!	!	!	!	!	!LO:LB:g=original	!	!	!	!
!	!	!LO:LB:g=original	!	!	!	!	!	!	!	!	!	!	!	!	!	!	!	!	!	!	!LO:TX:t=P:problem= kolejny takt skreślony	!	!	!
=55	=55	=55	=55	=55	=55	=55	=55	=55	=55	=55	=55	=55	=55	=55	=55	=55	=55	=55	=55	=55	=55	=55	=55	=55
*	*	*	*	*	*	*	*	*	*	*	*	*	*	*	*	*	*	*	*^	*	*	*	*	*
16r	.	2GG/	16r	.	16r	.	16r	.	8G\L	dzie-	8g/	dzie-	8GG/	.	2G\	.	8g/	.	8g/	8G\	.	16r	.	16r	.
!	!	!	!	!	!	!	!	!LO:DY:b	!	!	!	!	!	!	!	!	!	!	!	!	!	!	!	!	!
16G\LL	.	.	16G\LL	.	16g/LL	.	16gg\LL	f	.	.	.	.	.	.	.	.	.	.	.	.	.	16g/LL	.	16gg\LL	.
16F#\	.	.	16F#\	.	16f#/	.	16ff#\	.	8G\J	-ie	8g/	-je	8r	.	.	.	8r	.	8r	8ryy	.	16f#/	.	16ff#\	.
16E\JJ	.	.	16E\JJ	.	16e/JJ	.	16ee\JJ	.	.	.	.	.	.	.	.	.	.	.	.	.	.	16e/JJ	.	16ee\JJ	.
16D\LL	.	.	16D\LL	.	16d/LL	.	16dd\LL	.	4r	.	4r	.	4r	.	.	.	4r	.	4r	4ryy	.	16d/LL	.	16dd\LL	.
16C\	.	.	16C\	.	16c/	.	16cc\	.	.	.	.	.	.	.	.	.	.	.	.	.	.	16c/	.	16cc\	.
16BB\	.	.	16BB\	.	16B/	.	16b\	.	.	.	.	.	.	.	.	.	.	.	.	.	.	16B/	.	16b\	.
16AA\JJ	.	.	16AA\JJ	.	16A/JJ	.	16a\JJ	.	.	.	.	.	.	.	.	.	.	.	.	.	.	16A/JJ	.	16a\JJ	.
!	!	!	!LO:LB:g=original	!	!	!	!	!	!	!	!	!	!	!	!	!	!LO:LB:g=original	!	!	!	!	!	!	!	!
=56	=56	=56	=56	=56	=56	=56	=56	=56	=56	=56	=56	=56	=56	=56	=56	=56	=56	=56	=56	=56	=56	=56	=56	=56	=56
4GG/	.	4GG/	4GG/	.	4G/	.	4g/	.	8r	.	8r	.	4GG/	.	4G\	.	4g/	.	4g/	4G\	.	4G/	.	4g/	.
.	.	.	.	.	.	.	.	.	8G\	od	8f#/	od	.	.	.	.	.	.	.	.	.	.	.	.	.
4r	.	4r	4r	.	4r	.	4r	.	8G\	stra-	8f#/	stra-	4r	.	4r	.	4r	.	4r	4ryy	.	4r	.	4r	.
.	.	.	.	.	.	.	.	.	8G\	-chu	8f#/	-chu	.	.	.	.	.	.	.	.	.	.	.	.	.
*	*	*	*	*	*	*	*	*	*	*	*	*	*	*	*	*	*	*	*v	*v	*	*	*	*	*
!	!	!	!	!	!LO:LB:g=original	!	!LO:LB:g=original	!	!	!	!	!	!	!	!	!	!	!	!	!	!	!	!	!
=57	=57	=57	=57	=57	=57	=57	=57	=57	=57	=57	=57	=57	=57	=57	=57	=57	=57	=57	=57	=57	=57	=57	=57	=57
!	!	!	!	!	!	!	!	!	!	!	!	!	!	!	!LO:TX:t=P:problem=5 z podwójnym podkreśleniem	!	!	!	!	!	!	!	!	!
!	!	!	!	!	!	!	!	!	!	!	!	!	!LO:TX:a:t=5.	!	!LO:TX:a:t=5	!	!LO:TX:a:t=5	!	!LO:TX:a:t=5.	!	!LO:TX:a:t=5.	!	!LO:TX:a:t=5.	!
.	.	.	.	.	.	.	8qqdd/	.	.	.	.	.	.	.	.	.	.	.	.	.	.	.	.	.
*	*	*	*	*	*^	*	*	*	*	*	*	*	*	*	*	*	*	*	*	*	*	*	*	*
4c\	.	8C\	4C/	.	8e/L	2G/	.	(8cc\L	.	4c\	ser-	4cc\	ser-	2r	.	2r	.	2r	.	2r	.	2r	.	2r	.
!	!	!	!	!	!	!	!	!	!LO:DY:b	!	!	!	!	!	!	!	!	!	!	!	!	!	!	!	!
.	.	8r	.	.	8e/	.	.	16b\L	p	.	.	.	.	.	.	.	.	.	.	.	.	.	.	.	.
.	.	.	.	.	.	.	.	16cc\JJ)	.	.	.	.	.	.	.	.	.	.	.	.	.	.	.	.	.
.	.	.	.	.	.	.	.	8qqdd/	.	.	.	.	.	.	.	.	.	.	.	.	.	.	.	.	.
8r	.	8GG/	4GG/	.	8f#/	.	.	8dd\L	.	8d\L	-ce	8dd\	-ce	.	.	.	.	.	.	.	.	.	.	.	.
8G\	.	8r	.	.	8f#/J	.	.	(16cc\L	.	8d\J	tru-	8dd\	tru-	.	.	.	.	.	.	.	.	.	.	.	.
.	.	.	.	.	.	.	.	16dd\JJ)	.	.	.	.	.	.	.	.	.	.	.	.	.	.	.	.	.
*	*	*	*	*	*v	*v	*	*	*	*	*	*	*	*	*	*	*	*	*	*	*	*	*	*	*
!LO:LB:g=original	!	!	!	!	!	!	!	!	!	!	!	!	!	!	!	!	!	!	!	!	!	!	!	!
=58	=58	=58	=58	=58	=58	=58	=58	=58	=58	=58	=58	=58	=58	=58	=58	=58	=58	=58	=58	=58	=58	=58	=58	=58
*	*	*Xtremolo	*	*	*tremolo	*	*	*	*	*	*	*	*	*	*	*	*	*	*	*	*	*	*	*
8C/L	.	8C\L	4C/	.	8G/ 8eL	.	8ee\L	.	8e\L	-chle-	8ee\L	-chle-	2r	.	2r	.	2r	.	2r	.	2r	.	2r	.
8c\J	.	8C\J	.	.	8G/ 8e	.	8cc\J	.	8c\J	-ie	8dd\J	-je	.	.	.	.	.	.	.	.	.	.	.	.
.	.	.	.	.	.	.	8qqaa/	.	.	.	.	.	.	.	.	.	.	.	.	.	.	.	.	.
4r	.	4C\	4r	.	8G/ 8e	.	16gg\LL	.	4r	.	4r	.	.	.	.	.	.	.	.	.	.	.	.	.
.	.	.	.	.	.	.	16ff#X\	.	.	.	.	.	.	.	.	.	.	.	.	.	.	.	.	.
.	.	.	.	.	8G/ 8eJ	.	16gg\	.	.	.	.	.	.	.	.	.	.	.	.	.	.	.	.	.
.	.	.	.	.	.	.	16ee\JJ	.	.	.	.	.	.	.	.	.	.	.	.	.	.	.	.	.
=59	=59	=59	=59	=59	=59	=59	=59	=59	=59	=59	=59	=59	=59	=59	=59	=59	=59	=59	=59	=59	=59	=59	=59	=59
8C/	.	2C\	4C/	.	8e/L	.	8cc\L	.	8r	.	8r	.	2r	.	2r	.	2r	.	2r	.	2r	.	2r	.
8r	.	.	.	.	8g/	.	8ee\	.	8c\	ser-	8cc\	ser-	.	.	.	.	.	.	.	.	.	.	.	.
8c\	.	.	4C/	.	8e/	.	8cc\	.	8c\	-ce	8cc\	-ce	.	.	.	.	.	.	.	.	.	.	.	.
8r	.	.	.	.	8g/J	.	8ee\J	.	8c\	tru-	8cc\	tru-	.	.	.	.	.	.	.	.	.	.	.	.
!	!	!	!	!	!	!	!	!	!LO:LB:g=original	!	!LO:LB:g=original	!	!	!	!	!	!	!	!	!	!	!	!	!
=60	=60	=60	=60	=60	=60	=60	=60	=60	=60	=60	=60	=60	=60	=60	=60	=60	=60	=60	=60	=60	=60	=60	=60	=60
*tremolo	*	*	*	*	*	*	*tremolo	*	*	*	*	*	*	*	*	*	*	*	*	*	*	*	*	*
8Fn\L	.	4A\	4F#\	.	16a/LL	.	16aa\LL	.	4A\	-chle-	4a/	-chle-	2r	.	2r	.	2r	.	2r	.	2r	.	2r	.
.	.	.	.	.	16a/	.	16aa\	.	.	.	.	.	.	.	.	.	.	.	.	.	.	.	.	.
8Fn\	.	.	.	.	16a/	.	16aa\	.	.	.	.	.	.	.	.	.	.	.	.	.	.	.	.	.
.	.	.	.	.	16a/JJ	.	16aa\JJ	.	.	.	.	.	.	.	.	.	.	.	.	.	.	.	.	.
8Fn\	.	4F#\	4F#\	.	16fn/LL	.	16ggn\LL	.	4Fn\	-ie	4fn/	-je	.	.	.	.	.	.	.	.	.	.	.	.
.	.	.	.	.	16fn/	.	16ggn\	.	.	.	.	.	.	.	.	.	.	.	.	.	.	.	.	.
8Fn\J	.	.	.	.	16fn/	.	16ggn\	.	.	.	.	.	.	.	.	.	.	.	.	.	.	.	.	.
.	.	.	.	.	16fn/JJ	.	16ggn\JJ	.	.	.	.	.	.	.	.	.	.	.	.	.	.	.	.	.
=61	=61	=61	=61	=61	=61	=61	=61	=61	=61	=61	=61	=61	=61	=61	=61	=61	=61	=61	=61	=61	=61	=61	=61	=61
*Xtremolo	*	*	*	*	*	*	*	*	*	*	*	*	*	*	*	*	*	*	*	*	*	*	*	*
8G\L	.	4D\	4G\	.	16d/LL	.	16dd\LL	.	4G\	tru-	4g/	tru-	2r	.	2r	.	2r	.	2r	.	2r	.	2r	.
.	.	.	.	.	16d/	.	16dd\	.	.	.	.	.	.	.	.	.	.	.	.	.	.	.	.	.
8G\	.	.	.	.	16d/	.	16dd\	.	.	.	.	.	.	.	.	.	.	.	.	.	.	.	.	.
.	.	.	.	.	16d/JJ	.	16dd\JJ	.	.	.	.	.	.	.	.	.	.	.	.	.	.	.	.	.
8GG/	.	4G\	4G\	.	16g/LL	.	16gg\LL	.	4G\	-chle-	4g/	-chle-	.	.	.	.	.	.	.	.	.	.	.	.
.	.	.	.	.	16g/	.	16gg\	.	.	.	.	.	.	.	.	.	.	.	.	.	.	.	.	.
8GG/J	.	.	.	.	16g/	.	16gg\	.	.	.	.	.	.	.	.	.	.	.	.	.	.	.	.	.
.	.	.	.	.	16g/JJ	.	16gg\JJ	.	.	.	.	.	.	.	.	.	.	.	.	.	.	.	.	.
=62	=62	=62	=62	=62	=62	=62	=62	=62	=62	=62	=62	=62	=62	=62	=62	=62	=62	=62	=62	=62	=62	=62	=62	=62
*	*	*	*	*	*	*	*	*	*	*	*	*	*	*	*	*	*	*	*^	*	*	*	*	*
!	!	!	!	!	!	!	!	!	!	!	!	!	!	!	!LO:TX:a:t=1	!	!	!	!	!	!	!	!	!	!
!	!	!	!	!	!	!	!	!	!	!	!	!	!	!	!	!	!	!	!	!	!	!LO:DY:t=p..	!	!	!
!	!	!	!	!	!	!	!	!	!	!	!	!	!	!LO:DY:t=pp&colon;	!	!	!	!	!	!	!LO:DY:t=p&colon;	!	!	!	!
2C/	.	2C\	4C\	.	8c/L	.	8cc\L	.	4C/	-ie	4c/	-je.	2GGT/	pp	2C\	p	2g/	p	4g/	4c\	p	8c/L	.	8cc\L	.
.	.	.	.	.	8d/	.	8dd\	.	.	.	.	.	.	.	.	.	.	.	.	.	.	8d/	.	8dd\	.
.	.	.	4C\	.	8e/	.	8ee\	.	4r	.	4r	.	.	.	.	.	.	.	4g/	4c\	.	8e/	.	8ee\	.
.	.	.	.	.	8fn/J	.	8ff#\J	.	.	.	.	.	.	.	.	.	.	.	.	.	.	8fn/J	.	8ffn\J	.
*	*	*	*	*	*	*	*	*	*	*	*	*	*	*	*	*	*	*	*v	*v	*	*	*	*	*
!	!	!	!	!	!	!	!LO:LB:g=original	!	!	!	!	!	!	!	!	!	!	!	!	!	!	!	!	!
=63	=63	=63	=63	=63	=63	=63	=63	=63	=63	=63	=63	=63	=63	=63	=63	=63	=63	=63	=63	=63	=63	=63	=63	=63
*	*	*rep	*	*	*	*	*	*	*	*	*	*	*	*	*	*	*	*	*	*	*	*	*	*
*	*	*	*	*	*	*	*	*	*	*	*	*	*	*	*	*	*	*	*^	*	*	*	*	*
!	!	!	!	!	!	!	!	!	!LO:TX:a:t=11	!	!LO:TX:a:t=11.	!	!	!	!LO:TX:a:t=2	!	!	!	!	!	!	!	!	!	!
2C/	.	2C\	2C\	.	8g/L	.	8gg\L	.	2r	.	2r	.	2GG/	.	2C\	.	2g/	.	4g/	4G\	.	8g/L	.	8gg\L	.
.	.	.	.	.	8qqa\	.	8qqaa/	.	.	.	.	.	.	.	.	.	.	.	.	.	.	.	.	8qaa/	.
.	.	.	.	.	16g/L	.	16gg\L	.	.	.	.	.	.	.	.	.	.	.	.	.	.	16g/L	.	16gg\L	.
.	.	.	.	.	16f#/JJ	.	16ff#X\JJ	.	.	.	.	.	.	.	.	.	.	.	.	.	.	16f#X/JJ	.	16ff#X\JJ	.
.	.	.	.	.	8g/L	.	8gg\L	.	.	.	.	.	.	.	.	.	.	.	4g/	4G\	.	8g/L	.	8gg\L	.
.	.	.	.	.	8qqa\	.	8qqaa/	.	.	.	.	.	.	.	.	.	.	.	.	.	.	.	.	8qaa/	.
.	.	.	.	.	16g/L	.	16gg\L	.	.	.	.	.	.	.	.	.	.	.	.	.	.	16g/L	.	16gg\L	.
.	.	.	.	.	16f#/JJ	.	16ff#\JJ	.	.	.	.	.	.	.	.	.	.	.	.	.	.	16f#X/JJ	.	16ff#X\JJ	.
*	*	*Xrep	*	*	*	*	*	*	*	*	*	*	*	*	*	*	*	*	*	*	*	*	*	*	*
*	*	*	*	*	*	*	*	*	*	*	*	*	*	*	*	*	*	*	*v	*v	*	*	*	*	*
!	!	!LO:LB:g=original	!	!	!LO:LB:g=original	!	!	!	!	!	!	!	!	!	!	!	!	!	!	!	!	!	!LO:LB:g=original	!
=64	=64	=64	=64	=64	=64	=64	=64	=64	=64	=64	=64	=64	=64	=64	=64	=64	=64	=64	=64	=64	=64	=64	=64	=64
*	*	*rep	*	*	*	*	*	*	*	*	*	*	*	*	*	*	*	*	*	*	*	*	*	*
*	*	*	*	*	*	*	*	*	*	*	*	*	*	*	*	*	*	*	*^	*	*	*	*	*
!	!	!	!	!	!	!	!	!	!	!	!	!	!	!	!LO:TX:a:t=3	!	!	!	!	!	!	!	!	!	!
2C/	.	2C\	2C\	.	8g/L	.	8gg\L	.	2r	.	2r	.	2GG/	.	2C\	.	2g/	.	4g/	4G\	.	8g/L	.	8gg\L	.
.	.	.	.	.	8qqa\	.	8qqaa/	.	.	.	.	.	.	.	.	.	.	.	.	.	.	.	.	8qaa/	.
.	.	.	.	.	16g/L	.	16gg\L	.	.	.	.	.	.	.	.	.	.	.	.	.	.	16g/L	.	16gg\L	.
.	.	.	.	.	16f#/JJ	.	16ff#X\JJ	.	.	.	.	.	.	.	.	.	.	.	.	.	.	16f#X/JJ	.	16ff#X\JJ	.
.	.	.	.	.	8g/L	.	8gg\L	.	.	.	.	.	.	.	.	.	.	.	4g/	4G\	.	8g/L	.	8gg\L	.
.	.	.	.	.	8cc/J	.	8ccc\J	.	.	.	.	.	.	.	.	.	.	.	.	.	.	8cc/J	.	8ccc\J	.
*	*	*Xrep	*	*	*	*	*	*	*	*	*	*	*	*	*	*	*	*	*	*	*	*	*	*	*
*	*	*	*	*	*	*	*	*	*	*	*	*	*	*	*	*	*	*	*v	*v	*	*	*	*	*
=65	=65	=65	=65	=65	=65	=65	=65	=65	=65	=65	=65	=65	=65	=65	=65	=65	=65	=65	=65	=65	=65	=65	=65	=65
*	*	*rep	*	*	*	*	*	*	*	*	*	*	*	*	*	*	*	*	*	*	*	*	*	*
*	*	*	*	*	*	*	*	*	*	*	*	*	*	*	*	*	*	*	*^	*	*	*	*	*
!	!	!	!	!	!	!	!	!	!	!	!	!	!	!	!LO:TX:a:t=4	!	!	!	!	!	!	!	!	!	!
2C/	.	2C\	2C\	.	4g/	.	4gg\	.	2r	.	2r	.	2GG/	.	2C\	.	2g/	.	4g/	4G\	.	4g/	.	4gg\	.
.	.	.	.	.	4e/	.	4ee\	.	.	.	.	.	.	.	.	.	.	.	4g/	4G\	.	4e/	.	4ee\	.
*	*	*Xrep	*	*	*	*	*	*	*	*	*	*	*	*	*	*	*	*	*	*	*	*	*	*	*
*	*	*	*	*	*	*	*	*	*	*	*	*	*	*	*	*	*	*	*v	*v	*	*	*	*	*
=66	=66	=66	=66	=66	=66	=66	=66	=66	=66	=66	=66	=66	=66	=66	=66	=66	=66	=66	=66	=66	=66	=66	=66	=66
*	*	*rep	*	*	*	*	*	*	*	*	*	*	*	*	*	*	*	*	*	*	*	*	*	*
*	*	*	*	*	*	*	*	*	*	*	*	*	*	*	*	*	*	*	*^	*	*	*	*	*
!	!	!	!	!	!	!	!	!	!	!	!	!	!	!	!LO:TX:a:t=5	!	!	!	!	!	!	!	!	!	!
2C/	.	2C\	2C\	.	8c/L	.	8cc\L	.	2r	.	2r	.	2GG/	.	2C\	.	2g/	.	4g/	4c\	.	8c/L	.	8cc\L	.
.	.	.	.	.	8d/	.	8dd\	.	.	.	.	.	.	.	.	.	.	.	.	.	.	8d/	.	8dd\	.
.	.	.	.	.	8e/	.	8ee\	.	.	.	.	.	.	.	.	.	.	.	4g/	4c\	.	8e/	.	8ee\	.
!	!	!	!	!	!	!	!LO:SIC:s=FFN	!	!	!	!	!	!	!	!	!	!	!	!	!	!	!	!	!	!
.	.	.	.	.	8fn/J	.	8ff#\J	.	.	.	.	.	.	.	.	.	.	.	.	.	.	8fn/J	.	8ff#\J	.
*	*	*Xrep	*	*	*	*	*	*	*	*	*	*	*	*	*	*	*	*	*	*	*	*	*	*	*
*	*	*	*	*	*	*	*	*	*	*	*	*	*	*	*	*	*	*	*v	*v	*	*	*	*	*
=67	=67	=67	=67	=67	=67	=67	=67	=67	=67	=67	=67	=67	=67	=67	=67	=67	=67	=67	=67	=67	=67	=67	=67	=67
*	*	*rep	*	*	*	*	*	*	*	*	*	*	*	*	*	*	*	*	*	*	*	*	*	*
*	*	*	*	*	*	*	*	*	*	*	*	*	*	*	*	*	*	*	*^	*	*	*	*	*
!	!	!	!	!	!	!	!	!	!	!	!	!	!	!	!LO:TX:a:t=6	!	!	!	!	!	!	!	!	!	!
2C/	.	2C\	2C\	.	8g/L	.	8gg\L	.	2r	.	2r	.	2GG/	.	2C\	.	2g/	.	4g/	4c\	.	8g/L	.	8gg\L	.
.	.	.	.	.	8qqa\	.	8qqaa/	.	.	.	.	.	.	.	.	.	.	.	.	.	.	.	.	8qaa/	.
.	.	.	.	.	16g/L	.	16gg\L	.	.	.	.	.	.	.	.	.	.	.	.	.	.	16g/L	.	16gg\L	.
.	.	.	.	.	16f#/JJ	.	16ff#X\JJ	.	.	.	.	.	.	.	.	.	.	.	.	.	.	16f#X/JJ	.	16ff#X\JJ	.
.	.	.	.	.	8g/L	.	8gg\L	.	.	.	.	.	.	.	.	.	.	.	4g/	4c\	.	8g/L	.	8gg\L	.
.	.	.	.	.	8qqa\	.	8qqaa/	.	.	.	.	.	.	.	.	.	.	.	.	.	.	.	.	8qaa/	.
.	.	.	.	.	16g/L	.	16gg\L	.	.	.	.	.	.	.	.	.	.	.	.	.	.	16g/L	.	16gg\L	.
.	.	.	.	.	16f#/JJ	.	16ff#\JJ	.	.	.	.	.	.	.	.	.	.	.	.	.	.	16f#X/JJ	.	16ff#X\JJ	.
*	*	*Xrep	*	*	*	*	*	*	*	*	*	*	*	*	*	*	*	*	*	*	*	*	*	*	*
!LO:LB:g=original	!	!	!LO:LB:g=original	!	!	!	!	!	!	!	!	!	!	!	!LO:LB:g=original	!	!	!	!	!	!	!	!	!	!
=68	=68	=68	=68	=68	=68	=68	=68	=68	=68	=68	=68	=68	=68	=68	=68	=68	=68	=68	=68	=68	=68	=68	=68	=68	=68
4C/	.	4C/	4C/	.	8g/L	.	8gg\L	.	2r	.	2r	.	2GG/	.	4C\	.	2g/	.	4g/	4c\	.	8g/L	.	8gg\L	.
.	.	.	.	.	8qqa\	.	8qqaa/	.	.	.	.	.	.	.	.	.	.	.	.	.	.	.	.	8qaa/	.
.	.	.	.	.	16g/L	.	16gg\L	.	.	.	.	.	.	.	.	.	.	.	.	.	.	16g/L	.	16gg\L	.
.	.	.	.	.	16f#/JJ	.	16ee\JJ	.	.	.	.	.	.	.	.	.	.	.	.	.	.	16e/JJ	.	16ff#X\JJ	.
4GG/	.	4GG/	4G\	.	8fn/L	.	8ffn\L	.	.	.	.	.	.	.	4G\	.	.	.	4g/	4G\	.	8fn/L	.	8ffn\L	.
.	.	.	.	.	8d/J	.	8dd\J	.	.	.	.	.	.	.	.	.	.	.	.	.	.	8d/J	.	8dd\J	.
!	!	!	!	!	!	!	!LO:LB:g=original	!	!	!	!	!	!	!	!	!	!	!	!	!	!LO:LB:g=original	!	!	!	!
=69	=69	=69	=69	=69	=69	=69	=69	=69	=69	=69	=69	=69	=69	=69	=69	=69	=69	=69	=69	=69	=69	=69	=69	=69	=69
4C/	.	4C\	4C\	.	4c/	.	4cc\	.	2r	.	2r	.	4GG/	.	4C\	.	4g/	.	4g/	4c\	.	4c/	.	4cc\	.
4c\	.	8C\	8C\	.	8cc\	.	8ccc\	.	.	.	.	.	8GG/	.	8C\	.	8g/	.	8g/	8c\	.	8cc\	.	8ccc\	.
.	.	8r	8r	.	8r	.	8r	.	.	.	.	.	8r	.	8r	.	8r	.	8r	8ryy	.	8r	.	8r	.
*	*	*	*	*	*	*	*	*	*	*	*	*	*	*	*	*	*	*	*v	*v	*	*	*	*	*
=70	=70	=70	=70	=70	=70	=70	=70	=70	=70	=70	=70	=70	=70	=70	=70	=70	=70	=70	=70	=70	=70	=70	=70	=70
!	!	!	!	!	!	!	!	!	!	!	!	!	!LO:TX:a:t=12.	!	!	!	!LO:TX:a:t=12.	!	!LO:TX:a:t=12	!	!LO:TX:a:t=12.	!	!LO:TX:a:t=12.	!
!	!	!	!	!	!	!	!	!LO:DY:b	!	!	!	!	!	!	!	!	!	!	!	!	!	!	!	!
2G\	.	8D\	8C\	.	8d/	.	8d/ 8dd	p	2r	.	2r	.	2r	.	8D\	.	2r	.	2r	.	2r	.	2r	.
.	.	4D\	4C\	.	4d^>/	.	4d/ 4dd	.	.	.	.	.	.	.	4D\	.	.	.	.	.	.	.	.	.
.	.	8D\	8C\	.	8d/	.	8d/ 8dd	.	.	.	.	.	.	.	8D\	.	.	.	.	.	.	.	.	.
!	!	!	!	!	!LO:LB:g=original	!	!	!	!	!	!	!	!	!	!	!	!	!	!	!	!	!	!	!
=71	=71	=71	=71	=71	=71	=71	=71	=71	=71	=71	=71	=71	=71	=71	=71	=71	=71	=71	=71	=71	=71	=71	=71	=71
2G\	.	8C#X\L	8C#X\L	.	8c#X/L	.	8cc#X\L	.	2r	.	2r	.	2r	.	8C#X\L	.	2r	.	2r	.	2r	.	2r	.
.	.	8D\J	8D\	.	8d/	.	8dd\	.	.	.	.	.	.	.	8D\J	.	.	.	.	.	.	.	.	.
.	.	8E\L	8E\	.	8e/	.	8ee\	.	.	.	.	.	.	.	8E\L	.	.	.	.	.	.	.	.	.
.	.	8D\J	8D\J	.	8d/J	.	8dd\J	.	.	.	.	.	.	.	8D\J	.	.	.	.	.	.	.	.	.
!	!	!LO:LB:g=original	!	!	!	!	!	!	!	!	!	!	!	!	!	!	!	!	!	!	!	!	!	!
=72	=72	=72	=72	=72	=72	=72	=72	=72	=72	=72	=72	=72	=72	=72	=72	=72	=72	=72	=72	=72	=72	=72	=72	=72
!	!	!	!	!	!LO:SIC:s=c#	!	!	!	!	!	!	!	!	!	!	!	!	!	!	!	!	!	!	!
2G\	.	8C#X\L	8C#X\L	.	8c/L	.	8cc#X\L	.	2r	.	2r	.	2r	.	8C#X\L	.	2r	.	2r	.	2r	.	2r	.
.	.	8D\J	8D\J	.	8d/	.	8dd\	.	.	.	.	.	.	.	8D\J	.	.	.	.	.	.	.	.	.
.	.	8AA\L	8AA/L	.	8A/	.	8a\	.	.	.	.	.	.	.	8AA\L	.	.	.	.	.	.	.	.	.
.	.	8D\J	8D/J	.	8d/J	.	8dd\J	.	.	.	.	.	.	.	8D\J	.	.	.	.	.	.	.	.	.
=73	=73	=73	=73	=73	=73	=73	=73	=73	=73	=73	=73	=73	=73	=73	=73	=73	=73	=73	=73	=73	=73	=73	=73	=73
2G\	.	8BB/	8BB/	.	8B/	.	8b/	.	2r	.	2r	.	2r	.	8BB/	.	2r	.	2r	.	2r	.	2r	.
.	.	4GG/	4GG/	.	4G/	.	4gM</	.	.	.	.	.	.	.	4G\	.	.	.	.	.	.	.	.	.
.	.	8GG/	8GG/	.	8G/	.	8g/	.	.	.	.	.	.	.	8G\	.	.	.	.	.	.	.	.	.
!	!	!	!LO:LB:g=original	!	!	!	!	!	!	!	!	!	!	!	!	!	!	!	!	!	!	!	!	!
=74	=74	=74	=74	=74	=74	=74	=74	=74	=74	=74	=74	=74	=74	=74	=74	=74	=74	=74	=74	=74	=74	=74	=74	=74
!	!	!	!	!	!	!	!	!	!	!	!	!	!	!	!LO:TX:t=P:problem=8 z podwójnym podkreśleniem	!	!	!	!	!	!	!	!	!
!	!	!	!	!	!	!	!	!	!	!	!	!	!	!	!LO:TX:a:t=8	!	!	!	!	!	!	!	!	!
!	!LO:DY:b	!	!	!	!	!	!	!	!	!	!	!	!	!	!	!	!	!	!	!	!	!	!	!
8GG/	p	8GG/	8GG/	.	8G/L	.	8B/L	.	8d\	Oy	8dd\	Oj	2r	.	2r	.	2r	.	2r	.	2r	.	2r	.
8r	.	8r	8r	.	8B/	.	8d/	.	4d\	nie-	4dd\	nie-	.	.	.	.	.	.	.	.	.	.	.	.
8G\	.	8GG/	8GG/	.	8G/	.	8B/	.	.	.	.	.	.	.	.	.	.	.	.	.	.	.	.	.
8r	.	8r	8r	.	8B/J	.	8d/J	.	8d\	-bo	8dd\	-bo	.	.	.	.	.	.	.	.	.	.	.	.
=75	=75	=75	=75	=75	=75	=75	=75	=75	=75	=75	=75	=75	=75	=75	=75	=75	=75	=75	=75	=75	=75	=75	=75	=75
*	*	*rep	*rep	*	*rep	*	*rep	*	*	*	*	*	*	*	*	*	*	*	*	*	*	*	*	*
8GG/	.	8GG/	8GG/	.	8G/L	.	8B/L	.	8c#X`\L	O-	8cc#X\	o-	2r	.	2r	.	2r	.	2r	.	2r	.	2r	.
8r	.	8r	8r	.	8B/	.	8d/	.	8d`\J	-two-	8dd\	-two-	.	.	.	.	.	.	.	.	.	.	.	.
8G\	.	8GG/	8GG/	.	8G/	.	8B/	.	8e`\L	-rzo-	8ee\	-rzo-	.	.	.	.	.	.	.	.	.	.	.	.
8r	.	8r	8r	.	8B/J	.	8d/J	.	8d`\J	-ne	8dd\	-ne	.	.	.	.	.	.	.	.	.	.	.	.
!	!	!	!	!	!	!	!	!	!LO:LB:g=original	!	!LO:LB:g=original	!	!	!	!	!	!	!	!	!	!	!	!	!
*	*	*Xrep	*Xrep	*	*Xrep	*	*Xrep	*	*	*	*	*	*	*	*	*	*	*	*	*	*	*	*	*
!	!	!	!	!	!	!	!LO:LB:g=original	!	!	!	!	!	!	!	!	!	!	!	!	!	!	!	!	!
=76	=76	=76	=76	=76	=76	=76	=76	=76	=76	=76	=76	=76	=76	=76	=76	=76	=76	=76	=76	=76	=76	=76	=76	=76
8GG/	.	8GG/	8GG/	.	8G/L	.	8B/L	.	8c#X`\L	woy-	8cc#X\	woj-	2r	.	2r	.	2r	.	2r	.	2r	.	2r	.
8r	.	8r	8r	.	8B/	.	8d/	.	8d`\J	-sko	8dd\	-sko	.	.	.	.	.	.	.	.	.	.	.	.
8G\	.	8D\	8D\	.	8A/	.	8A/	.	8A`\L	nie-	8g/	nie-	.	.	.	.	.	.	.	.	.	.	.	.
8r	.	8r	8r	.	8G/J	.	8d/J	.	8c#`\J	-zli-	8dd\	-zli-	.	.	.	.	.	.	.	.	.	.	.	.
!LO:LB:g=original	!	!	!	!	!	!	!	!	!	!	!	!	!	!	!	!	!	!	!	!	!	!	!	!
=77	=77	=77	=77	=77	=77	=77	=77	=77	=77	=77	=77	=77	=77	=77	=77	=77	=77	=77	=77	=77	=77	=77	=77	=77
8GG/	.	8GG/	8GG/	.	8G/L	.	8B/L	.	8B\	-czo-	8b/	-czo-	2r	.	2r	.	2r	.	2r	.	2r	.	2r	.
8r	.	8r	8r	.	8B/	.	8d/	.	4G\	-ne	4g/	-ne	.	.	.	.	.	.	.	.	.	.	.	.
8G\	.	8GG/	8GG/	.	8G/	.	8B/	.	.	.	.	.	.	.	.	.	.	.	.	.	.	.	.	.
8r	.	8r	8r	.	8B/J	.	8d/J	.	8r	.	8r	.	.	.	.	.	.	.	.	.	.	.	.	.
=78	=78	=78	=78	=78	=78	=78	=78	=78	=78	=78	=78	=78	=78	=78	=78	=78	=78	=78	=78	=78	=78	=78	=78	=78
2D\	.	8D\	8D\	.	8d/L	.	8cc/L	.	8F#\L	A-	8f#/	A-	2r	.	2r	.	2r	.	2r	.	2r	.	2r	.
.	.	8r	8r	.	8f#/	.	8d/	.	8F#\J	-niel-	8f#/	-niel-	.	.	.	.	.	.	.	.	.	.	.	.
.	.	8D\	8D\	.	8d/	.	8cc/	.	8D\	-skie	8d/	-skie	.	.	.	.	.	.	.	.	.	.	.	.
.	.	8r	8r	.	8f#/J	.	8d/J	.	8F#\	wi-	8f#/	wi-	.	.	.	.	.	.	.	.	.	.	.	.
!	!	!LO:LB:g=original	!	!	!	!	!	!	!LO:LB:g=original	!	!	!	!	!	!	!	!	!	!	!	!	!	!	!
=79	=79	=79	=79	=79	=79	=79	=79	=79	=79	=79	=79	=79	=79	=79	=79	=79	=79	=79	=79	=79	=79	=79	=79	=79
2G\	.	8GG/	8GG/	.	8g/L	.	8a/L	.	8G\	-dzie-	(8g/	-dzi-	2r	.	2r	.	2r	.	2r	.	2r	.	2r	.
.	.	8r	8r	.	8B/	.	8d/	.	4B\	.	4b/)	.	.	.	.	.	.	.	.	.	.	.	.	.
.	.	8GG/	8GG/	.	8g/	.	8a/	.	.	.	.	.	.	.	.	.	.	.	.	.	.	.	.	.
.	.	8r	8r	.	8B/J	.	8d/J	.	8G\	-my	8g/	-my	.	.	.	.	.	.	.	.	.	.	.	.
!	!	!	!	!	!LO:LB:g=original	!	!	!	!	!	!LO:LB:g=original	!	!	!	!	!	!	!	!	!	!	!	!	!
=80	=80	=80	=80	=80	=80	=80	=80	=80	=80	=80	=80	=80	=80	=80	=80	=80	=80	=80	=80	=80	=80	=80	=80	=80
2D\	.	8D\	8D\	.	8d/L	.	8a/L	.	8F#\L	A-	8f#/	A-	2r	.	2r	.	2r	.	2r	.	2r	.	2r	.
.	.	8r	8r	.	8f#/	.	8cc/	.	8F#\J	-niel-	8f#/	-niel-	.	.	.	.	.	.	.	.	.	.	.	.
!	!	!	!	!	!	!	!LO:TX:b:i:t=seque	!	!	!	!	!	!	!	!	!	!	!	!	!	!	!	!	!
.	.	8D\	8D\	.	8d/	.	8a/	.	8D\	-skie	8d/	-skie	.	.	.	.	.	.	.	.	.	.	.	.
.	.	8r	8r	.	8f#/J	.	8cc/J	.	8F#\	wi-	8f#/	wi-	.	.	.	.	.	.	.	.	.	.	.	.
!	!	!	!	!	!	!	!LO:LB:g=original	!	!	!	!	!	!	!	!	!	!	!	!	!	!	!	!	!
=81	=81	=81	=81	=81	=81	=81	=81	=81	=81	=81	=81	=81	=81	=81	=81	=81	=81	=81	=81	=81	=81	=81	=81	=81
2G\	.	8GG/	8GG/	.	8g/L	.	8b\L	.	8G\	-dzie-	8g/	-dzi-	2r	.	2r	.	2r	.	2r	.	2r	.	2r	.
.	.	8r	8r	.	8b/	.	8dd\	.	4G\	-my	4g/	-my.	.	.	.	.	.	.	.	.	.	.	.	.
.	.	8GG/	8GG/	.	8g/	.	8b\	.	.	.	.	.	.	.	.	.	.	.	.	.	.	.	.	.
.	.	8r	8r	.	8b/J	.	8gg\J	.	8r	.	8r	.	.	.	.	.	.	.	.	.	.	.	.	.
!	!	!	!	!	!	!	!	!	!	!	!	!	!	!	!	!	!	!	!LO:LB:g=original	!	!	!	!	!
!	!	!	!	!	!	!	!	!	!	!	!	!	!	!	!LO:LB:g=original	!	!	!	!	!	!	!	!	!
=82	=82	=82	=82	=82	=82	=82	=82	=82	=82	=82	=82	=82	=82	=82	=82	=82	=82	=82	=82	=82	=82	=82	=82	=82
*	*	*tremolo	*	*	*	*	*	*	*	*	*	*	*	*	*	*	*	*	*	*	*	*	*	*
!	!	!	!	!	!	!	!	!	!LO:TX:a:t=4.	!	!LO:TX:a:t=4.	!	!	!	!	!	!	!	!	!	!	!	!	!
.	.	.	.	.	.	.	8qqgg/	.	.	.	.	.	.	.	.	.	.	.	.	.	.	.	8qgg/	.
*	*	*	*	*	*	*	*	*	*	*	*	*	*	*	*	*	*	*	*^	*	*	*	*	*
!	!	!	!	!	!	!	!	!	!	!	!	!	!	!	!	!	!	!LO:DY:t=f&colon;	!	!	!	!	!	!	!
!	!LO:DY:b:t=for	!	!	!	!	!	!	!	!	!	!	!	!	!	!	!	!	!	!	!	!	!	!	!	!
8d\L	f	8D\L	8D\	.	16A/LL	.	8ff#\L	.	2r	.	2r	.	8D\L	.	4F#\	.	8d/L	f	8a/L	8d\L	.	8a\L	.	8ff#X\L	.
.	.	.	.	.	16d/	.	.	.	.	.	.	.	.	.	.	.	.	.	.	.	.	.	.	.	.
8D\	.	8D\	8r	.	16c/	.	16ff#\L	.	.	.	.	.	16D\L	.	.	.	16d/L	.	8a/	8d\	.	8cc\	.	16ff#\L	.
.	.	.	.	.	16d/JJ	.	16ee\JJ	.	.	.	.	.	16D\JJ	.	.	.	16d/JJ	.	.	.	.	.	.	16ee\JJ	.
*	*	*	*	*	*	*	*	*	*	*	*	*	*	*	*	*	*	*	*v	*v	*	*	*	*	*
*	*	*	*	*	*rep	*	*	*	*	*	*	*	*	*	*	*	*	*	*	*	*	*	*	*
*	*	*	*	*	*	*	*	*	*	*	*	*	*	*	*	*	*	*	*^	*	*	*	*	*
8F#\	.	8D\	8D\	.	16A/LL	.	16dd\LL	.	.	.	.	.	8D\L	.	8D\L	.	8d/L	.	8a/	8d\	.	8a\	.	16dd\LL	.
.	.	.	.	.	16d/	.	16ee\	.	.	.	.	.	.	.	.	.	.	.	.	.	.	.	.	16ee\	.
8D\J	.	8D\J	8r	.	16c/	.	16ff#\	.	.	.	.	.	8D\J	.	8F#\J	.	8d/J	.	8a/J	8d\J	.	8cc\J	.	16ff#\	.
.	.	.	.	.	16d/JJ	.	16ee\JJ	.	.	.	.	.	.	.	.	.	.	.	.	.	.	.	.	16dd\JJ	.
*	*	*	*	*	*Xrep	*	*	*	*	*	*	*	*	*	*	*	*	*	*	*tremolo	*	*	*	*	*
!	!	!	!LO:LB:g=original	!	!	!	!	!	!	!	!	!	!	!	!	!	!	!	!	!	!	!	!	!	!
=83	=83	=83	=83	=83	=83	=83	=83	=83	=83	=83	=83	=83	=83	=83	=83	=83	=83	=83	=83	=83	=83	=83	=83	=83	=83
8GG/L	.	8GG/L	8GG/	.	16G/LL	.	8gg\L	.	2r	.	2r	.	8GG/L	.	8G\	.	8g/L	.	8g/L	8B\L	.	8b\L	.	8gg\L	.
.	.	.	.	.	16d/	.	.	.	.	.	.	.	.	.	.	.	.	.	.	.	.	.	.	.	.
.	.	.	.	.	.	.	8qqaa/	.	.	.	.	.	.	.	.	.	.	.	.	.	.	.	.	8qaa/	.
8G\	.	8GG/	8r	.	16B/	.	16gg\L	.	.	.	.	.	16GG/L	.	4B\	.	8g/	.	8g/	8B\	.	8dd\	.	16gg\L	.
.	.	.	.	.	16d/JJ	.	16ff#\JJ	.	.	.	.	.	16GG/JJ	.	.	.	.	.	.	.	.	.	.	16ff#\JJ	.
*	*	*	*	*	*rep	*	*	*	*	*	*	*	*	*	*	*	*	*	*	*	*	*	*	*	*
!	!	!	!	!	!	!	!	!	!	!	!	!	!	!	!	!	!	!	!	!	!	!	!	!LO:LB:g=original	!
8B\	.	8GG/	8GG/	.	16G/LL	.	16gg\LL	.	.	.	.	.	8GG/L	.	.	.	8b/	.	8g/	8B\	.	8b\	.	16gg\LL	.
.	.	.	.	.	16d/	.	16aa\	.	.	.	.	.	.	.	.	.	.	.	.	.	.	.	.	16aa\	.
8G\J	.	8GG/J	8r	.	16B/	.	16bb\	.	.	.	.	.	8GG/J	.	8G\	.	8g/J	.	8g/J	8B\J	.	8dd\J	.	16bb\	.
.	.	.	.	.	16d/JJ	.	16gg\JJ	.	.	.	.	.	.	.	.	.	.	.	.	.	.	.	.	16gg\JJ	.
*	*	*	*	*	*Xrep	*	*	*	*	*	*	*	*	*	*	*	*	*	*	*	*	*	*	*	*
!	!	!	!	!	!	!	!	!	!	!	!	!	!LO:LB:g=original	!	!	!	!	!	!	!	!	!	!	!	!
=84	=84	=84	=84	=84	=84	=84	=84	=84	=84	=84	=84	=84	=84	=84	=84	=84	=84	=84	=84	=84	=84	=84	=84	=84	=84
!	!	!	!	!	!	!	!	!	!	!	!	!	!	!	!	!	!	!	!	!	!	!	!	!	!
8d\L	.	8D\L	8D\	.	16A/LL	.	8ff#\L	.	2r	.	2r	.	8D\L	.	8F#\L	.	8d/L	.	8a/L	8d\L	.	8a\L	.	8ff#\L	.
.	.	.	.	.	16d/	.	.	.	.	.	.	.	.	.	.	.	.	.	.	.	.	.	.	.	.
.	.	.	.	.	.	.	8qqgg/	.	.	.	.	.	.	.	.	.	.	.	.	.	.	.	.	8qgg/	.
8D\	.	8D\	8r	.	16c/	.	16ff#\L	.	.	.	.	.	16D\L	.	8F#\J	.	16d/L	.	8a/	8d\	.	8cc\	.	16ff#\L	.
.	.	.	.	.	16d/JJ	.	16ee\JJ	.	.	.	.	.	16D\JJ	.	.	.	16d/JJ	.	.	.	.	.	.	16ee\JJ	.
*	*	*	*	*	*rep	*	*	*	*	*	*	*	*	*	*	*	*	*	*	*	*	*	*	*	*
8F#\	.	8D\	8D\	.	16A/LL	.	16dd\LL	.	.	.	.	.	8D\L	.	8D\L	.	8d/L	.	8a/	8d\	.	8a\	.	16dd\LL	.
.	.	.	.	.	16d/	.	16ee\	.	.	.	.	.	.	.	.	.	.	.	.	.	.	.	.	16ee\	.
8D\J	.	8D\J	8r	.	16c/	.	16ff#\	.	.	.	.	.	8D\J	.	8F#\J	.	8d/J	.	8a/J	8d\J	.	8cc\J	.	16ff#\	.
.	.	.	.	.	16d/JJ	.	16dd\JJ	.	.	.	.	.	.	.	.	.	.	.	.	.	.	.	.	16dd\JJ	.
*	*	*	*	*	*Xrep	*	*	*	*	*	*	*	*	*	*	*	*	*	*	*	*	*	*	*	*
=85	=85	=85	=85	=85	=85	=85	=85	=85	=85	=85	=85	=85	=85	=85	=85	=85	=85	=85	=85	=85	=85	=85	=85	=85	=85
2G\	.	8GG/L	8GG/	.	16G/LL	.	8gg\	.	2r	.	2r	.	8GG/	.	8G\	.	8g/	.	8g/	8B\	.	8b\	.	8gg\	.
.	.	.	.	.	16d/	.	.	.	.	.	.	.	.	.	.	.	.	.	.	.	.	.	.	.	.
.	.	8GG/	8r	.	16B/	.	4gg\	.	.	.	.	.	4GGT/	.	4G\	.	4g/	.	4g/	4B\	.	4b\	.	4gg\	.
.	.	.	.	.	16d/JJ	.	.	.	.	.	.	.	.	.	.	.	.	.	.	.	.	.	.	.	.
*	*	*	*	*	*rep	*	*	*	*	*	*	*	*	*	*	*	*	*	*	*	*	*	*	*	*
.	.	8GG/	8GG/	.	16G/LL	.	.	.	.	.	.	.	.	.	.	.	.	.	.	.	.	.	.	.	.
.	.	.	.	.	16d/	.	.	.	.	.	.	.	.	.	.	.	.	.	.	.	.	.	.	.	.
.	.	8GG/J	8r	.	16B/	.	8g/	.	.	.	.	.	8GG/	.	8G\	.	8g/	.	8g/	8G\	.	8b\	.	8g/	.
.	.	.	.	.	16d/JJ	.	.	.	.	.	.	.	.	.	.	.	.	.	.	.	.	.	.	.	.
*	*	*	*	*	*Xrep	*	*	*	*	*	*	*	*	*	*	*	*	*	*	*	*	*	*	*	*
*	*	*	*	*	*	*	*	*	*	*	*	*	*	*	*	*	*	*	*v	*v	*	*	*	*	*
!	!	!	!	!	!LO:LB:g=original	!	!	!	!	!	!	!	!	!	!	!	!	!	!	!	!	!	!	!
!	!	!	!	!	!	!	!	!	!	!	!	!	!	!	!	!	!LO:LB:g=original	!	!	!	!	!	!	!
=86	=86	=86	=86	=86	=86	=86	=86	=86	=86	=86	=86	=86	=86	=86	=86	=86	=86	=86	=86	=86	=86	=86	=86	=86
!	!	!	!	!	!	!	!	!	!	!	!	!	!LO:TX:a:t=8.	!	!	!	!LO:TX:a:t=8.	!	!LO:TX:a:t=8.	!	!LO:TX:a:t=8.	!	!LO:TX:a:t=8.	!
8G\	.	8GG/	8GG/	.	8g/L	.	8b\L	.	8d\	Ey	8dd\	Oj	2r	.	8D\	.	2r	.	2r	.	2r	.	2r	.
8r	.	8r	8r	.	8b/	.	8dd\	.	4d\	trwo-	4dd\	trwo-	.	.	8r	.	.	.	.	.	.	.	.	.
8GG/	.	8GG/	8GG/	.	8g/	.	8b\	.	.	.	.	.	.	.	8D\	.	.	.	.	.	.	.	.	.
8r	.	8r	8r	.	8b/J	.	8dd\J	.	8d\	-ga	8dd\	-ga	.	.	8r	.	.	.	.	.	.	.	.	.
!LO:LB:g=original	!	!LO:LB:g=original	!	!	!	!	!LO:LB:g=original	!	!	!	!	!	!	!	!	!	!	!	!	!	!	!	!	!
=87	=87	=87	=87	=87	=87	=87	=87	=87	=87	=87	=87	=87	=87	=87	=87	=87	=87	=87	=87	=87	=87	=87	=87	=87
*	*	*rep	*rep	*	*rep	*	*	*	*	*	*	*	*	*	*	*	*	*	*	*	*	*	*	*
8G\	.	8GG/	8GG/	.	8g/L	.	8b\L	.	(8c#X\L	dla	(8cc#X\L	dla	2r	.	8G\	.	2r	.	2r	.	2r	.	2r	.
8r	.	8r	8r	.	8b/	.	8dd\	.	8d\J)	.	8dd\J)	.	.	.	8r	.	.	.	.	.	.	.	.	.
8GG/	.	8GG/	8GG/	.	8g/	.	8b\	.	8e'\L	Bo-	8ee\	Bo-	.	.	8G\	.	.	.	.	.	.	.	.	.
8r	.	8r	8r	.	8b/J	.	8dd\J	.	8d'\J	-ga	8dd\	-ga	.	.	8r	.	.	.	.	.	.	.	.	.
*	*	*Xrep	*Xrep	*	*Xrep	*	*	*	*	*	*	*	*	*	*	*	*	*	*	*	*	*	*	*
!	!	!	!	!	!	!	!	!	!	!	!	!	!	!	!LO:LB:g=original	!	!	!	!	!	!	!	!	!
=88	=88	=88	=88	=88	=88	=88	=88	=88	=88	=88	=88	=88	=88	=88	=88	=88	=88	=88	=88	=88	=88	=88	=88	=88
8G\	.	8GG/	8GG/	.	8g/L	.	8b\L	.	(8c#X\L	co	8cc#X\	co	2r	.	8G\L	.	2r	.	2r	.	2r	.	2r	.
8r	.	8r	8r	.	8b/	.	8dd\	.	8d\J)	się	8dd\	się	.	.	8B\J	.	.	.	.	.	.	.	.	.
8GG/	.	8D\	8D\	.	8f#/	.	8a\	.	8A'\L	to	(8a\L	to-	.	.	8d\L	.	.	.	.	.	.	.	.	.
8r	.	8r	8r	.	8d/J	.	8dd\J	.	8d'\J	.	8dd\J)	.	.	.	8B\J	.	.	.	.	.	.	.	.	.
!	!	!	!	!	!	!	!	!	!	!	!LO:LB:g=original	!	!	!	!	!	!	!	!	!	!	!	!	!
=89	=89	=89	=89	=89	=89	=89	=89	=89	=89	=89	=89	=89	=89	=89	=89	=89	=89	=89	=89	=89	=89	=89	=89	=89
8G\	.	8GG/	8GG/	.	8g/L	.	8b\L	.	8B\	dzie-	8b/	-dzie-	2r	.	8G\	.	2r	.	2r	.	2r	.	2r	.
8r	.	8r	8r	.	8B/	.	8g\	.	4G\	-ie	4g/	-je	.	.	8r	.	.	.	.	.	.	.	.	.
8GG/	.	8GG/	8GG/	.	8g/	.	8b\	.	.	.	.	.	.	.	8D\	.	.	.	.	.	.	.	.	.
8r	.	8r	8r	.	8B/J	.	8g\J	.	8r	.	8r	.	.	.	8r	.	.	.	.	.	.	.	.	.
!	!	!	!	!	!	!	!	!	!LO:LB:g=original	!	!	!	!	!	!	!	!	!	!	!	!	!	!	!
=90	=90	=90	=90	=90	=90	=90	=90	=90	=90	=90	=90	=90	=90	=90	=90	=90	=90	=90	=90	=90	=90	=90	=90	=90
*tremolo	*	*	*	*	*	*	*	*	*	*	*	*	*	*	*	*	*	*	*	*	*	*	*	*
!	!	!	!	!	!	!	!	!	!	!	!	!	!	!	!LO:TX:t=P:problem=16 z podwójnym podkreśleniem	!	!	!	!	!	!	!	!	!
!	!	!	!	!	!	!	!	!	!	!	!	!	!	!	!LO:TX:a:t=16	!	!	!	!	!	!	!	!	!
8D\L	.	8D\	8D\	.	2c/ 2d	.	8f#/L	.	8F#\	do	8f#/	od	2r	.	2r	.	2r	.	2r	.	2r	.	2r	.
.	.	.	.	.	.	.	8qqg\	.	.	.	.	.	.	.	.	.	.	.	.	.	.	.	.	.
8D\	.	8r	8r	.	.	.	16f#/L	.	4A\	stra-	4a/	stra-	.	.	.	.	.	.	.	.	.	.	.	.
.	.	.	.	.	.	.	16e/JJ	.	.	.	.	.	.	.	.	.	.	.	.	.	.	.	.	.
8D\	.	8D\	8D\	.	.	.	16d/LL	.	.	.	.	.	.	.	.	.	.	.	.	.	.	.	.	.
.	.	.	.	.	.	.	16e/	.	.	.	.	.	.	.	.	.	.	.	.	.	.	.	.	.
8D\J	.	8r	8r	.	.	.	16f#/	.	8D\	-chu	8d/	-chu	.	.	.	.	.	.	.	.	.	.	.	.
.	.	.	.	.	.	.	16d/JJ	.	.	.	.	.	.	.	.	.	.	.	.	.	.	.	.	.
!	!	!	!LO:LB:g=original	!	!	!	!	!	!	!	!	!	!	!	!	!	!	!	!	!	!	!	!	!
=91	=91	=91	=91	=91	=91	=91	=91	=91	=91	=91	=91	=91	=91	=91	=91	=91	=91	=91	=91	=91	=91	=91	=91	=91
8G\L	.	8GG/	8GG/	.	2B/ 2d	.	8g/L	.	(8G\L	ser-	8g/L	ser-	2r	.	2r	.	2r	.	2r	.	2r	.	2r	.
.	.	.	.	.	.	.	8qqa\	.	.	.	.	.	.	.	.	.	.	.	.	.	.	.	.	.
8B\	.	8r	8r	.	.	.	16g/L	.	8A\J)	.	8a/J	.	.	.	.	.	.	.	.	.	.	.	.	.
.	.	.	.	.	.	.	16f#/JJ	.	.	.	.	.	.	.	.	.	.	.	.	.	.	.	.	.
8G\	.	8GG/	8GG/	.	.	.	16g/LL	.	(8B\L	-ce	8b\L	-ce	.	.	.	.	.	.	.	.	.	.	.	.
.	.	.	.	.	.	.	16a/	.	.	.	.	.	.	.	.	.	.	.	.	.	.	.	.	.
8B\J	.	8r	8r	.	.	.	16b/	.	8d\J)	.	8dd\J	.	.	.	.	.	.	.	.	.	.	.	.	.
.	.	.	.	.	.	.	16g/JJ	.	.	.	.	.	.	.	.	.	.	.	.	.	.	.	.	.
=92	=92	=92	=92	=92	=92	=92	=92	=92	=92	=92	=92	=92	=92	=92	=92	=92	=92	=92	=92	=92	=92	=92	=92	=92
!	!	!	!	!	!	!	!LO:TX:t=P:problem=mixed beam	!	!	!	!	!	!	!	!	!	!	!	!	!	!	!	!	!
8F#\L	.	8D\	8D\	.	2A/ 2d	.	8f#/L	.	8F#\	ser-	8f#/	ser-	2r	.	2r	.	2r	.	2r	.	2r	.	2r	.
.	.	.	.	.	.	.	.	.	.	.	.	.	.	.	.	.	.	.	.	.	.	.	.	.
8D\	.	8r	8r	.	.	.	16ff#\L	.	4A\	-ce	4a/	-ce	.	.	.	.	.	.	.	.	.	.	.	.
.	.	.	.	.	.	.	16ee\JJ	.	.	.	.	.	.	.	.	.	.	.	.	.	.	.	.	.
8F#\	.	8D\	8D\	.	.	.	16dd\LL	.	.	.	.	.	.	.	.	.	.	.	.	.	.	.	.	.
.	.	.	.	.	.	.	16ee\	.	.	.	.	.	.	.	.	.	.	.	.	.	.	.	.	.
8D\J	.	8r	8r	.	.	.	16ff#\	.	8D\	tru-	8f#/	truch-	.	.	.	.	.	.	.	.	.	.	.	.
.	.	.	.	.	.	.	16dd\JJ	.	.	.	.	.	.	.	.	.	.	.	.	.	.	.	.	.
!	!	!LO:LB:g=original	!	!	!	!	!LO:LB:g=original	!	!	!	!	!	!	!	!	!	!	!	!	!	!	!	!	!
=93	=93	=93	=93	=93	=93	=93	=93	=93	=93	=93	=93	=93	=93	=93	=93	=93	=93	=93	=93	=93	=93	=93	=93	=93
8G\L	.	8GG/	8GG/	.	2B/ 2d	.	8gg\	.	(8A\L	-chle-	8a/L	-le-	2r	.	2r	.	2r	.	2r	.	2r	.	2r	.
.	.	.	.	.	.	.	.	.	.	.	.	.	.	.	.	.	.	.	.	.	.	.	.	.
8D\	.	8r	8r	.	.	.	4b\	.	8G\J)	.	8g/J	.	.	.	.	.	.	.	.	.	.	.	.	.
.	.	.	.	.	.	.	.	.	.	.	.	.	.	.	.	.	.	.	.	.	.	.	.	.
8G\	.	8GG/	8GG/	.	.	.	.	.	8G\	-ie	8g'/	-je	.	.	.	.	.	.	.	.	.	.	.	.
.	.	.	.	.	.	.	.	.	.	.	.	.	.	.	.	.	.	.	.	.	.	.	.	.
8D\J	.	8r	8r	.	.	.	8gg\	.	8r	.	8r	.	.	.	.	.	.	.	.	.	.	.	.	.
.	.	.	.	.	.	.	.	.	.	.	.	.	.	.	.	.	.	.	.	.	.	.	.	.
=94	=94	=94	=94	=94	=94	=94	=94	=94	=94	=94	=94	=94	=94	=94	=94	=94	=94	=94	=94	=94	=94	=94	=94	=94
*	*	*	*	*	*	*	*	*	*	*	*	*	*	*	*	*	*	*	*^	*	*	*	*	*
!	!	!	!	!	!	!	!	!	!LO:TX:a:t=8	!	!LO:TX:a:t=8.	!	!	!	!	!	!	!	!LO:TX:t=P:problem=4x staccato	!	!	!	!	!	!
!	!	!	!	!	!	!	!	!	!	!	!	!	!	!	!	!	!	!LO:DY:t=f..	!	!	!	!	!	!	!
8F#\L	.	8D\L	8D\	.	16d/ 16ccLL	.	8ff#\L	.	2r	.	2r	.	8D\L	.	2r	.	8d/L	f	8a'/L	8d'\L	.	8cc\L	.	8ff#\L	.
.	.	.	.	.	16d/ 16cc	.	.	.	.	.	.	.	.	.	.	.	.	.	.	.	.	.	.	.	.
.	.	.	.	.	.	.	8qqgg/	.	.	.	.	.	.	.	.	.	.	.	.	.	.	.	.	8qgg/	.
8D\	.	8D\	8r	.	16d/ 16cc	.	16ff#\L	.	.	.	.	.	16D\L	.	.	.	16d/L	.	8a'/	8d'\	.	8dd\	.	16ff#\L	.
.	.	.	.	.	16d/ 16cc	.	16ee\JJ	.	.	.	.	.	16D\JJ	.	.	.	16d/JJ	.	.	.	.	.	.	16ee\JJ	.
8F#\	.	8D\	8D\	.	16d/ 16cc	.	16dd\LL	.	.	.	.	.	8D\L	.	.	.	8d/L	.	8a'/	8d'\	.	8cc\	.	16dd\LL	.
.	.	.	.	.	16d/ 16cc	.	16ee\	.	.	.	.	.	.	.	.	.	.	.	.	.	.	.	.	16ee\	.
8D\J	.	8D\J	8r	.	16d/ 16cc	.	16ff#\	.	.	.	.	.	8D\J	.	.	.	8d/J	.	8a'/J	8d'\J	.	8dd\J	.	16ff#\	.
.	.	.	.	.	16d/ 16ccJJ	.	16dd\JJ	.	.	.	.	.	.	.	.	.	.	.	.	.	.	.	.	16dd\JJ	.
!LO:LB:g=original	!	!	!	!	!	!	!	!	!	!	!	!	!	!	!	!	!	!	!	!	!	!	!	!	!
=95	=95	=95	=95	=95	=95	=95	=95	=95	=95	=95	=95	=95	=95	=95	=95	=95	=95	=95	=95	=95	=95	=95	=95	=95	=95
8G\L	.	8GG/L	8GG/	.	16d/ 16bLL	.	8gg\L	.	2r	.	2r	.	8GG/L	.	2r	.	8g/L	.	8b/L	8g\L	.	8b\L	.	8gg\L	.
.	.	.	.	.	16d/ 16b	.	.	.	.	.	.	.	.	.	.	.	.	.	.	.	.	.	.	.	.
.	.	.	.	.	.	.	8qqaa/	.	.	.	.	.	.	.	.	.	.	.	.	.	.	.	.	8qaa/	.
8D\	.	8GG/	8r	.	16d/ 16b	.	16gg\L	.	.	.	.	.	16GG/L	.	.	.	8g/J	.	8b/	8g\	.	8dd\	.	16gg\L	.
.	.	.	.	.	16d/ 16b	.	16ff#\JJ	.	.	.	.	.	16GG/JJ	.	.	.	.	.	.	.	.	.	.	16ff#\JJ	.
8G\	.	8GG/	8GG/	.	16d/ 16b	.	16gg\LL	.	.	.	.	.	8GG/L	.	.	.	8b/L	.	8b/	8g\	.	8b\	.	16gg\LL	.
.	.	.	.	.	16d/ 16b	.	16aa\	.	.	.	.	.	.	.	.	.	.	.	.	.	.	.	.	16aa\	.
8D\J	.	8GG/J	8r	.	16d/ 16b	.	16bb\	.	.	.	.	.	8GG/J	.	.	.	8g/J	.	8b/J	8g\J	.	8dd\J	.	16bb\	.
.	.	.	.	.	16d/ 16bJJ	.	16gg\JJ	.	.	.	.	.	.	.	.	.	.	.	.	.	.	.	.	16gg\JJ	.
!	!	!	!	!	!LO:LB:g=original	!	!	!	!	!	!	!	!	!	!	!	!	!	!	!	!	!	!	!	!
=96	=96	=96	=96	=96	=96	=96	=96	=96	=96	=96	=96	=96	=96	=96	=96	=96	=96	=96	=96	=96	=96	=96	=96	=96	=96
*	*	*	*	*	*	*	*	*	*	*	*	*	*	*	*	*	*	*	*	*tremolo	*	*	*	*	*
8F#\L	.	8D\L	8D\	.	16d/ 16ccLL	.	8ff#\L	.	2r	.	2r	.	8D\L	.	2r	.	8d/L	.	8a/L	8d\L	.	8a\L	.	8ff#\L	.
.	.	.	.	.	16d/ 16cc	.	.	.	.	.	.	.	.	.	.	.	.	.	.	.	.	.	.	.	.
.	.	.	.	.	.	.	8qqgg/	.	.	.	.	.	.	.	.	.	.	.	.	.	.	.	.	8qgg/	.
8D\	.	8D\	8r	.	16d/ 16cc	.	16ff#\L	.	.	.	.	.	16D\L	.	.	.	16d/L	.	8a/	8d\	.	8cc\	.	16ff#\L	.
.	.	.	.	.	16d/ 16cc	.	16ee\JJ	.	.	.	.	.	16D\JJ	.	.	.	16d/JJ	.	.	.	.	.	.	16ee\JJ	.
8F#\	.	8D\	8D\	.	16d/ 16cc	.	16dd\LL	.	.	.	.	.	8D\L	.	.	.	8d/L	.	8a/	8d\	.	8a\	.	16dd\LL	.
.	.	.	.	.	16d/ 16cc	.	16ee\	.	.	.	.	.	.	.	.	.	.	.	.	.	.	.	.	16ee\	.
8D\J	.	8D\J	8r	.	16d/ 16cc	.	16ff#\	.	.	.	.	.	8D\J	.	.	.	8d/J	.	8a/J	8d\J	.	8cc\J	.	16ff#\	.
.	.	.	.	.	16d/ 16ccJJ	.	16dd\JJ	.	.	.	.	.	.	.	.	.	.	.	.	.	.	.	.	16dd\JJ	.
*	*	*	*	*	*	*	*	*	*	*	*	*	*	*	*	*	*	*	*Xtremolo	*	*	*	*	*	*
=97	=97	=97	=97	=97	=97	=97	=97	=97	=97	=97	=97	=97	=97	=97	=97	=97	=97	=97	=97	=97	=97	=97	=97	=97	=97
2G\	.	8GG/L	8GG/	.	16d/ 16bLL	.	8gg\	.	2r	.	2r	.	8GG/	.	2r	.	8g/	.	8g/	8B\	.	8b\	.	8gg\	.
.	.	.	.	.	16d/ 16b	.	.	.	.	.	.	.	.	.	.	.	.	.	.	.	.	.	.	.	.
.	.	8GG/	8r	.	16d/ 16b	.	4gg\	.	.	.	.	.	4GGT/	.	.	.	4g/	.	4g/	4B\	.	4b\	.	4gg\	.
.	.	.	.	.	16d/ 16b	.	.	.	.	.	.	.	.	.	.	.	.	.	.	.	.	.	.	.	.
.	.	8GG/	8GG/	.	16d/ 16b	.	.	.	.	.	.	.	.	.	.	.	.	.	.	.	.	.	.	.	.
.	.	.	.	.	16d/ 16b	.	.	.	.	.	.	.	.	.	.	.	.	.	.	.	.	.	.	.	.
.	.	8GG/J	8r	.	16d/ 16b	.	16aa\LL	.	.	.	.	.	8GG/	.	.	.	8g/	.	8g/	8B\	.	8b\	.	16aa\LL	.
.	.	.	.	.	16d/ 16bJJ	.	16bb\JJ	.	.	.	.	.	.	.	.	.	.	.	.	.	.	.	.	16bb\JJ	.
!	!	!	!LO:LB:g=original	!	!	!	!	!	!	!	!	!	!	!	!	!	!	!	!	!	!	!	!	!	!
=98	=98	=98	=98	=98	=98	=98	=98	=98	=98	=98	=98	=98	=98	=98	=98	=98	=98	=98	=98	=98	=98	=98	=98	=98	=98
2D\	.	4D\	8D\	.	2A/ 2d	.	8dd\L	.	2r	.	2r	.	8D\	.	2r	.	8d/	.	8a/	8d\	.	8a\L	.	8dd'\L	.
.	.	.	8r	.	.	.	(16ee\L	.	.	.	.	.	8r	.	.	.	8r	.	8r	8ryy	.	8cc\	.	(16ee\L	.
.	.	.	.	.	.	.	16ff#\JJ)	.	.	.	.	.	.	.	.	.	.	.	.	.	.	.	.	16ff#\JJ)	.
.	.	4D\	8D\	.	.	.	8dd'\L	.	.	.	.	.	8D\	.	.	.	8d/	.	8a/	8d\	.	8a\	.	8dd'\L	.
.	.	.	8r	.	.	.	(16ee\L	.	.	.	.	.	8r	.	.	.	8r	.	8r	8ryy	.	8cc\J	.	(16ee\L	.
.	.	.	.	.	.	.	16ff#\JJ)	.	.	.	.	.	.	.	.	.	.	.	.	.	.	.	.	16ff#\JJ)	.
!	!	!	!	!	!	!	!LO:LB:g=original	!	!	!	!	!	!	!	!	!	!	!	!	!	!	!	!	!	!
=99	=99	=99	=99	=99	=99	=99	=99	=99	=99	=99	=99	=99	=99	=99	=99	=99	=99	=99	=99	=99	=99	=99	=99	=99	=99
2GG/	.	4GG/	8GG/	.	2B/ 2d	.	8gg\L	.	2r	.	2r	.	8GG/	.	2r	.	8g/	.	8g/	8B\	.	8b\L	.	8gg\L	.
.	.	.	8r	.	.	.	16aa\L	.	.	.	.	.	8r	.	.	.	8r	.	8r	8ryy	.	16cc\L	.	16aa\L	.
.	.	.	.	.	.	.	16bb\JJ	.	.	.	.	.	.	.	.	.	.	.	.	.	.	16dd\JJ	.	16bb\JJ	.
.	.	4GG/	8GG/	.	.	.	8gg\L	.	.	.	.	.	8GG/	.	.	.	8g/	.	8g/	8B\	.	8b\L	.	8gg\L	.
.	.	.	8r	.	.	.	16aa\L	.	.	.	.	.	8r	.	.	.	8r	.	8r	8ryy	.	16cc\L	.	16aa\L	.
.	.	.	.	.	.	.	16bb\JJ	.	.	.	.	.	.	.	.	.	.	.	.	.	.	16dd\JJ	.	16bb\JJ	.
!	!	!	!	!	!	!	!	!	!	!	!	!	!	!	!	!	!	!	!	!	!	!	!	!LO:LB:g=original	!
=100	=100	=100	=100	=100	=100	=100	=100	=100	=100	=100	=100	=100	=100	=100	=100	=100	=100	=100	=100	=100	=100	=100	=100	=100	=100
2GG/	.	8GG/L	8GG\L	.	2B/ 2d	.	8gg\L	.	2r	.	2r	.	8GG/L	.	2r	.	8g/L	.	8g/L	8G\L	.	8g\L	.	8gg\L	.
.	.	8BB/J	8BB\J	.	.	.	8bb\	.	.	.	.	.	8GG/	.	.	.	8b/	.	8b/	8B\	.	8b\	.	8bb\	.
.	.	8D/L	8D\L	.	.	.	8ddd\	.	.	.	.	.	8D/	.	.	.	8dd/	.	8dd/	8d\	.	8dd\	.	8ddd\	.
.	.	8BB/J	8BB\J	.	.	.	8bb\J	.	.	.	.	.	8GG/J	.	.	.	8b/J	.	8b/J	8B\J	.	8b\J	.	8bb\J	.
!	!	!LO:LB:g=original	!	!	!	!	!	!	!	!	!	!	!	!	!	!	!	!	!	!LO:LB:g=original	!	!LO:LB:g=original	!	!	!
=101	=101	=101	=101	=101	=101	=101	=101	=101	=101	=101	=101	=101	=101	=101	=101	=101	=101	=101	=101	=101	=101	=101	=101	=101	=101
*	*	*	*	*	*	*	*	*	*	*	*	*	*	*	*	*	*	*	*Xtremolo	*	*	*	*	*	*
!	!	!	!	!	!	!	!	!	!LO:TX:b:i:t=seque	!	!	!	!	!	!	!	!	!	!	!	!	!	!	!	!
4GG/	.	4GG/	8GG/	.	4B/ 4d	.	8gg\L	.	2r	.	2r	.	8D\L	.	2r	.	8g/L	.	8g/L	8B\L	.	8b\L	.	8gg\L	.
.	.	.	8r	.	.	.	16aa\L	.	.	.	.	.	8GG/J	.	.	.	8g/J	.	8g/J	8B\J	.	8dd\	.	16aa\L	.
.	.	.	.	.	.	.	16bb\JJ	.	.	.	.	.	.	.	.	.	.	.	.	.	.	.	.	16bb\JJ	.
4D/	.	4D\	8D\	.	4c/ 4d	.	8dd\L	.	.	.	.	.	8D\L	.	.	.	8d/L	.	8a/L	8d\L	.	8a\	.	8dd\L	.
.	.	.	8r	.	.	.	16ee\L	.	.	.	.	.	8D\J	.	.	.	8d/J	.	8a/J	8d\J	.	8cc\J	.	16ee\L	.
.	.	.	.	.	.	.	16ff#\JJ	.	.	.	.	.	.	.	.	.	.	.	.	.	.	.	.	16ff#\JJ	.
!	!	!	!	!	!	!	!	!	!LO:LB:g=original	!	!LO:LB:g=original	!	!	!	!	!	!	!	!	!	!	!	!	!	!
!	!	!	!	!	!	!	!	!	!	!	!	!	!LO:LB:g=original	!	!	!	!	!	!	!	!	!	!	!	!
=102	=102	=102	=102	=102	=102	=102	=102	=102	=102	=102	=102	=102	=102	=102	=102	=102	=102	=102	=102	=102	=102	=102	=102	=102	=102
!	!	!	!	!	!	!LO:DY:b	!	!	!	!	!	!	!	!	!	!	!	!	!	!	!	!	!	!	!
4G\	.	8GG/	8GG/	.	8G/ 8dL	p	8gg\L	.	8r	.	8r	.	8GG/	.	2r	.	8g/	.	8g/	8B\	.	8b\	.	8gg\	.
.	.	8r	8r	.	8G/ 8d	.	8d/ 8b	.	8d\	Hey	8dd\	Hej	8r	.	.	.	8r	.	8r	8ryy	.	8r	.	8r	.
4GG\ 4D	.	8GG/	8GG/	.	8G/ 8d	.	8d/ 8b	.	4d\	pas-	4dd\	pa-	4r	.	.	.	4r	.	4r	4ryy	.	4r	.	4r	.
.	.	8r	8r	.	8G/ 8dJ	.	8d/J 8b	.	.	.	.	.	.	.	.	.	.	.	.	.	.	.	.	.	.
*	*	*	*	*	*	*	*	*	*	*	*	*	*	*	*	*	*	*	*v	*v	*	*	*	*	*
=103	=103	=103	=103	=103	=103	=103	=103	=103	=103	=103	=103	=103	=103	=103	=103	=103	=103	=103	=103	=103	=103	=103	=103	=103
!LO:TX:t=P:problem=brak t. 103	!	!	!	!	!	!	!	!	!	!	!	!	!	!	!	!	!	!	!	!	!	!	!	!
*	*	*rep	*rep	*	*rep	*	*	*	*	*	*	*	*	*	*	*	*	*	*	*	*	*	*	*
!	!	!	!	!	!	!	!	!	!	!	!	!	!LO:TX:a:t=15.	!	!	!	!LO:TX:a:t=15.	!	!LO:TX:a:t=15.	!	!LO:TX:a:t=15.	!	!LO:TX:a:t=15.	!
2ryy	.	8GG/	8GG/	.	8G/ 8dL	.	8g/ 8bL	.	8c#X'\L	-te-	8cc#X\	-ste-	2r	.	2r	.	2r	.	2r	.	2r	.	2r	.
.	.	8r	8r	.	8G/ 8d	.	8g/ 8b	.	8d'\J	-rze	8dd\	-rze	.	.	.	.	.	.	.	.	.	.	.	.
.	.	8GG/	8GG/	.	8G/ 8d	.	8g/ 8b	.	8e'\L	mi-	8ee\	mi-	.	.	.	.	.	.	.	.	.	.	.	.
.	.	8r	8r	.	8G/ 8dJ	.	8g/ 8bJ	.	8d'\J	-li	8dd\	-li	.	.	.	.	.	.	.	.	.	.	.	.
*	*	*Xrep	*Xrep	*	*Xrep	*	*	*	*	*	*	*	*	*	*	*	*	*	*	*	*	*	*	*
=104	=104	=104	=104	=104	=104	=104	=104	=104	=104	=104	=104	=104	=104	=104	=104	=104	=104	=104	=104	=104	=104	=104	=104	=104
*	*	*	*rep	*	*rep	*	*	*	*	*	*	*	*	*	*	*	*	*	*	*	*	*	*	*
4GG/	.	8GG/	8GG/	.	8G/ 8dL	.	8g/ 8bL	.	8c'\L	dzi-	8cc\	dzi-	2r	.	2r	.	2r	.	2r	.	2r	.	2r	.
.	.	8r	8r	.	8G/ 8d	.	8g/ 8b	.	8d'\J	-sziay	8dd\	-siaj	.	.	.	.	.	.	.	.	.	.	.	.
4G\	.	8D\	8GG/	.	8G/ 8d	.	8g/ 8b	.	8A\	o	8a/	o	.	.	.	.	.	.	.	.	.	.	.	.
.	.	8r	8r	.	8G/ 8dJ	.	8g/ 8bJ	.	8d\	tey	8dd\	tej	.	.	.	.	.	.	.	.	.	.	.	.
*	*	*	*Xrep	*	*Xrep	*	*	*	*	*	*	*	*	*	*	*	*	*	*	*	*	*	*	*
=105	=105	=105	=105	=105	=105	=105	=105	=105	=105	=105	=105	=105	=105	=105	=105	=105	=105	=105	=105	=105	=105	=105	=105	=105
*	*	*	*rep	*	*rep	*	*	*	*	*	*	*	*	*	*	*	*	*	*	*	*	*	*	*
!	!	!	!	!	!LO:TX:b:i:t=sequ[e]	!	!	!	!	!	!	!	!	!	!	!	!	!	!	!	!	!	!	!
4GG/	.	8GG/	8GG/	.	8G/ 8dL	.	8g/ 8bL	.	8B\	chwi-	8b\	chwi-	2r	.	2r	.	2r	.	2r	.	2r	.	2r	.
.	.	8r	8r	.	8G/ 8d	.	8g/ 8b	.	4G\	-li	4g/	-li	.	.	.	.	.	.	.	.	.	.	.	.
4G\	.	8GG/	8GG/	.	8G/ 8d	.	8g/ 8b	.	.	.	.	.	.	.	.	.	.	.	.	.	.	.	.	.
.	.	8r	8r	.	8G/ 8dJ	.	8g/ 8bJ	.	8r	.	8r	.	.	.	.	.	.	.	.	.	.	.	.	.
*	*	*	*Xrep	*	*Xrep	*	*	*	*	*	*	*	*	*	*	*	*	*	*	*	*	*	*	*
!LO:LB:g=original	!	!	!LO:LB:g=original	!	!LO:LB:g=original	!	!	!	!	!	!	!	!	!	!	!	!	!	!	!	!	!	!	!
=106	=106	=106	=106	=106	=106	=106	=106	=106	=106	=106	=106	=106	=106	=106	=106	=106	=106	=106	=106	=106	=106	=106	=106	=106
!	!	!	!	!	!	!	!	!	!	!	!	!	!	!	!LO:TX:t=P:problem=brak t. 106-117	!	!	!	!	!	!	!	!	!
4D\	.	8D\	8D\	.	8A/ 8dL	.	8d/ 8ccL	.	8F#'\L	Chrys-	8f#/	Chrys-	2r	.	2ryy	.	2r	.	2r	.	2r	.	2r	.
.	.	8r	8r	.	8A/ 8d	.	8d/ 8cc	.	8F#'\J	-tus	8f#/	-tus	.	.	.	.	.	.	.	.	.	.	.	.
4d\	.	8D\	8D\	.	8A/ 8d	.	8d/ 8cc	.	8D\	się	8d/	się	.	.	.	.	.	.	.	.	.	.	.	.
.	.	8r	8r	.	8A/ 8dJ	.	8d/ 8ccJ	.	8F#\	na-	8f#/	na-	.	.	.	.	.	.	.	.	.	.	.	.
!	!	!	!	!	!	!	!LO:LB:g=original	!	!LO:LB:g=original	!	!LO:LB:g=original	!	!	!	!	!	!	!	!	!	!	!	!	!
=107	=107	=107	=107	=107	=107	=107	=107	=107	=107	=107	=107	=107	=107	=107	=107	=107	=107	=107	=107	=107	=107	=107	=107	=107
4G\	.	8GG/	8GG/	.	8G/ 8dL	.	8d/ 8bL	.	8G\	-ro-	8g/	-ro-	2r	.	2ryy	.	2r	.	2r	.	2r	.	2r	.
.	.	8r	8r	.	8G/ 8d	.	8d/ 8b	.	4B\	-dził	4b\	-dził	.	.	.	.	.	.	.	.	.	.	.	.
4GG/	.	8GG/	8GG/	.	8G/ 8d	.	8d/ 8b	.	.	.	.	.	.	.	.	.	.	.	.	.	.	.	.	.
.	.	8r	8r	.	8G/ 8dJ	.	8d/ 8bJ	.	8r	.	8r	.	.	.	.	.	.	.	.	.	.	.	.	.
!	!	!LO:LB:g=original	!	!	!	!	!	!	!	!	!	!	!	!	!	!	!	!	!	!	!	!	!	!
=108	=108	=108	=108	=108	=108	=108	=108	=108	=108	=108	=108	=108	=108	=108	=108	=108	=108	=108	=108	=108	=108	=108	=108	=108
4D\	.	8D\	8D\	.	8A/ 8dL	.	8d/ 8ccL	.	8F#\	Chrys-	8f#/	Chrys-	2r	.	2ryy	.	2r	.	2r	.	2r	.	2r	.
.	.	8r	8r	.	8A/ 8d	.	8d/ 8cc	.	8F#\	-tus	8f#/	-tus	.	.	.	.	.	.	.	.	.	.	.	.
4d\	.	8D\	8D\	.	8A/ 8d	.	8d/ 8cc	.	8D\	się	8d/	się	.	.	.	.	.	.	.	.	.	.	.	.
.	.	8r	8r	.	8A/ 8dJ	.	8d/ 8ccJ	.	8F#\	na-	8f#/	na-	.	.	.	.	.	.	.	.	.	.	.	.
*	*	*	*	*	*Xtremolo	*	*	*	*	*	*	*	*	*	*	*	*	*	*	*	*	*	*	*
=109	=109	=109	=109	=109	=109	=109	=109	=109	=109	=109	=109	=109	=109	=109	=109	=109	=109	=109	=109	=109	=109	=109	=109	=109
8G\L	.	8GG/	8GG/	.	2B/ 2d	.	8g/ 8bL	.	8G\	-ro-	8g/	-ro-	2r	.	2ryy	.	2r	.	2r	.	2r	.	2r	.
16D\L	.	8r	8r	.	.	.	8g/ 8b	.	4G\	-dził	4g/	-dził.	.	.	.	.	.	.	.	.	.	.	.	.
16BB\JJ	.	.	.	.	.	.	.	.	.	.	.	.	.	.	.	.	.	.	.	.	.	.	.	.
4GG/	.	8GG/	8GG/	.	.	.	8g/ 8bJ	.	.	.	.	.	.	.	.	.	.	.	.	.	.	.	.	.
.	.	8r	8r	.	.	.	8gg\	.	8r	.	8r	.	.	.	.	.	.	.	.	.	.	.	.	.
=110	=110	=110	=110	=110	=110	=110	=110	=110	=110	=110	=110	=110	=110	=110	=110	=110	=110	=110	=110	=110	=110	=110	=110	=110
*	*	*rep	*rep	*	*	*	*	*	*	*	*	*	*	*	*	*	*	*	*	*	*	*	*	*
!	!	!	!	!	!	!LO:DY:b	!	!	!	!	!	!	!	!	!	!	!	!	!	!	!	!	!	!
4G\	.	8GG/	8GG/	.	8d/	f	8dd\	.	8d\	Oy	8dd\	Oj	2r	.	2ryy	.	2r	.	2r	.	2r	.	2r	.
.	.	8r	8r	.	4d^/	.	4dd\	.	4d\	do	4dd\	do	.	.	.	.	.	.	.	.	.	.	.	.
4GG/	.	8GG/	8GG/	.	.	.	.	.	.	.	.	.	.	.	.	.	.	.	.	.	.	.	.	.
.	.	8r	8r	.	8d/	.	8dd\	.	8d\	Be-	8dd\	Be-	.	.	.	.	.	.	.	.	.	.	.	.
*	*	*Xrep	*Xrep	*	*	*	*	*	*	*	*	*	*	*	*	*	*	*	*	*	*	*	*	*
!	!	!	!	!	!	!	!	!	!LO:LB:g=original	!	!	!	!	!	!	!	!	!	!	!	!	!	!	!
=111	=111	=111	=111	=111	=111	=111	=111	=111	=111	=111	=111	=111	=111	=111	=111	=111	=111	=111	=111	=111	=111	=111	=111	=111
*	*	*rep	*rep	*	*	*	*	*	*	*	*	*	*	*	*	*	*	*	*	*	*	*	*	*
4G\	.	8GG/	8GG/	.	8c#X/L	.	8cc#X\L	.	8c#X'\L	-tlé-	8cc#X\	-tle-	2r	.	2ryy	.	2r	.	2r	.	2r	.	2r	.
.	.	8r	8r	.	8d/	.	8dd\	.	8d'\	-em	8dd\	-jem	.	.	.	.	.	.	.	.	.	.	.	.
4GG/	.	8GG/	8GG/	.	8e/	.	8ee\	.	8e'\	biesz-	8ee\	biez-	.	.	.	.	.	.	.	.	.	.	.	.
.	.	8r	8r	.	8d/J	.	8dd\J	.	8d'\J	-cie	8dd\	-cie	.	.	.	.	.	.	.	.	.	.	.	.
*	*	*Xrep	*Xrep	*	*	*	*	*	*	*	*	*	*	*	*	*	*	*	*	*	*	*	*	*
!	!	!	!	!	!	!	!	!	!	!	!LO:LB:g=original	!	!	!	!	!	!	!	!	!	!	!	!	!
=112	=112	=112	=112	=112	=112	=112	=112	=112	=112	=112	=112	=112	=112	=112	=112	=112	=112	=112	=112	=112	=112	=112	=112	=112
*	*	*	*rep	*	*	*	*	*	*	*	*	*	*	*	*	*	*	*	*	*	*	*	*	*
!	!	!	!	!	!LO:SIC:s=c#	!	!LO:SIC:s=cc#	!	!	!	!	!	!	!	!	!	!	!	!	!	!	!	!	!
4G\	.	8GG/	8GG/	.	8c/L	.	8cc\L	.	8c#X'\L	tam	8cc#X\	tam	2r	.	2ryy	.	2r	.	2r	.	2r	.	2r	.
.	.	8r	8r	.	8d/	.	8dd\	.	8d'\J	dzie-	8dd\	dzie-	.	.	.	.	.	.	.	.	.	.	.	.
4GG/	.	8D\	8GG/	.	8A/	.	8a\	.	8A'\L	-cie	8a/	-cie	.	.	.	.	.	.	.	.	.	.	.	.
.	.	8r	8r	.	8d/J	.	8dd\J	.	8d'\J	znay-	8dd\	znaj-	.	.	.	.	.	.	.	.	.	.	.	.
*	*	*	*Xrep	*	*	*	*	*	*	*	*	*	*	*	*	*	*	*	*	*	*	*	*	*
=113	=113	=113	=113	=113	=113	=113	=113	=113	=113	=113	=113	=113	=113	=113	=113	=113	=113	=113	=113	=113	=113	=113	=113	=113
*	*	*	*rep	*	*	*	*	*	*	*	*	*	*	*	*	*	*	*	*	*	*	*	*	*
4G\	.	8GG/	8GG/	.	8B/	.	8b\	.	8B\	-dzie-	8b/	-dzie-	2r	.	2ryy	.	2r	.	2r	.	2r	.	2r	.
.	.	8r	8r	.	4G/	.	4g\	.	4G\	-cie	4g/	-cie	.	.	.	.	.	.	.	.	.	.	.	.
!LO:TX:b:i:t=seque	!	!	!	!	!	!	!	!	!	!	!	!	!	!	!	!	!	!	!	!	!	!	!	!
4GG/	.	8GG/	8GG/	.	.	.	.	.	.	.	.	.	.	.	.	.	.	.	.	.	.	.	.	.
.	.	8r	8r	.	8G/	.	8g\	.	8r	.	8r	.	.	.	.	.	.	.	.	.	.	.	.	.
*	*	*	*Xrep	*	*	*	*	*	*	*	*	*	*	*	*	*	*	*	*	*	*	*	*	*
!LO:LB:g=original	!	!LO:LB:g=original	!	!	!LO:LB:g=original	!	!	!	!	!	!	!	!	!	!	!	!	!	!	!	!	!	!	!
=114	=114	=114	=114	=114	=114	=114	=114	=114	=114	=114	=114	=114	=114	=114	=114	=114	=114	=114	=114	=114	=114	=114	=114	=114
2D\	.	8D\	8D\	.	2A/ 2d	.	8f#/L	.	8F#\L	tam	8f#/	tam	2r	.	2ryy	.	2r	.	2r	.	2r	.	2r	.
.	.	8r	8r	.	.	.	16f#/L	.	8F#\J	dzie-	8f#/	dzie-	.	.	.	.	.	.	.	.	.	.	.	.
.	.	.	.	.	.	.	16e/JJ	.	.	.	.	.	.	.	.	.	.	.	.	.	.	.	.	.
.	.	8D\	8D\	.	.	.	16d/LL	.	8D\	-cie	8d/	-cię	.	.	.	.	.	.	.	.	.	.	.	.
.	.	.	.	.	.	.	16e/	.	.	.	.	.	.	.	.	.	.	.	.	.	.	.	.	.
.	.	8r	8r	.	.	.	16f#/	.	8F#\	znay-	8f#/	znaj-	.	.	.	.	.	.	.	.	.	.	.	.
.	.	.	.	.	.	.	16d/JJ	.	.	.	.	.	.	.	.	.	.	.	.	.	.	.	.	.
!	!	!	!	!	!	!	!LO:LB:g=original	!	!	!	!LO:LB:g=original	!	!	!	!	!	!	!	!	!	!	!	!	!
=115	=115	=115	=115	=115	=115	=115	=115	=115	=115	=115	=115	=115	=115	=115	=115	=115	=115	=115	=115	=115	=115	=115	=115	=115
2G\	.	8GG/	8GG/	.	2B/ 2d	.	8g/L	.	8G\	-dzie-	8g/	-dzie-	2r	.	2ryy	.	2r	.	2r	.	2r	.	2r	.
.	.	.	.	.	.	.	8qqa\	.	.	.	.	.	.	.	.	.	.	.	.	.	.	.	.	.
.	.	8r	8r	.	.	.	16g/L	.	4B\	-cie	4b\	-cie	.	.	.	.	.	.	.	.	.	.	.	.
.	.	.	.	.	.	.	16f#/JJ	.	.	.	.	.	.	.	.	.	.	.	.	.	.	.	.	.
.	.	8GG/	8GG/	.	.	.	16g/LL	.	.	.	.	.	.	.	.	.	.	.	.	.	.	.	.	.
.	.	.	.	.	.	.	16a/	.	.	.	.	.	.	.	.	.	.	.	.	.	.	.	.	.
.	.	8r	8r	.	.	.	16b/	.	8r	.	8r	.	.	.	.	.	.	.	.	.	.	.	.	.
.	.	.	.	.	.	.	16g/JJ	.	.	.	.	.	.	.	.	.	.	.	.	.	.	.	.	.
!	!	!	!	!	!	!	!	!	!LO:LB:g=original	!	!	!	!	!	!	!	!	!	!	!	!	!	!	!
=116	=116	=116	=116	=116	=116	=116	=116	=116	=116	=116	=116	=116	=116	=116	=116	=116	=116	=116	=116	=116	=116	=116	=116	=116
2D\	.	8D\	8D\	.	2c/ 2d	.	8f#/L	.	8F#\	tam	8f#/	tam	2r	.	2ryy	.	2r	.	2r	.	2r	.	2r	.
.	.	.	.	.	.	.	8qqg\	.	.	.	.	.	.	.	.	.	.	.	.	.	.	.	.	.
.	.	8r	8r	.	.	.	16f#/L	.	8F#\	dzie-	8f#/	dzie-	.	.	.	.	.	.	.	.	.	.	.	.
.	.	.	.	.	.	.	16e/JJ	.	.	.	.	.	.	.	.	.	.	.	.	.	.	.	.	.
.	.	8D\	8D\	.	.	.	16d/LL	.	8D\	-cie	8d/	-cię	.	.	.	.	.	.	.	.	.	.	.	.
.	.	.	.	.	.	.	16e/	.	.	.	.	.	.	.	.	.	.	.	.	.	.	.	.	.
.	.	8r	8r	.	.	.	16f#/	.	8F#\	znay-	8f#/	znaj-	.	.	.	.	.	.	.	.	.	.	.	.
.	.	.	.	.	.	.	16d/JJ	.	.	.	.	.	.	.	.	.	.	.	.	.	.	.	.	.
=117	=117	=117	=117	=117	=117	=117	=117	=117	=117	=117	=117	=117	=117	=117	=117	=117	=117	=117	=117	=117	=117	=117	=117	=117
2GG/	.	8GG/	8GG/	.	2B/ 2d	.	8g/	.	8G\	-dzie-	8g/	-dzie-	2r	.	2ryy	.	2r	.	2r	.	2r	.	2r	.
.	.	8r	8r	.	.	.	4g/	.	4G\	-cie.	4g/	-cie.	.	.	.	.	.	.	.	.	.	.	.	.
.	.	8GG/	8GG/	.	.	.	.	.	.	.	.	.	.	.	.	.	.	.	.	.	.	.	.	.
.	.	8r	8r	.	.	.	8gg\	.	8r	.	8r	.	.	.	.	.	.	.	.	.	.	.	.	.
!	!	!	!	!	!	!	!	!	!	!	!	!	!	!	!	!	!	!	!	!	!	!	!LO:LB:g=original	!
!	!	!	!LO:LB:g=original	!	!	!	!	!	!	!	!	!	!	!	!	!	!LO:LB:g=original	!	!	!	!	!	!	!
=118	=118	=118	=118	=118	=118	=118	=118	=118	=118	=118	=118	=118	=118	=118	=118	=118	=118	=118	=118	=118	=118	=118	=118	=118
*	*	*	*	*	*	*	*	*	*	*	*	*	*	*	*	*	*	*	*^	*	*	*	*	*
!	!	!	!	!	!	!	!	!	!LO:TX:a:t=13	!	!LO:TX:a:t=11.	!	!	!	!	!	!	!	!	!	!	!	!	!	!
!	!	!	!	!	!	!	!	!	!	!	!	!	!	!	!	!	!	!	!	!	!	!	!LO:DY:t=f..	!	!
!	!	!	!	!	!	!	!	!	!	!	!	!	!	!LO:DY:t=fo&colon;	!	!	!	!LO:DY:t=f.	!	!	!	!	!	!	!
8D\L	.	8D\L	8D\	.	16A/LL	.	16ff#\LL	.	2r	.	2r	.	8D\L	f	2D\	p	8d/L	f	8a/L	8d\L	.	8a\L	f	16ff#\LL	.
.	.	.	.	.	16d/	.	16ee\	.	.	.	.	.	.	.	.	.	.	.	.	.	.	.	.	16ee\	.
8d\	.	8D\	8r	.	16c/	.	16dd\	.	.	.	.	.	16D\L	.	.	.	16d/L	.	8a/	8d\	.	8cc\	.	16dd\	.
.	.	.	.	.	16d/JJ	.	16ee\JJ	.	.	.	.	.	16D\JJ	.	.	.	16d/JJ	.	.	.	.	.	.	16ee\JJ	.
*	*	*	*	*	*	*	*	*	*	*	*	*	*	*	*	*	*	*	*v	*v	*	*	*	*	*
*	*	*	*	*	*rep	*	*	*	*	*	*	*	*	*	*	*	*	*	*	*	*	*	*	*
*	*	*	*	*	*	*	*	*	*	*	*	*	*	*	*	*	*	*	*^	*	*	*	*	*
8D\	.	8D\	8D\	.	16A/LL	.	16ff#\LL	.	.	.	.	.	8D\L	.	.	.	8d/L	.	8a/	8d\	.	8a\	.	16ff#\LL	.
.	.	.	.	.	16d/	.	16gg\	.	.	.	.	.	.	.	.	.	.	.	.	.	.	.	.	16gg\	.
8d\J	.	8D\J	8r	.	16c/	.	16aa\	.	.	.	.	.	8D\J	.	.	.	8d/J	.	8a/J	8d\J	.	8cc\J	.	16aa\	.
.	.	.	.	.	16d/JJ	.	16ff#\JJ	.	.	.	.	.	.	.	.	.	.	.	.	.	.	.	.	16ff#\JJ	.
*	*	*	*	*	*Xrep	*	*	*	*	*	*	*	*tremolo	*	*	*	*	*	*	*	*	*	*	*	*
=119	=119	=119	=119	=119	=119	=119	=119	=119	=119	=119	=119	=119	=119	=119	=119	=119	=119	=119	=119	=119	=119	=119	=119	=119	=119
8G\L	.	8GG/L	8GG/	.	16G/LL	.	16gg\LL	.	2r	.	2r	.	16GGT/LL	.	2G\	.	4g/	.	4g/	4B\	.	8b\L	.	8gg\L	.
.	.	.	.	.	16d/	.	16gg\	.	.	.	.	.	16GGT/	.	.	.	.	.	.	.	.	.	.	.	.
8G\	.	8GG/	8r	.	16B/	.	16gg\	.	.	.	.	.	16GGT/	.	.	.	.	.	.	.	.	8b\	.	8gg\	.
.	.	.	.	.	16d/JJ	.	16gg\JJ	.	.	.	.	.	16GGT/JJ	.	.	.	.	.	.	.	.	.	.	.	.
*	*	*	*	*	*	*	*Xtremolo	*	*	*	*	*	*	*	*	*	*	*	*	*	*	*	*	*	*
*	*	*	*	*	*	*	*	*	*	*	*	*	*	*	*	*	*	*	*v	*v	*	*	*	*	*
*	*	*	*	*	*rep	*	*	*	*	*	*	*	*	*	*	*	*	*	*	*	*	*	*	*
*	*	*	*	*	*	*	*	*	*	*	*	*	*	*	*	*	*	*	*^	*	*	*	*	*
8G\	.	8GG/	8GG/	.	16G/LL	.	16bb\LL	.	.	.	.	.	16GG/LL	.	.	.	4g/	.	4g/	4B\	.	8dd\	.	8bb\	.
.	.	.	.	.	16d/	.	16bb\	.	.	.	.	.	16GG/	.	.	.	.	.	.	.	.	.	.	.	.
8G\J	.	8GG/J	8r	.	16B/	.	16gg\	.	.	.	.	.	16GG/	.	.	.	.	.	.	.	.	8b\J	.	8gg\J	.
.	.	.	.	.	16d/JJ	.	16gg\JJ	.	.	.	.	.	16GG/JJ	.	.	.	.	.	.	.	.	.	.	.	.
*	*	*	*	*	*Xrep	*	*	*	*	*	*	*	*	*	*	*	*	*	*	*	*	*	*	*	*
=120	=120	=120	=120	=120	=120	=120	=120	=120	=120	=120	=120	=120	=120	=120	=120	=120	=120	=120	=120	=120	=120	=120	=120	=120	=120
8D\L	.	8D\L	8D\	.	16A/LL	.	16ff#\LL	.	2r	.	2r	.	16D\LL	.	2D\	.	4d/	.	4a/	4d\	.	8a\L	.	8ff#\L	.
.	.	.	.	.	16d/	.	16ff#\	.	.	.	.	.	16D\	.	.	.	.	.	.	.	.	.	.	.	.
8D\	.	8D\	8r	.	16c/	.	16aa\	.	.	.	.	.	16D\	.	.	.	.	.	.	.	.	8cc\	.	8aa\	.
.	.	.	.	.	16d/JJ	.	16aa\JJ	.	.	.	.	.	16D\	.	.	.	.	.	.	.	.	.	.	.	.
*	*	*	*	*	*	*	*	*	*	*	*	*	*	*	*	*	*	*	*v	*v	*	*	*	*	*
*	*	*	*	*	*rep	*	*	*	*	*	*	*	*	*	*	*	*	*	*	*	*	*	*	*
*	*	*	*	*	*	*	*	*	*	*	*	*	*	*	*	*	*	*	*^	*	*	*	*	*
8D\	.	8D\	8D\	.	16A/LL	.	16ddd\LL	.	.	.	.	.	16D\	.	.	.	4d/	.	4a/	4d\	.	8a\	.	8ddd\	.
.	.	.	.	.	16d/	.	16ddd\	.	.	.	.	.	16D\	.	.	.	.	.	.	.	.	.	.	.	.
8D\J	.	8D\J	8r	.	16c/	.	16ff#\	.	.	.	.	.	16D\	.	.	.	.	.	.	.	.	8cc\J	.	8ff#\J	.
.	.	.	.	.	16d/JJ	.	16ff#\JJ	.	.	.	.	.	16D\JJ	.	.	.	.	.	.	.	.	.	.	.	.
*	*	*Xtremolo	*	*	*Xrep	*	*	*	*	*	*	*	*	*	*	*	*	*	*	*	*	*	*	*	*
!	!	!LO:LB:g=original	!	!	!	!	!LO:LB:g=original	!	!	!	!	!	!	!	!	!	!	!	!	!	!	!	!	!	!
=121	=121	=121	=121	=121	=121	=121	=121	=121	=121	=121	=121	=121	=121	=121	=121	=121	=121	=121	=121	=121	=121	=121	=121	=121	=121
8GG/L	.	4.GG/	2GG/	.	16G/LL	.	4.gg\	.	2r	.	2r	.	16GG/LL	.	4.G\	.	4g/	.	4g/	4B\	.	4.b\	.	4.gg\	.
.	.	.	.	.	16d/	.	.	.	.	.	.	.	16GG/	.	.	.	.	.	.	.	.	.	.	.	.
8GG/	.	.	.	.	16B/	.	.	.	.	.	.	.	16GG/	.	.	.	.	.	.	.	.	.	.	.	.
.	.	.	.	.	16d/JJ	.	.	.	.	.	.	.	16GG/	.	.	.	.	.	.	.	.	.	.	.	.
*	*	*	*	*	*	*	*	*	*	*	*	*	*	*	*	*	*	*	*v	*v	*	*	*	*	*
*	*	*	*	*	*rep	*	*	*	*	*	*	*	*	*	*	*	*	*	*	*	*	*	*	*
*	*	*	*	*	*	*	*	*	*	*	*	*	*	*	*	*	*	*	*^	*	*	*	*	*
8GG/	.	.	.	.	16G/LL	.	.	.	.	.	.	.	16GG/	.	.	.	4g/	.	4g/	4B\	.	.	.	.	.
.	.	.	.	.	16d/	.	.	.	.	.	.	.	16GG/	.	.	.	.	.	.	.	.	.	.	.	.
8GG/J	.	8GG/	.	.	16B/	.	8gg\	.	.	.	.	.	16GG/	.	8G\	.	.	.	.	.	.	8b\	.	8gg\	.
.	.	.	.	.	16d/JJ	.	.	.	.	.	.	.	16GG/JJ	.	.	.	.	.	.	.	.	.	.	.	.
*	*	*	*	*	*Xrep	*	*	*	*	*	*	*	*	*	*	*	*	*	*	*	*	*	*	*	*
!	!	!	!	!	!LO:LB:g=original	!	!	!	!	!	!	!	!	!	!	!	!	!	!	!	!	!	!	!	!
=122	=122	=122	=122	=122	=122	=122	=122	=122	=122	=122	=122	=122	=122	=122	=122	=122	=122	=122	=122	=122	=122	=122	=122	=122	=122
8D\L	.	4.D\	2D\	.	2A/ 2d	.	4.ff#\	.	2r	.	2r	.	16D\LL	.	4.D\	.	4d/	.	4a/	4d\	.	4.a/	.	4.ff#\	.
.	.	.	.	.	.	.	.	.	.	.	.	.	16D\	.	.	.	.	.	.	.	.	.	.	.	.
8D\	.	.	.	.	.	.	.	.	.	.	.	.	16D\	.	.	.	.	.	.	.	.	.	.	.	.
.	.	.	.	.	.	.	.	.	.	.	.	.	16D\	.	.	.	.	.	.	.	.	.	.	.	.
8D\	.	.	.	.	.	.	.	.	.	.	.	.	16D\	.	.	.	4d/	.	4a/	4d\	.	.	.	.	.
.	.	.	.	.	.	.	.	.	.	.	.	.	16D\	.	.	.	.	.	.	.	.	.	.	.	.
8D\J	.	8D\	.	.	.	.	8aa\	.	.	.	.	.	16D\	.	8D\	.	.	.	.	.	.	8cc/	.	8aa\	.
.	.	.	.	.	.	.	.	.	.	.	.	.	16D\JJ	.	.	.	.	.	.	.	.	.	.	.	.
*Xtremolo	*	*	*	*	*	*	*	*	*	*	*	*	*	*	*	*	*	*	*	*	*	*	*	*	*
*	*	*	*	*	*	*	*	*	*	*	*	*	*	*	*	*	*	*	*v	*v	*	*	*	*	*
!	!	!	!	!	!	!	!	!	!	!	!	!	!	!	!LO:LB:g=original	!	!	!	!	!	!	!	!	!
=123	=123	=123	=123	=123	=123	=123	=123	=123	=123	=123	=123	=123	=123	=123	=123	=123	=123	=123	=123	=123	=123	=123	=123	=123
*	*	*	*rep	*	*rep	*	*	*	*	*	*	*	*	*	*	*	*	*	*	*	*	*	*	*
*	*	*	*	*	*	*	*	*	*	*	*	*	*	*	*	*	*	*	*^	*	*	*	*	*
2D\	.	8.D\L	2D\	.	2A/ 2d	.	8.dd\L	.	2r	.	2r	.	16D\LL	.	4D\	.	4d/	.	4a/	4d\	.	8a\L	.	8.dd\L	.
.	.	.	.	.	.	.	.	.	.	.	.	.	16D\	.	.	.	.	.	.	.	.	.	.	.	.
.	.	.	.	.	.	.	.	.	.	.	.	.	16D\	.	.	.	.	.	.	.	.	8cc\	.	.	.
.	.	16D\Jk	.	.	.	.	16ccc\Jk	.	.	.	.	.	16D\	.	.	.	.	.	.	.	.	.	.	16ccc\Jk	.
.	.	8.D\L	.	.	.	.	8.ff#\L	.	.	.	.	.	16D\	.	4D\	.	4dd\	.	4a/	4d\	.	8a\	.	8.ff#\L	.
.	.	.	.	.	.	.	.	.	.	.	.	.	16D\	.	.	.	.	.	.	.	.	.	.	.	.
.	.	.	.	.	.	.	.	.	.	.	.	.	16D\	.	.	.	.	.	.	.	.	8cc\J	.	.	.
.	.	16D\Jk	.	.	.	.	16aa\Jk	.	.	.	.	.	16D\JJ	.	.	.	.	.	.	.	.	.	.	16aa\Jk	.
*	*	*	*Xrep	*	*Xrep	*	*	*	*	*	*	*	*	*	*	*	*	*	*	*	*	*	*	*	*
=124	=124	=124	=124	=124	=124	=124	=124	=124	=124	=124	=124	=124	=124	=124	=124	=124	=124	=124	=124	=124	=124	=124	=124	=124	=124
2G\	.	4.GG/	2G\	.	2B/ 2d	.	4.gg\	.	2r	.	2r	.	16GG/LL	.	4.G\	.	4g/	.	4g/	4B\	.	4.b\	.	4.gg\	.
.	.	.	.	.	.	.	.	.	.	.	.	.	16GG/	.	.	.	.	.	.	.	.	.	.	.	.
.	.	.	.	.	.	.	.	.	.	.	.	.	16GG/	.	.	.	.	.	.	.	.	.	.	.	.
.	.	.	.	.	.	.	.	.	.	.	.	.	16GG/	.	.	.	.	.	.	.	.	.	.	.	.
.	.	.	.	.	.	.	.	.	.	.	.	.	16GG/	.	.	.	4g/	.	4g/	4B\	.	.	.	.	.
.	.	.	.	.	.	.	.	.	.	.	.	.	16GG/	.	.	.	.	.	.	.	.	.	.	.	.
.	.	8GG/	.	.	.	.	8bb\	.	.	.	.	.	16GG/	.	8G\	.	.	.	.	.	.	8dd\	.	8bb\	.
.	.	.	.	.	.	.	.	.	.	.	.	.	16GG/JJ	.	.	.	.	.	.	.	.	.	.	.	.
*	*	*	*	*	*	*	*	*	*	*	*	*	*	*	*	*	*	*	*v	*v	*	*	*	*	*
!LO:LB:g=original	!	!	!	!	!	!	!	!	!	!	!	!	!	!	!	!	!	!	!	!	!	!	!	!
=125	=125	=125	=125	=125	=125	=125	=125	=125	=125	=125	=125	=125	=125	=125	=125	=125	=125	=125	=125	=125	=125	=125	=125	=125
*	*	*	*rep	*	*rep	*	*	*	*	*	*	*	*	*	*	*	*	*	*	*	*	*	*	*
*	*	*	*	*	*	*	*	*	*	*	*	*	*	*	*	*	*	*	*^	*	*	*	*	*
2G\	.	8.GG/L	2G\	.	2B/ 2d	.	8.gg\L	.	2r	.	2r	.	16GG/LL	.	4G\	.	4g/	.	4g/	4B\	.	8b\L	.	8.gg\L	.
.	.	.	.	.	.	.	.	.	.	.	.	.	16GG/	.	.	.	.	.	.	.	.	.	.	.	.
.	.	.	.	.	.	.	.	.	.	.	.	.	16GG/	.	.	.	.	.	.	.	.	8dd\	.	.	.
.	.	16GG/Jk	.	.	.	.	16bb\Jk	.	.	.	.	.	16GG/	.	.	.	.	.	.	.	.	.	.	16bb\Jk	.
.	.	8.GG/L	.	.	.	.	8.gg\L	.	.	.	.	.	16GG/	.	4G\	.	4g/	.	4g/	4B\	.	8b\	.	8.gg\L	.
.	.	.	.	.	.	.	.	.	.	.	.	.	16GG/	.	.	.	.	.	.	.	.	.	.	.	.
.	.	.	.	.	.	.	.	.	.	.	.	.	16GG/	.	.	.	.	.	.	.	.	8dd\J	.	.	.
.	.	16GG/Jk	.	.	.	.	16ddd\Jk	.	.	.	.	.	16GG/JJ	.	.	.	.	.	.	.	.	.	.	16ddd\Jk	.
*	*	*	*Xrep	*	*Xrep	*	*	*	*	*	*	*	*	*	*	*	*	*	*	*	*	*	*	*	*
=126	=126	=126	=126	=126	=126	=126	=126	=126	=126	=126	=126	=126	=126	=126	=126	=126	=126	=126	=126	=126	=126	=126	=126	=126	=126
2D\	.	4.D\	2D\	.	2A/ 2d	.	4.ff#\	.	2r	.	2r	.	16D\LL	.	4.D\	.	4d/	.	4a/	4d\	.	8a\L	.	4.ff#\	.
.	.	.	.	.	.	.	.	.	.	.	.	.	16D\	.	.	.	.	.	.	.	.	.	.	.	.
.	.	.	.	.	.	.	.	.	.	.	.	.	16D\	.	.	.	.	.	.	.	.	8cc\	.	.	.
.	.	.	.	.	.	.	.	.	.	.	.	.	16D\	.	.	.	.	.	.	.	.	.	.	.	.
.	.	.	.	.	.	.	.	.	.	.	.	.	16D\	.	.	.	4d/	.	4a/	4d\	.	8a\	.	.	.
.	.	.	.	.	.	.	.	.	.	.	.	.	16D\	.	.	.	.	.	.	.	.	.	.	.	.
.	.	8D\	.	.	.	.	8aa\	.	.	.	.	.	16D\	.	8D\	.	.	.	.	.	.	8cc\J	.	8aa\	.
.	.	.	.	.	.	.	.	.	.	.	.	.	16D\JJ	.	.	.	.	.	.	.	.	.	.	.	.
*	*	*	*	*	*	*	*	*	*	*	*	*	*	*	*	*	*	*	*v	*v	*	*	*	*	*
!	!	!LO:LB:g=original	!	!	!	!	!	!	!	!	!	!	!	!	!	!	!	!	!	!	!	!	!LO:LB:g=original	!
=127	=127	=127	=127	=127	=127	=127	=127	=127	=127	=127	=127	=127	=127	=127	=127	=127	=127	=127	=127	=127	=127	=127	=127	=127
*	*	*	*rep	*	*rep	*	*	*	*	*	*	*	*	*	*	*	*	*	*	*	*	*	*	*
*	*	*	*	*	*	*	*	*	*	*	*	*	*	*	*	*	*	*	*^	*	*	*	*	*
2D\	.	8.D\L	2D\	.	2A/ 2d	.	8.dd\L	.	2r	.	2r	.	16D\LL	.	4D\	.	4d/	.	4a/	4d\	.	8a\L	.	8.dd\L	.
.	.	.	.	.	.	.	.	.	.	.	.	.	16D\	.	.	.	.	.	.	.	.	.	.	.	.
.	.	.	.	.	.	.	.	.	.	.	.	.	16D\	.	.	.	.	.	.	.	.	8cc\	.	.	.
.	.	16D\Jk	.	.	.	.	16ddd\Jk	.	.	.	.	.	16D\	.	.	.	.	.	.	.	.	.	.	16ddd\Jk	.
.	.	8.D\L	.	.	.	.	8.ff#\L	.	.	.	.	.	16D\	.	4D\	.	4d/	.	4a/	4d\	.	8a\	.	8.ff#\L	.
.	.	.	.	.	.	.	.	.	.	.	.	.	16D\	.	.	.	.	.	.	.	.	.	.	.	.
.	.	.	.	.	.	.	.	.	.	.	.	.	16D\	.	.	.	.	.	.	.	.	8cc\J	.	.	.
.	.	16D\Jk	.	.	.	.	16aa\Jk	.	.	.	.	.	16D\JJ	.	.	.	.	.	.	.	.	.	.	16aa\Jk	.
*	*	*	*Xrep	*	*Xrep	*	*	*	*	*	*	*	*	*	*	*	*	*	*	*	*	*Xtremolo	*	*	*
*	*	*	*	*	*	*	*	*	*	*	*	*	*Xtremolo	*	*	*	*	*	*	*	*	*	*	*	*
!	!	!	!	!	!	!	!LO:LB:g=original	!	!	!	!	!	!	!	!	!	!	!	!	!	!	!	!	!	!
!	!	!	!	!	!	!	!	!	!	!	!	!	!	!	!	!	!	!	!	!LO:LB:g=original	!	!	!	!	!
=128	=128	=128	=128	=128	=128	=128	=128	=128	=128	=128	=128	=128	=128	=128	=128	=128	=128	=128	=128	=128	=128	=128	=128	=128	=128
8G\L	.	8G\L	8G\L	.	4B/ 4d	.	4gg\	.	2r	.	2r	.	4GG/	.	4G\	.	4g/	.	4g/	4B\	.	4b\	.	4gg\	.
16F#\L	.	16F#\L	16F#\L	.	.	.	.	.	.	.	.	.	.	.	.	.	.	.	.	.	.	.	.	.	.
16E\JJ	.	16E\JJ	16E\JJ	.	.	.	.	.	.	.	.	.	.	.	.	.	.	.	.	.	.	.	.	.	.
16D\LL	.	16D/LL	16D\LL	.	4r	.	4r	.	.	.	.	.	4r	.	4r	.	4r	.	4r	4ryy	.	4r	.	4r	.
16C\	.	16C/	16C\	.	.	.	.	.	.	.	.	.	.	.	.	.	.	.	.	.	.	.	.	.	.
16BB\	.	16BB/	16BB\	.	.	.	.	.	.	.	.	.	.	.	.	.	.	.	.	.	.	.	.	.	.
16AA\JJ	.	16AA/JJ	16AA\JJ	.	.	.	.	.	.	.	.	.	.	.	.	.	.	.	.	.	.	.	.	.	.
!	!	!	!	!	!	!	!	!	!	!	!	!	!	!	!	!	!	!	!	!	!	!LO:LB:g=original	!	!	!
=129	=129	=129	=129	=129	=129	=129	=129	=129	=129	=129	=129	=129	=129	=129	=129	=129	=129	=129	=129	=129	=129	=129	=129	=129	=129
!	!	!	!	!	!	!	!	!	!	!	!LO:TX:t=P:problem=partia kończy się w t. 129	!	!	!	!	!	!	!	!	!	!	!	!	!	!
8GG/L	.	8GG/L	8GG\L	.	4B/ 4g	.	4d\ 4dd 4gg	.	2r	.	2ryy	.	4GG/	.	4G\	.	4g/	.	4g/	4B\	.	4b\	.	4gg\	.
8BB/	.	8BB/J	8BB\J	.	.	.	.	.	.	.	.	.	.	.	.	.	.	.	.	.	.	.	.	.	.
8D/	.	8D/L	8D\L	.	4B/ 4d	.	4G/ 4g 4b 4bb	.	.	.	.	.	4GG/	.	4G\	.	4g/	.	4g/	4B\	.	4dd\	.	4bb\	.
8BB/J	.	8BB/J	8BB\J	.	.	.	.	.	.	.	.	.	.	.	.	.	.	.	.	.	.	.	.	.	.
=130	=130	=130	=130	=130	=130	=130	=130	=130	=130	=130	=130	=130	=130	=130	=130	=130	=130	=130	=130	=130	=130	=130	=130	=130	=130
4GG/	.	4GG/	4GG;/	.	4B/ 4d	.	4G/ 4d 4b 4gg	.	2r	.	2ryy	.	4GG/	.	4G\	.	4g/	.	4g/	4B\	.	4b\	.	4gg\	.
!	!	!	!	!	!LO:TX:b:t=Fine	!	!LO:TX:b:t=Fine.	!	!	!	!	!	!LO:TX:b:t=Finis 1838. L&colon; M&colon;	!	!	!	!LO:TX:b:t=Finis. 1838 L&colon; M&colon;	!	!LO:TX:b:t=Finis 1838 L&colon; M&colon;	!	!	!LO:TX:b:t=Finis 1838 L&colon; M&colon;	!	!LO:TX:b:t=Finis 1838 L&colon; M&colon;	!
4r	.	4r	4r	.	4r	.	4r	.	.	.	.	.	4r	.	4r	.	4r	.	4r	4ryy	.	4r	.	4r	.
!	!	!LO:TX:t=P:problem= pod ostatnim systemem utworu ołówkiem dopisany fragment nieznanej kompozycji	!	!	!	!	!	!	!	!	!	!	!	!	!LO:TX:b:t=23. Grudzień 1909 r,	!	!	!	!	!	!	!	!	!	!
*	*	*	*	*	*	*	*	*	*	*	*	*	*	*	*	*	*	*	*v	*v	*	*	*	*	*
==	==	==	==	==	==	==	==	==	==	==	==	==	==	==	==	==	==	==	==	==	==	==	==	==
*-	*-	*-	*-	*-	*-	*-	*-	*-	*-	*-	*-	*-	*-	*-	*-	*-	*-	*-	*-	*-	*-	*-	*-	*-
!!!system-decoration: [(s1,s2)][(s3,s4,s5)][(s6)][(s7,s8)][(s9,s10,s11,s12)]s13
!!!RDF**kern: > = above
!!!RDF**kern: < = below
!!!ENC: Marcin Jachim
!!!END: 2020-08-21
!!!ENC: Jan Barakat
!!!END: 2022-03-28
